<?xml version="1.0" encoding="UTF-8"?>
<map version="1.10" tiledversion="1.11.2" orientation="orthogonal" renderorder="right-down" width="120" height="40" tilewidth="16" tileheight="16" infinite="1" nextlayerid="2" nextobjectid="1">
 <editorsettings>
  <export format="csv"/>
 </editorsettings>
 <tileset firstgid="1" source="tileset.tsx"/>
 <layer id="1" name="Tile Layer 1" width="120" height="40">
  <data encoding="csv">
   <chunk x="32" y="-128" width="16" height="16">
0,0,0,0,0,0,0,0,0,0,0,0,0,0,0,0,
0,0,0,0,0,0,0,0,0,0,0,0,0,0,0,0,
0,0,0,0,0,0,0,0,0,0,0,0,0,0,0,0,
0,0,0,0,0,0,0,0,0,0,0,0,0,0,0,0,
0,0,0,0,0,0,0,0,0,0,0,0,0,0,0,0,
0,0,0,0,0,0,0,0,0,0,0,0,0,0,0,0,
0,0,0,0,0,0,0,0,0,0,0,0,0,0,0,0,
0,0,0,0,0,0,0,0,0,0,0,0,0,0,0,0,
0,0,0,0,0,0,0,0,0,0,0,0,0,0,0,0,
0,0,0,0,0,0,0,0,0,0,0,0,0,0,0,0,
0,1073741833,1073741833,1073741833,1073741833,1073741833,1073741833,1073741833,1073741833,1073741833,1073741833,1073741833,1073741833,1073741833,1073741833,1073741833,
0,1073741833,1073741833,1073741833,1073741833,1073741833,1073741833,1073741833,1073741833,1073741833,1073741833,1073741833,1073741833,1073741833,1073741833,1073741833,
0,1073741833,1073741833,1073741833,1073741833,1073741833,1073741833,1073741833,1073741833,1073741833,1073741833,1073741833,1073741833,1073741833,1073741833,1073741833,
0,1073741833,1073741833,1073741833,1073741830,1073741828,1073741828,1073741828,1073741828,1073741828,1073741828,1073741828,1073741828,1073741828,1073741828,1073741828,
0,1073741833,1073741833,1073741833,1073741834,0,0,0,0,0,0,0,0,0,0,0,
0,1073741833,1073741833,1073741833,1073741834,0,0,0,0,0,0,0,0,0,0,0
</chunk>
   <chunk x="48" y="-128" width="16" height="16">
0,0,0,0,0,0,0,0,0,0,0,0,0,0,0,0,
0,0,0,0,0,0,0,0,0,0,0,0,0,0,0,0,
0,0,0,0,0,0,0,0,0,0,0,0,0,0,0,0,
0,0,0,0,0,0,0,0,0,0,0,0,0,0,0,0,
0,0,0,0,0,0,0,0,0,0,0,0,0,0,0,0,
0,0,0,0,0,0,0,0,0,0,0,0,0,0,0,0,
0,0,0,0,0,0,0,0,0,0,0,0,0,0,0,0,
0,0,0,0,0,0,0,0,0,0,0,0,0,0,0,0,
0,0,0,0,0,0,0,0,0,0,0,0,0,0,0,0,
0,0,0,0,0,0,0,0,0,0,0,0,0,0,0,0,
1073741833,1073741833,1073741833,1073741833,1073741833,1073741833,1073741833,1073741833,1073741833,1073741833,1073741833,1073741833,1073741833,1073741833,1073741833,1073741833,
1073741833,1073741833,1073741833,1073741833,1073741833,1073741833,1073741833,1073741833,1073741833,1073741833,1073741833,1073741833,1073741833,1073741833,1073741833,1073741833,
1073741833,1073741833,1073741833,1073741833,1073741833,1073741833,1073741833,1073741833,1073741833,1073741833,1073741833,1073741833,1073741833,1073741833,1073741833,1073741833,
1073741828,1073741828,1073741828,1073741828,1073741828,1073741828,1073741828,1073741828,1073741828,1073741828,1073741828,1073741828,1073741828,1073741828,1073741828,1073741828,
0,0,0,0,0,0,0,0,0,0,0,0,0,0,0,0,
0,0,0,0,0,0,0,0,0,0,0,0,0,0,0,0
</chunk>
   <chunk x="64" y="-128" width="16" height="16">
0,0,0,0,0,0,0,0,0,0,0,0,0,0,0,0,
0,0,0,0,0,0,0,0,0,0,0,0,0,0,0,0,
0,0,0,0,0,0,0,0,0,0,0,0,0,0,0,0,
0,0,0,0,0,0,0,0,0,0,0,0,0,0,0,0,
0,0,0,0,0,0,0,0,0,0,0,0,0,0,0,0,
0,0,0,0,0,0,0,0,0,0,0,0,0,0,0,0,
0,0,0,0,0,0,0,0,0,0,0,0,0,0,0,0,
0,0,0,0,0,0,0,0,0,0,0,0,0,0,0,0,
0,0,0,0,0,0,0,0,0,0,0,0,0,0,0,0,
0,0,0,0,0,0,0,0,0,0,0,0,0,0,0,0,
1073741833,1073741833,3221225481,3221225481,3221225481,3221225481,3221225481,3221225481,3221225481,3221225481,3221225481,3221225481,3221225481,3221225481,1073741833,1073741833,
1073741833,1073741833,1073741833,1073741833,1073741833,1073741833,1073741833,3221225481,3221225481,3221225481,3221225481,3221225481,3221225481,3221225481,3221225481,3221225481,
1073741833,1073741833,1073741833,1073741833,1073741833,1073741833,1073741833,3221225481,3221225481,3221225481,3221225481,3221225481,3221225481,3221225481,3221225481,3221225481,
1073741828,1073741828,1073741828,1073741828,1073741828,1073741828,3221225476,3221225476,3221225476,3221225476,3221225476,3221225476,3221225476,3221225476,3221225476,3221225476,
0,0,0,0,0,0,0,0,0,0,0,0,0,0,0,0,
0,0,0,0,0,0,0,0,0,0,0,0,0,0,0,0
</chunk>
   <chunk x="80" y="-128" width="16" height="16">
0,0,0,0,0,0,0,0,0,0,0,0,0,0,0,0,
0,0,0,0,0,0,0,0,0,0,0,0,0,0,0,0,
0,0,0,0,0,0,0,0,0,0,0,0,0,0,0,0,
0,0,0,0,0,0,0,0,0,0,0,0,0,0,0,0,
0,0,0,0,0,0,0,0,0,0,0,0,0,0,0,0,
0,0,0,0,0,0,0,0,0,0,0,0,0,0,0,0,
0,0,0,0,0,0,0,0,0,0,0,0,0,0,0,0,
0,0,0,0,0,0,0,0,0,0,0,0,0,0,0,0,
0,0,0,0,0,0,0,0,0,0,0,0,0,0,0,0,
0,0,0,0,0,0,0,0,0,0,0,0,0,0,0,0,
1073741833,1073741833,1073741833,1073741833,1073741833,1073741833,1073741833,1073741833,1073741833,1073741833,1073741833,1073741833,1073741833,1073741833,1073741833,1073741833,
3221225481,3221225481,3221225481,1073741833,1073741833,1073741833,1073741833,1073741833,1073741833,1073741833,1073741833,1073741833,1073741833,1073741833,1073741833,1073741833,
3221225481,3221225481,3221225481,1073741833,1073741833,1073741833,1073741833,1073741833,1073741833,1073741833,1073741833,1073741833,1073741833,1073741833,1073741833,1073741833,
3221225476,3221225476,3221225476,3221225476,1073741828,1073741828,1073741828,1073741828,1073741828,1073741828,1073741828,1073741828,1073741828,1073741828,1073741828,1073741828,
0,0,0,0,0,0,0,0,0,0,0,0,0,0,0,0,
0,0,0,0,0,0,0,0,0,0,0,0,0,0,0,0
</chunk>
   <chunk x="96" y="-128" width="16" height="16">
0,0,0,0,0,0,0,0,0,0,0,0,0,0,0,0,
0,0,0,0,0,0,0,0,0,0,0,0,0,0,0,0,
0,0,0,0,0,0,0,0,0,0,0,0,0,0,0,0,
0,0,0,0,0,0,0,0,0,0,0,0,0,0,0,0,
0,0,0,0,0,0,0,0,0,0,0,0,0,0,0,0,
0,0,0,0,0,0,0,0,0,0,0,0,0,0,0,0,
0,0,0,0,0,0,0,0,0,0,0,0,0,0,0,0,
0,0,0,0,0,0,0,0,0,0,0,0,0,0,0,0,
0,0,0,0,0,0,0,0,0,0,0,0,0,0,0,0,
0,0,0,0,0,0,0,0,0,0,0,0,0,0,0,0,
1073741833,1073741833,1073741833,1073741833,1073741833,1073741833,1073741833,1073741833,1073741833,1073741833,1073741833,1073741833,1073741833,1073741833,1073741833,1073741833,
1073741833,1073741833,1073741833,1073741833,1073741833,1073741833,1073741833,1073741833,1073741833,1073741833,1073741833,1073741833,1073741833,1073741833,1073741833,1073741833,
1073741833,1073741833,1073741833,1073741833,1073741833,1073741833,1073741833,1073741833,1073741833,1073741833,1073741833,1073741833,1073741833,1073741833,1073741833,1073741833,
1073741828,1073741828,1073741828,1073741828,1073741828,1073741828,1073741828,1073741828,1073741828,1073741828,1073741828,1073741828,1073741828,1073741828,1073741828,1073741828,
0,0,0,0,0,0,0,0,0,0,0,0,0,0,0,0,
0,0,0,0,0,0,0,0,0,0,0,0,0,0,0,0
</chunk>
   <chunk x="112" y="-128" width="16" height="16">
0,0,0,0,0,0,0,0,0,0,0,0,0,0,0,0,
0,0,0,0,0,0,0,0,0,0,0,0,0,0,0,0,
0,0,0,0,0,0,0,0,0,0,0,0,0,0,0,0,
0,0,0,0,0,0,0,0,0,0,0,0,0,0,0,0,
0,0,0,0,0,0,0,0,0,0,0,0,0,0,0,0,
0,0,0,0,0,0,0,0,0,0,0,0,0,0,0,0,
0,0,0,0,0,0,0,0,0,0,0,0,0,0,0,0,
0,0,0,0,0,0,0,0,0,0,0,0,0,0,0,0,
0,0,0,0,0,0,0,0,0,0,0,0,0,0,0,0,
0,0,0,0,0,0,0,0,0,0,0,0,0,0,0,0,
1073741833,1073741833,1073741833,1073741833,1073741833,1073741833,1073741833,1073741833,1073741833,1073741833,1073741833,1073741833,1073741833,1073741833,1073741833,1073741833,
1073741833,1073741833,1073741833,1073741833,1073741833,1073741833,1073741833,1073741833,1073741833,1073741833,1073741833,1073741833,1073741833,1073741833,1073741833,1073741833,
1073741833,1073741833,1073741833,1073741833,1073741833,1073741833,1073741833,1073741833,1073741833,1073741833,1073741833,1073741833,1073741833,1073741833,1073741833,1073741833,
1073741828,1073741828,1073741828,1073741828,1073741828,1073741828,1073741828,1073741828,1073741828,1073741828,1073741828,1073741828,1073741828,1073741828,1073741828,1073741828,
0,0,0,0,0,0,0,0,0,0,0,0,0,0,0,0,
0,0,0,0,0,0,0,0,0,0,0,0,0,0,0,0
</chunk>
   <chunk x="128" y="-128" width="16" height="16">
0,0,0,0,0,0,0,0,0,0,0,0,0,0,0,0,
0,0,0,0,0,0,0,0,0,0,0,0,0,0,0,0,
0,0,0,0,0,0,0,0,0,0,0,0,0,0,0,0,
0,0,0,0,0,0,0,0,0,0,0,0,0,0,0,0,
0,0,0,0,0,0,0,0,0,0,0,0,0,0,0,0,
0,0,0,0,0,0,0,0,0,0,0,0,0,0,0,0,
0,0,0,0,0,0,0,0,0,0,0,0,0,0,0,0,
0,0,0,0,0,0,0,0,0,0,0,0,0,0,0,0,
0,0,0,0,0,0,0,0,0,0,0,0,0,0,0,0,
0,0,0,0,0,0,0,0,0,0,0,0,0,0,0,0,
1073741833,1073741833,1073741833,1073741833,1073741833,1073741833,1073741833,1073741833,1073741833,1073741833,1073741833,1073741833,1073741833,1073741833,1073741833,1073741833,
1073741833,1073741833,1073741833,1073741833,1073741833,1073741833,1073741833,1073741833,1073741833,1073741833,1073741833,1073741833,1073741833,1073741833,1073741833,1073741833,
1073741833,1073741833,1073741833,1073741833,1073741833,1073741833,1073741833,1073741833,1073741833,1073741833,1073741833,1073741833,1073741833,1073741833,1073741833,1073741833,
1073741828,1073741828,1073741828,1073741828,1073741828,1073741828,1073741828,1073741828,1073741828,1073741828,1073741828,1073741828,1073741828,1073741828,1073741828,1073741828,
0,0,0,0,0,0,0,0,0,0,0,0,0,0,0,0,
0,0,0,0,0,0,0,0,0,0,0,0,0,0,0,0
</chunk>
   <chunk x="144" y="-128" width="16" height="16">
0,0,0,0,0,0,0,0,0,0,0,0,0,0,0,0,
0,0,0,0,0,0,0,0,0,0,0,0,0,0,0,0,
0,0,0,0,0,0,0,0,0,0,0,0,0,0,0,0,
0,0,0,0,0,0,0,0,0,0,0,0,0,0,0,0,
0,0,0,0,0,0,0,0,0,0,0,0,0,0,0,0,
0,0,0,0,0,0,0,0,0,0,0,0,0,0,0,0,
0,0,0,0,0,0,0,0,0,0,0,0,0,0,0,0,
0,0,0,0,0,0,0,0,0,0,0,0,0,0,0,0,
0,0,0,0,0,0,0,0,0,0,0,0,0,0,0,0,
0,0,0,0,0,0,0,0,0,0,0,0,0,0,0,0,
1073741833,1073741833,1073741833,1073741833,1073741833,1073741833,1073741833,1073741833,1073741833,1073741833,1073741833,1073741833,1073741833,1073741833,1073741833,1073741833,
1073741833,1073741833,1073741833,1073741833,1073741833,1073741833,1073741833,1073741833,1073741833,1073741833,1073741833,1073741833,1073741833,1073741833,1073741833,1073741833,
1073741833,1073741833,1073741833,1073741833,1073741833,1073741833,1073741833,1073741833,1073741833,1073741833,1073741833,1073741833,1073741833,1073741833,1073741833,1073741833,
1073741828,1073741828,1073741828,1073741828,1073741828,1073741828,1073741828,1073741828,1073741828,1073741828,1073741828,1073741828,1073741828,1073741828,1073741828,1073741828,
0,0,0,0,0,0,0,0,0,0,0,0,0,0,0,0,
0,0,0,0,0,0,0,0,0,0,0,0,0,0,0,0
</chunk>
   <chunk x="160" y="-128" width="16" height="16">
0,0,0,0,0,0,0,0,0,0,0,0,0,0,0,0,
0,0,0,0,0,0,0,0,0,0,0,0,0,0,0,0,
0,0,0,0,0,0,0,0,0,0,0,0,0,0,0,0,
0,0,0,0,0,0,0,0,0,0,0,0,0,0,0,0,
0,0,0,0,0,0,0,0,0,0,0,0,0,0,0,0,
0,0,0,0,0,0,0,0,0,0,0,0,0,0,0,0,
0,0,0,0,0,0,0,0,0,0,0,0,0,0,0,0,
0,0,0,0,0,0,0,0,0,0,0,0,0,0,0,0,
0,0,0,0,0,0,0,0,0,0,0,0,0,0,0,0,
0,0,0,0,0,0,0,0,0,0,0,0,0,0,0,0,
1073741833,1073741833,1073741833,1073741833,1073741833,1073741833,1073741833,1073741833,1073741833,1073741833,1073741833,1073741833,1073741833,1073741833,1073741833,1073741833,
1073741833,1073741833,1073741833,1073741833,1073741833,1073741833,1073741833,1073741833,1073741833,1073741833,1073741833,1073741833,1073741833,1073741833,1073741833,1073741833,
1073741833,1073741833,1073741833,1073741833,1073741833,1073741833,1073741833,1073741833,1073741833,1073741833,1073741833,1073741833,1073741833,1073741833,1073741833,1073741833,
1073741828,1073741828,1073741828,1073741828,1073741828,1073741828,1073741828,1073741828,1073741828,1073741828,1073741828,1073741828,1073741828,1073741828,1073741828,1073741828,
0,0,0,0,0,0,0,0,0,0,0,0,0,0,0,0,
0,0,0,0,0,0,0,0,0,0,0,0,0,0,0,0
</chunk>
   <chunk x="176" y="-128" width="16" height="16">
0,0,0,0,0,0,0,0,0,0,0,0,0,0,0,0,
0,0,0,0,0,0,0,0,0,0,0,0,0,0,0,0,
0,0,0,0,0,0,0,0,0,0,0,0,0,0,0,0,
0,0,0,0,0,0,0,0,0,0,0,0,0,0,0,0,
0,0,0,0,0,0,0,0,0,0,0,0,0,0,0,0,
0,0,0,0,0,0,0,0,0,0,0,0,0,0,0,0,
0,0,0,0,0,0,0,0,0,0,0,0,0,0,0,0,
0,0,0,0,0,0,0,0,0,0,0,0,0,0,0,0,
0,0,0,0,0,0,0,0,0,0,0,0,0,0,0,0,
0,0,0,0,0,0,0,0,0,0,0,0,0,0,0,0,
1073741833,1073741833,1073741833,1073741833,1073741833,1073741833,1073741833,1073741833,1073741833,1073741833,1073741833,1073741833,1073741833,1073741833,1073741833,1073741833,
1073741833,1073741833,1073741833,1073741833,1073741833,1073741833,1073741833,1073741833,1073741833,1073741833,1073741833,1073741833,1073741833,1073741833,1073741833,1073741833,
1073741833,1073741833,1073741833,1073741833,1073741833,1073741833,1073741833,1073741833,1073741833,1073741833,1073741833,1073741833,1073741833,1073741833,1073741833,1073741833,
1073741828,1073741828,1073741828,1073741828,1073741828,1073741828,1073741828,1073741828,1073741828,1073741828,1073741828,1073741828,1073741828,1073741831,1073741833,1073741833,
0,0,0,0,0,0,0,0,0,0,0,0,0,1073741832,1073741833,1073741833,
0,0,0,0,0,0,0,0,0,0,0,0,0,1073741832,1073741833,1073741833
</chunk>
   <chunk x="192" y="-128" width="16" height="16">
0,0,0,0,0,0,0,0,0,0,0,0,0,0,0,0,
0,0,0,0,0,0,0,0,0,0,0,0,0,0,0,0,
0,0,0,0,0,0,0,0,0,0,0,0,0,0,0,0,
0,0,0,0,0,0,0,0,0,0,0,0,0,0,0,0,
0,0,0,0,0,0,0,0,0,0,0,0,0,0,0,0,
0,0,0,0,0,0,0,0,0,0,0,0,0,0,0,0,
0,0,0,0,0,0,0,0,0,0,0,0,0,0,0,0,
0,0,0,0,0,0,0,0,0,0,0,0,0,0,0,0,
0,0,0,0,0,0,0,0,0,0,0,0,0,0,0,0,
0,0,0,0,0,0,0,0,0,0,0,0,0,0,0,0,
1073741833,0,0,0,0,0,0,0,0,0,0,0,0,0,0,0,
1073741833,0,0,0,0,0,0,0,0,0,0,0,0,0,0,0,
1073741833,0,0,0,0,0,0,0,0,0,0,0,0,0,0,0,
1073741833,0,0,0,0,0,0,0,0,0,0,0,0,0,0,0,
1073741833,0,0,0,0,0,0,0,0,0,0,0,0,0,0,0,
1073741833,0,0,0,0,0,0,0,0,0,0,0,0,0,0,0
</chunk>
   <chunk x="32" y="-112" width="16" height="16">
0,1073741833,1073741833,1073741833,1073741834,0,0,0,0,0,0,0,0,0,0,0,
0,1073741833,1073741833,1073741833,1073741834,0,0,0,0,0,0,0,0,0,0,0,
0,1073741833,1073741833,1073741833,1073741834,0,0,0,0,0,0,0,0,0,0,0,
0,1073741833,1073741833,1073741833,1073741834,0,0,0,0,0,0,0,0,0,0,0,
0,1073741833,1073741833,1073741833,1073741834,0,0,0,0,0,0,0,0,0,0,0,
0,1073741833,1073741833,1073741833,1073741834,0,0,0,0,0,0,0,0,0,0,0,
0,1073741833,1073741833,1073741833,1073741834,0,0,0,0,0,0,0,0,0,0,0,
0,1073741833,1073741833,1073741833,1073741834,0,0,0,0,0,0,0,0,0,0,0,
0,1073741833,1073741833,1073741833,1073741834,0,0,0,0,0,0,0,0,0,0,0,
0,1073741833,1073741833,1073741833,1073741834,0,0,0,0,0,0,0,0,0,0,0,
0,1073741833,1073741833,1073741833,1073741834,0,0,0,0,0,0,0,0,0,0,0,
0,1073741833,1073741833,1073741833,1073741834,0,0,0,0,0,0,0,0,0,0,0,
0,1073741833,1073741833,1073741833,1073741834,0,0,0,0,0,0,0,0,0,0,0,
0,1073741833,1073741833,1073741833,1073741834,0,0,0,0,0,0,0,0,0,0,0,
0,1073741833,1073741833,1073741833,1073741834,0,0,0,0,0,0,0,0,0,0,0,
0,1073741833,1073741833,1073741833,1073741834,0,0,0,0,0,0,0,0,0,0,0
</chunk>
   <chunk x="176" y="-112" width="16" height="16">
0,0,0,0,0,0,0,0,0,0,0,0,0,1073741832,1073741833,1073741833,
0,0,0,0,0,0,0,0,0,0,0,0,0,1073741832,1073741833,1073741833,
0,0,0,0,0,0,0,0,0,0,0,0,0,1073741832,1073741833,1073741833,
0,0,0,0,0,0,0,0,0,0,0,0,0,1073741832,1073741833,1073741833,
0,0,0,0,0,0,0,0,0,0,0,0,0,1073741832,1073741833,1073741833,
0,0,0,0,0,0,0,0,0,0,0,0,0,1073741832,1073741833,1073741833,
0,0,0,0,0,0,0,0,0,0,0,0,0,1073741832,1073741833,1073741833,
0,0,0,0,0,0,0,0,0,0,0,0,0,1073741832,1073741833,1073741833,
0,0,0,0,0,0,0,0,0,0,0,0,0,1073741832,1073741833,1073741833,
0,0,0,0,0,0,0,0,0,0,0,0,0,1073741832,1073741833,1073741833,
0,0,0,0,0,0,0,0,0,0,0,0,0,1073741832,1073741833,1073741833,
0,0,0,0,0,0,0,0,0,0,0,0,0,1073741832,1073741833,1073741833,
0,0,0,0,0,0,0,0,0,0,0,0,0,1073741832,1073741833,1073741833,
0,0,0,0,0,0,0,0,0,0,0,0,0,1073741832,1073741833,1073741833,
0,0,0,0,0,0,0,0,0,0,0,0,0,1073741832,1073741833,1073741833,
0,0,0,0,0,0,0,0,0,0,0,0,0,1073741832,1073741833,1073741833
</chunk>
   <chunk x="192" y="-112" width="16" height="16">
1073741833,0,0,0,0,0,0,0,0,0,0,0,0,0,0,0,
1073741833,0,0,0,0,0,0,0,0,0,0,0,0,0,0,0,
1073741833,0,0,0,0,0,0,0,0,0,0,0,0,0,0,0,
1073741833,0,0,0,0,0,0,0,0,0,0,0,0,0,0,0,
1073741833,0,0,0,0,0,0,0,0,0,0,0,0,0,0,0,
1073741833,0,0,0,0,0,0,0,0,0,0,0,0,0,0,0,
1073741833,0,0,0,0,0,0,0,0,0,0,0,0,0,0,0,
1073741833,0,0,0,0,0,0,0,0,0,0,0,0,0,0,0,
1073741833,0,0,0,0,0,0,0,0,0,0,0,0,0,0,0,
1073741833,0,0,0,0,0,0,0,0,0,0,0,0,0,0,0,
1073741833,0,0,0,0,0,0,0,0,0,0,0,0,0,0,0,
1073741833,0,0,0,0,0,0,0,0,0,0,0,0,0,0,0,
1073741833,0,0,0,0,0,0,0,0,0,0,0,0,0,0,0,
1073741833,0,0,0,0,0,0,0,0,0,0,0,0,0,0,0,
1073741833,0,0,0,0,0,0,0,0,0,0,0,0,0,0,0,
1073741833,0,0,0,0,0,0,0,0,0,0,0,0,0,0,0
</chunk>
   <chunk x="32" y="-96" width="16" height="16">
0,1073741833,1073741833,1073741833,1073741834,0,0,0,0,0,0,0,0,0,0,0,
0,1073741833,1073741833,1073741833,1073741834,0,0,0,0,0,0,0,0,0,0,0,
0,1073741833,1073741833,1073741833,1073741834,0,0,0,0,0,0,0,0,0,0,0,
0,1073741833,1073741833,1073741833,1073741834,0,0,0,0,0,0,0,0,0,0,0,
0,1073741833,1073741833,1073741833,1073741834,0,0,0,0,0,0,0,0,0,0,0,
0,1073741833,1073741833,1073741833,1073741834,0,0,0,0,0,0,0,0,0,0,0,
0,1073741833,1073741833,1073741833,1073741834,0,0,0,0,0,0,0,0,0,0,0,
0,1073741833,1073741833,1073741833,1073741834,0,0,0,0,0,0,0,0,0,0,0,
0,1073741833,1073741833,1073741833,1073741834,0,0,0,0,0,0,0,0,0,0,0,
0,1073741833,1073741833,1073741833,1073741834,0,0,0,0,0,0,0,0,0,0,0,
0,1073741833,1073741833,1073741833,1073741834,0,0,0,0,0,0,0,0,0,0,0,
0,1073741833,1073741833,1073741833,1073741834,0,0,0,0,0,0,0,0,0,0,0,
0,1073741833,1073741833,1073741833,1073741834,0,0,0,0,0,0,0,0,0,0,0,
0,1073741833,1073741833,1073741833,1073741834,0,0,0,0,0,0,0,0,0,0,0,
0,1073741833,1073741833,1073741833,1073741825,1073741838,1073741838,1073741838,1073741838,1073741838,1073741838,1073741838,1073741838,1073741838,1073741838,1073741838,
0,1073741833,1073741833,1073741833,1073741833,1073741833,1073741833,1073741833,1073741833,1073741833,1073741833,1073741833,1073741833,1073741833,1073741833,1073741833
</chunk>
   <chunk x="48" y="-96" width="16" height="16">
0,0,0,0,0,0,0,0,0,0,0,0,0,0,0,0,
0,0,0,0,0,0,0,0,0,0,0,0,0,0,0,0,
0,0,0,0,0,0,0,0,0,0,0,0,0,0,0,0,
0,0,0,0,0,0,0,0,0,0,0,0,0,0,0,0,
0,0,0,0,0,0,0,0,0,0,0,0,0,0,0,0,
0,0,0,0,0,0,0,0,0,0,0,0,0,0,0,0,
0,0,0,0,0,0,0,0,0,0,0,0,0,0,0,0,
0,0,0,0,0,0,0,0,0,0,0,0,0,0,0,0,
0,0,0,0,0,0,0,0,0,0,0,0,0,0,0,0,
0,0,0,0,0,0,0,0,0,0,0,0,0,0,0,0,
0,0,0,0,0,0,0,0,0,0,0,0,0,0,0,0,
0,0,0,0,0,0,0,0,0,0,0,0,0,0,0,0,
0,0,0,0,0,0,0,0,0,0,0,0,0,0,0,0,
0,0,0,0,0,0,0,0,0,0,0,0,0,0,0,0,
1073741838,1073741838,1073741838,1073741838,1073741838,1073741838,1073741838,1073741838,1073741838,1073741838,1073741838,1073741838,1073741838,1073741838,1073741838,1073741838,
1073741833,1073741833,1073741833,1073741833,1073741833,1073741833,1073741833,1073741833,1073741833,1073741833,1073741833,1073741833,1073741833,1073741833,1073741833,1073741833
</chunk>
   <chunk x="64" y="-96" width="16" height="16">
0,0,0,0,0,0,0,0,0,0,0,0,0,0,0,0,
0,0,0,0,0,0,0,0,0,0,0,0,0,0,0,0,
0,0,0,0,0,0,0,0,0,0,0,0,0,0,0,0,
0,0,0,0,0,0,0,0,0,0,0,0,0,0,0,0,
0,0,0,0,0,0,0,0,0,0,0,0,0,0,0,0,
0,0,0,0,0,0,0,0,0,0,0,0,0,0,0,0,
0,0,0,0,0,0,0,0,0,0,0,0,0,0,0,0,
0,0,0,0,0,0,0,0,0,0,0,0,0,0,0,0,
0,0,0,0,0,0,0,0,0,0,0,0,0,0,0,0,
0,0,0,0,0,0,0,0,0,0,0,0,0,0,0,0,
0,0,0,0,0,0,0,0,0,0,0,0,0,0,0,0,
0,0,0,0,0,0,0,0,0,0,0,0,0,0,0,0,
0,0,0,0,0,0,0,0,0,0,0,0,0,0,0,0,
0,0,0,0,0,0,0,0,0,0,0,0,0,0,0,0,
1073741838,1073741838,1073741838,1073741838,1073741838,1073741838,1073741838,1073741838,1073741838,1073741838,1073741838,1073741838,1073741838,1073741838,1073741838,1073741838,
1073741833,1073741833,1073741833,1073741833,1073741833,1073741833,1073741833,1073741833,1073741833,1073741833,1073741833,1073741833,1073741833,1073741833,1073741833,1073741833
</chunk>
   <chunk x="80" y="-96" width="16" height="16">
0,0,0,0,0,0,0,0,0,0,0,0,0,0,0,0,
0,0,0,0,0,0,0,0,0,0,0,0,0,0,0,0,
0,0,0,0,0,0,0,0,0,0,0,0,0,0,0,0,
0,0,0,0,0,0,0,0,0,0,0,0,0,0,0,0,
0,0,0,0,0,0,0,0,0,0,0,0,0,0,0,0,
0,0,0,0,0,0,0,0,0,0,0,0,0,0,0,0,
0,0,0,0,0,0,0,0,0,0,0,0,0,0,0,0,
0,0,0,0,0,0,0,0,0,0,0,0,0,0,0,0,
0,0,0,0,0,0,0,0,0,0,0,0,0,0,0,0,
0,0,0,0,0,0,0,0,0,0,0,0,0,0,0,0,
0,0,0,0,0,0,0,0,0,0,0,0,0,0,0,0,
0,0,0,0,0,0,0,0,0,0,0,0,0,0,0,0,
0,0,0,0,0,0,0,0,0,0,0,0,0,0,0,0,
0,0,0,0,0,0,0,0,0,0,0,0,0,0,0,0,
1073741838,1073741838,1073741838,1073741838,1073741838,1073741838,1073741838,1073741838,1073741838,1073741838,1073741838,1073741838,1073741838,1073741838,1073741838,1073741838,
1073741833,1073741833,1073741833,1073741833,1073741833,1073741833,1073741833,1073741833,1073741833,1073741833,1073741833,1073741833,1073741833,1073741833,1073741833,1073741833
</chunk>
   <chunk x="96" y="-96" width="16" height="16">
0,0,0,0,0,0,0,0,0,0,0,0,0,0,0,0,
0,0,0,0,0,0,0,0,0,0,0,0,0,0,0,0,
0,0,0,0,0,0,0,0,0,0,0,0,0,0,0,0,
0,0,0,0,0,0,0,0,0,0,0,0,0,0,0,0,
0,0,0,0,0,0,0,0,0,0,0,0,0,0,0,0,
0,0,0,0,0,0,0,0,0,0,0,0,0,0,0,0,
0,0,0,0,0,0,0,0,0,0,0,0,0,0,0,0,
0,0,0,0,0,0,0,0,0,0,0,0,0,0,0,0,
0,0,0,0,0,0,0,0,0,0,0,0,0,0,0,0,
0,0,0,0,0,0,0,0,0,0,0,0,0,0,0,0,
0,0,0,0,0,0,0,0,0,0,0,0,0,0,0,0,
0,0,0,0,0,0,0,0,0,0,0,0,0,0,0,0,
0,0,0,0,0,0,0,0,0,0,0,0,0,0,0,0,
0,0,0,0,0,0,0,0,0,0,0,0,0,0,0,0,
1073741838,1073741838,1073741838,1073741838,1073741838,1073741838,1073741838,1073741838,1073741838,1073741838,1073741838,1073741838,1073741838,1073741838,1073741838,1073741838,
1073741833,1073741833,1073741833,1073741833,1073741833,1073741833,1073741833,1073741833,1073741833,1073741833,1073741833,1073741833,1073741833,1073741833,1073741833,1073741833
</chunk>
   <chunk x="112" y="-96" width="16" height="16">
0,0,0,0,0,0,0,0,0,0,0,0,0,0,0,0,
0,0,0,0,0,0,0,0,0,0,0,0,0,0,0,0,
0,0,0,0,0,0,0,0,0,0,0,0,0,0,0,0,
0,0,0,0,0,0,0,0,0,0,0,0,0,0,0,0,
0,0,0,0,0,0,0,0,0,0,0,0,0,0,0,0,
0,0,0,0,0,0,0,0,0,0,0,0,0,0,0,0,
0,0,0,0,0,0,0,0,0,0,0,0,0,0,0,0,
0,0,0,0,0,0,0,0,0,0,0,0,0,0,0,0,
0,0,0,0,0,0,0,0,0,0,0,0,0,0,0,0,
0,0,0,0,0,0,0,0,0,0,0,0,0,0,0,0,
0,0,0,0,0,0,0,0,0,0,0,0,0,0,0,0,
0,0,0,0,0,0,0,0,0,0,0,0,0,0,0,0,
0,0,0,0,0,0,0,0,0,0,0,0,0,0,0,0,
0,0,0,0,0,0,0,0,0,0,0,0,0,0,0,0,
1073741838,1073741838,1073741838,1073741838,1073741838,1073741838,1073741838,1073741838,1073741838,1073741838,1073741838,1073741838,1073741838,1073741838,1073741838,1073741838,
1073741833,1073741833,1073741833,1073741833,1073741833,1073741833,1073741833,1073741833,1073741833,1073741833,1073741833,1073741833,1073741833,1073741833,1073741833,1073741833
</chunk>
   <chunk x="128" y="-96" width="16" height="16">
0,0,0,0,0,0,0,0,0,0,0,0,0,0,0,0,
0,0,0,0,0,0,0,0,0,0,0,0,0,0,0,0,
0,0,0,0,0,0,0,0,0,0,0,0,0,0,0,0,
0,0,0,0,0,0,0,0,0,0,0,0,0,0,0,0,
0,0,0,0,0,0,0,0,0,0,0,0,0,0,0,0,
0,0,0,0,0,0,0,0,0,0,0,0,0,0,0,0,
0,0,0,0,0,0,0,0,0,0,0,0,0,0,0,0,
0,0,0,0,0,0,0,0,0,0,0,0,0,0,0,0,
0,0,0,0,0,0,0,0,0,0,0,0,0,0,0,0,
0,0,0,0,0,0,0,0,0,0,0,0,0,0,0,0,
0,0,0,0,0,0,0,0,0,0,0,0,0,0,0,0,
0,0,0,0,0,0,0,0,0,0,0,0,0,0,0,0,
0,0,0,0,0,0,0,0,0,0,0,0,0,0,0,0,
0,0,0,0,0,0,0,0,0,0,0,0,0,0,0,0,
1073741838,1073741838,1073741838,1073741838,1073741838,1073741838,1073741838,1073741838,1073741838,1073741838,1073741838,1073741838,1073741838,1073741838,1073741838,1073741838,
1073741833,1073741833,1073741833,1073741833,1073741833,1073741833,1073741833,1073741833,1073741833,1073741833,1073741833,1073741833,1073741833,1073741833,1073741833,1073741833
</chunk>
   <chunk x="144" y="-96" width="16" height="16">
0,0,0,0,0,0,0,0,0,0,0,0,0,0,0,0,
0,0,0,0,0,0,0,0,0,0,0,0,0,0,0,0,
0,0,0,0,0,0,0,0,0,0,0,0,0,0,0,0,
0,0,0,0,0,0,0,0,0,0,0,0,0,0,0,0,
0,0,0,0,0,0,0,0,0,0,0,0,0,0,0,0,
0,0,0,0,0,0,0,0,0,0,0,0,0,0,0,0,
0,0,0,0,0,0,0,0,0,0,0,0,0,0,0,0,
0,0,0,0,0,0,0,0,0,0,0,0,0,0,0,0,
0,0,0,0,0,0,0,0,0,0,0,0,0,0,0,0,
0,0,0,0,0,0,0,0,0,0,0,0,0,0,0,0,
0,0,0,0,0,0,0,0,0,0,0,0,0,0,0,0,
0,0,0,0,0,0,0,0,0,0,0,0,0,0,0,0,
0,0,0,0,0,0,0,0,0,0,0,0,0,0,0,0,
0,0,0,0,0,0,0,0,0,0,0,0,0,0,0,0,
1073741838,1073741838,1073741838,1073741838,1073741838,1073741838,1073741838,1073741838,1073741838,1073741838,1073741838,1073741838,1073741839,0,0,0,
1073741833,1073741833,1073741833,1073741833,1073741833,1073741833,1073741833,1073741833,1073741833,1073741833,1073741833,1073741833,1073741834,0,0,0
</chunk>
   <chunk x="176" y="-96" width="16" height="16">
0,0,0,0,0,0,0,0,0,0,0,0,0,1073741832,1073741833,1073741833,
0,0,0,0,0,0,0,0,0,0,0,0,0,1073741832,1073741833,1073741833,
0,0,0,0,0,0,0,0,0,0,0,0,0,1073741832,1073741833,1073741833,
0,0,0,0,0,0,0,0,0,0,0,0,0,1073741832,1073741833,1073741833,
0,0,0,0,0,0,0,0,0,0,0,0,0,1073741832,1073741833,1073741833,
0,0,0,0,0,0,0,0,0,0,0,0,0,1073741832,1073741833,1073741833,
0,0,0,0,0,0,0,0,0,0,0,0,0,1073741832,1073741833,1073741833,
0,0,0,0,0,0,0,0,0,0,0,0,0,1073741832,1073741833,1073741833,
0,0,0,0,0,0,0,0,0,0,0,0,0,1073741832,1073741833,1073741833,
0,0,0,0,0,0,0,0,0,0,0,0,0,1073741832,1073741833,1073741833,
0,0,0,0,0,0,0,0,0,0,0,0,0,1073741832,1073741833,1073741833,
0,0,0,0,0,0,0,0,0,0,0,0,0,1073741832,1073741833,1073741833,
0,0,0,0,0,0,0,0,0,0,0,0,0,1073741832,1073741833,1073741833,
0,0,0,0,0,0,0,0,0,0,0,0,0,1073741832,1073741833,1073741833,
0,0,0,0,0,0,0,0,0,0,0,0,0,1073741832,1073741833,1073741833,
0,0,0,0,0,0,0,0,0,0,0,0,0,1073741832,1073741833,1073741833
</chunk>
   <chunk x="192" y="-96" width="16" height="16">
1073741833,0,0,0,0,0,0,0,0,0,0,0,0,0,0,0,
1073741833,0,0,0,0,0,0,0,0,0,0,0,0,0,0,0,
1073741833,0,0,0,0,0,0,0,0,0,0,0,0,0,0,0,
1073741833,0,0,0,0,0,0,0,0,0,0,0,0,0,0,0,
1073741833,0,0,0,0,0,0,0,0,0,0,0,0,0,0,0,
1073741833,0,0,0,0,0,0,0,0,0,0,0,0,0,0,0,
1073741833,0,0,0,0,0,0,0,0,0,0,0,0,0,0,0,
1073741833,0,0,0,0,0,0,0,0,0,0,0,0,0,0,0,
1073741833,0,0,0,0,0,0,0,0,0,0,0,0,0,0,0,
1073741833,0,0,0,0,0,0,0,0,0,0,0,0,0,0,0,
1073741833,0,0,0,0,0,0,0,0,0,0,0,0,0,0,0,
1073741833,0,0,0,0,0,0,0,0,0,0,0,0,0,0,0,
1073741833,0,0,0,0,0,0,0,0,0,0,0,0,0,0,0,
1073741833,0,0,0,0,0,0,0,0,0,0,0,0,0,0,0,
1073741833,0,0,0,0,0,0,0,0,0,0,0,0,0,0,0,
1073741833,0,0,0,0,0,0,0,0,0,0,0,0,0,0,0
</chunk>
   <chunk x="32" y="-80" width="16" height="16">
0,1073741833,1073741833,1073741833,1073741833,1073741833,1073741833,1073741833,1073741833,1073741833,1073741833,1073741833,1073741833,1073741833,1073741833,1073741833,
0,1073741833,1073741833,1073741833,1073741833,1073741833,1073741833,1073741833,1073741833,1073741833,1073741833,1073741833,1073741833,1073741833,1073741833,1073741833,
0,0,0,0,0,0,0,0,0,0,0,0,0,0,0,0,
0,0,0,0,0,0,0,0,0,0,0,0,0,0,0,0,
0,0,0,0,0,0,0,0,0,0,0,0,0,0,0,0,
0,0,0,0,0,0,0,0,0,0,0,0,0,0,0,0,
0,0,0,0,0,0,0,0,0,0,0,0,0,0,0,0,
0,0,0,0,0,0,0,0,0,0,0,0,0,0,0,0,
0,0,0,0,0,0,0,0,0,0,0,0,0,0,0,0,
0,0,0,0,0,0,0,0,0,0,0,0,0,0,0,0,
0,0,0,0,0,0,0,0,0,0,0,0,0,0,0,0,
0,0,0,0,0,0,0,0,0,0,0,0,0,0,0,0,
0,0,0,0,0,0,0,0,0,0,0,0,0,0,0,0,
0,0,0,0,0,0,0,0,0,0,0,0,0,0,0,0,
0,0,0,0,0,0,0,0,0,0,0,0,0,0,0,0,
0,0,0,0,0,0,0,0,0,0,0,0,0,0,0,0
</chunk>
   <chunk x="48" y="-80" width="16" height="16">
1073741833,1073741833,1073741833,1073741833,1073741833,1073741833,1073741833,1073741833,1073741833,1073741833,1073741833,1073741833,1073741833,1073741833,1073741833,1073741833,
1073741833,1073741833,1073741833,1073741833,1073741833,1073741833,1073741833,1073741833,1073741833,1073741833,1073741833,1073741833,1073741833,1073741833,1073741833,1073741833,
0,0,0,0,0,0,0,0,0,0,0,0,0,0,0,0,
0,0,0,0,0,0,0,0,0,0,0,0,0,0,0,0,
0,0,0,0,0,0,0,0,0,0,0,0,0,0,0,0,
0,0,0,0,0,0,0,0,0,0,0,0,0,0,0,0,
0,0,0,0,0,0,0,0,0,0,0,0,0,0,0,0,
0,0,0,0,0,0,0,0,0,0,0,0,0,0,0,0,
0,0,0,0,0,0,0,0,0,0,0,0,0,0,0,0,
0,0,0,0,0,0,0,0,0,0,0,0,0,0,0,0,
0,0,0,0,0,0,0,0,0,0,0,0,0,0,0,0,
0,0,0,0,0,0,0,0,0,0,0,0,0,0,0,0,
0,0,0,0,0,0,0,0,0,0,0,0,0,0,0,0,
0,0,0,0,0,0,0,0,0,0,0,0,0,0,0,0,
0,0,0,0,0,0,0,0,0,0,0,0,0,0,0,0,
0,0,0,0,0,0,0,0,0,0,0,0,0,0,0,0
</chunk>
   <chunk x="64" y="-80" width="16" height="16">
1073741833,1073741833,1073741833,1073741833,1073741833,1073741833,1073741833,1073741833,1073741833,1073741833,1073741833,1073741833,1073741833,1073741833,1073741833,1073741833,
1073741833,1073741833,1073741833,1073741833,1073741833,1073741833,1073741833,1073741833,1073741833,1073741833,1073741833,1073741833,1073741833,1073741833,1073741833,1073741833,
0,0,0,0,0,0,0,0,0,0,0,0,0,0,0,0,
0,0,0,0,0,0,0,0,0,0,0,0,0,0,0,0,
0,0,0,0,0,0,0,0,0,0,0,0,0,0,0,0,
0,0,0,0,0,0,0,0,0,0,0,0,0,0,0,0,
0,0,0,0,0,0,0,0,0,0,0,0,0,0,0,0,
0,0,0,0,0,0,0,0,0,0,0,0,0,0,0,0,
0,0,0,0,0,0,0,0,0,0,0,0,0,0,0,0,
0,0,0,0,0,0,0,0,0,0,0,0,0,0,0,0,
0,0,0,0,0,0,0,0,0,0,0,0,0,0,0,0,
0,0,0,0,0,0,0,0,0,0,0,0,0,0,0,0,
0,0,0,0,0,0,0,0,0,0,0,0,0,0,0,0,
0,0,0,0,0,0,0,0,0,0,0,0,0,0,0,0,
0,0,0,0,0,0,0,0,0,0,0,0,0,0,0,0,
0,0,0,0,0,0,0,0,0,0,0,0,0,0,0,0
</chunk>
   <chunk x="80" y="-80" width="16" height="16">
1073741833,1073741833,1073741833,1073741833,1073741833,1073741833,1073741833,1073741833,1073741833,1073741833,1073741833,1073741833,1073741833,1073741833,1073741833,1073741833,
1073741833,1073741833,1073741833,1073741833,1073741833,1073741833,1073741833,1073741833,1073741833,1073741833,1073741833,1073741833,1073741833,1073741833,1073741833,1073741833,
0,0,0,0,0,0,0,0,0,0,0,0,0,0,0,0,
0,0,0,0,0,0,0,0,0,0,0,0,0,0,0,0,
0,0,0,0,0,0,0,0,0,0,0,0,0,0,0,0,
0,0,0,0,0,0,0,0,0,0,0,0,0,0,0,0,
0,0,0,0,0,0,0,0,0,0,0,0,0,0,0,0,
0,0,0,0,0,0,0,0,0,0,0,0,0,0,0,0,
0,0,0,0,0,0,0,0,0,0,0,0,0,0,0,0,
0,0,0,0,0,0,0,0,0,0,0,0,0,0,0,0,
0,0,0,0,0,0,0,0,0,0,0,0,0,0,0,0,
0,0,0,0,0,0,0,0,0,0,0,0,0,0,0,0,
0,0,0,0,0,0,0,0,0,0,0,0,0,0,0,0,
0,0,0,0,0,0,0,0,0,0,0,0,0,0,0,0,
0,0,0,0,0,0,0,0,0,0,0,0,0,0,0,0,
0,0,0,0,0,0,0,0,0,0,0,0,0,0,0,0
</chunk>
   <chunk x="96" y="-80" width="16" height="16">
1073741833,1073741833,1073741833,1073741833,1073741833,1073741833,1073741833,1073741833,1073741833,1073741833,1073741833,1073741833,1073741833,1073741833,1073741833,1073741833,
1073741833,1073741833,1073741833,1073741833,1073741833,1073741833,1073741833,1073741833,1073741833,1073741833,1073741833,1073741833,1073741833,1073741833,1073741833,1073741833,
0,0,0,0,0,0,0,0,0,0,0,0,0,0,0,0,
0,0,0,0,0,0,0,0,0,0,0,0,0,0,0,0,
0,0,0,0,0,0,0,0,0,0,0,0,0,0,0,0,
0,0,0,0,0,0,0,0,0,0,0,0,0,0,0,0,
0,0,0,0,0,0,0,0,0,0,0,0,0,0,0,0,
0,0,0,0,0,0,0,0,0,0,0,0,0,0,0,0,
0,0,0,0,0,0,0,0,0,0,0,0,0,0,0,0,
0,0,0,0,0,0,0,0,0,0,0,0,0,0,0,0,
0,0,0,0,0,0,0,0,0,0,0,0,0,0,0,0,
0,0,0,0,0,0,0,0,0,0,0,0,0,0,0,0,
0,0,0,0,0,0,0,0,0,0,0,0,0,0,0,0,
0,0,0,0,0,0,0,0,0,0,0,0,0,0,0,0,
0,0,0,0,0,0,0,0,0,0,0,0,0,0,0,0,
0,0,0,0,0,0,0,0,0,0,0,0,0,0,0,0
</chunk>
   <chunk x="112" y="-80" width="16" height="16">
1073741833,1073741833,1073741833,1073741833,1073741833,1073741833,1073741833,1073741833,1073741833,1073741833,1073741833,1073741833,1073741833,1073741833,1073741833,1073741833,
1073741833,1073741833,1073741833,1073741833,1073741833,1073741833,1073741833,1073741833,1073741833,1073741833,1073741833,1073741833,1073741833,1073741833,1073741833,1073741833,
0,0,0,0,0,0,0,0,0,0,0,0,0,0,0,0,
0,0,0,0,0,0,0,0,0,0,0,0,0,0,0,0,
0,0,0,0,0,0,0,0,0,0,0,0,0,0,0,0,
0,0,0,0,0,0,0,0,0,0,0,0,0,0,0,0,
0,0,0,0,0,0,0,0,0,0,0,0,0,0,0,0,
0,0,0,0,0,0,0,0,0,0,0,0,0,0,0,0,
0,0,0,0,0,0,0,0,0,0,0,0,0,0,0,0,
0,0,0,0,0,0,0,0,0,0,0,0,0,0,0,0,
0,0,0,0,0,0,0,0,0,0,0,0,0,0,0,0,
0,0,0,0,0,0,0,0,0,0,0,0,0,0,0,0,
0,0,0,0,0,0,0,0,0,0,0,0,0,0,0,0,
0,0,0,0,0,0,0,0,0,0,0,0,0,0,0,0,
0,0,0,0,0,0,0,0,0,0,0,0,0,0,0,0,
0,0,0,0,0,0,0,0,0,0,0,0,0,0,0,0
</chunk>
   <chunk x="128" y="-80" width="16" height="16">
1073741833,1073741833,1073741833,1073741833,1073741833,1073741833,1073741833,1073741833,1073741833,1073741833,1073741833,1073741833,1073741833,1073741833,1073741833,1073741833,
1073741833,1073741833,1073741833,1073741833,1073741833,1073741833,1073741833,1073741833,1073741833,1073741833,1073741833,1073741833,1073741833,1073741833,1073741833,1073741833,
0,0,0,0,0,0,0,0,0,0,0,0,0,0,0,0,
0,0,0,0,0,0,0,0,0,0,0,0,0,0,0,0,
0,0,0,0,0,0,0,0,0,0,0,0,0,0,0,0,
0,0,0,0,0,0,0,0,0,0,0,0,0,0,0,0,
0,0,0,0,0,0,0,0,0,0,0,0,0,0,0,0,
0,0,0,0,0,0,0,0,0,0,0,0,0,0,0,0,
0,0,0,0,0,0,0,0,0,0,0,0,0,0,0,0,
0,0,0,0,0,0,0,0,0,0,0,0,0,0,0,0,
0,0,0,0,0,0,0,0,0,0,0,0,0,0,0,0,
0,0,0,0,0,0,0,0,0,0,0,0,0,0,0,0,
0,0,0,0,0,0,0,0,0,0,0,0,0,0,0,0,
0,0,0,0,0,0,0,0,0,0,0,0,0,0,0,0,
0,0,0,0,0,0,0,0,0,0,0,0,0,0,0,0,
0,0,0,0,0,0,0,0,0,0,0,0,0,0,0,0
</chunk>
   <chunk x="144" y="-80" width="16" height="16">
1073741833,1073741833,1073741833,1073741833,1073741833,1073741833,1073741833,1073741833,1073741833,1073741833,1073741833,1073741833,1073741834,0,0,0,
1073741833,1073741833,1073741833,1073741833,1073741833,1073741833,1073741833,1073741833,1073741833,1073741833,1073741833,1073741833,1073741834,0,0,0,
0,0,0,0,0,0,0,0,0,1073741833,1073741833,1073741833,1073741834,0,0,0,
0,0,0,0,0,0,0,0,0,1073741833,1073741833,1073741833,1073741834,0,0,0,
0,0,0,0,0,0,0,0,0,1073741833,1073741833,1073741833,1073741834,0,0,0,
0,0,0,0,0,0,0,0,0,1073741833,1073741833,1073741833,1073741834,0,0,0,
0,0,0,0,0,0,0,0,0,1073741833,1073741833,1073741833,1073741834,0,0,0,
0,0,0,0,0,0,0,0,0,1073741833,1073741833,1073741833,1073741834,0,0,0,
0,0,0,0,0,0,0,0,0,1073741833,1073741833,1073741833,1073741834,0,0,0,
0,0,0,0,0,0,0,0,0,1073741833,1073741833,1073741833,1073741834,0,0,0,
0,0,0,0,0,0,0,0,0,1073741833,1073741833,1073741833,1073741834,0,0,0,
0,0,0,0,0,0,0,0,0,1073741833,1073741833,1073741833,1073741834,0,0,0,
0,0,0,0,0,0,0,0,0,1073741833,1073741833,1073741833,1073741834,0,0,0,
0,0,0,0,0,0,0,0,0,1073741833,1073741833,1073741833,1073741834,0,0,0,
0,0,0,0,0,0,0,0,0,1073741833,1073741833,1073741833,1073741834,0,0,0,
0,0,0,0,0,0,0,0,0,1073741833,1073741833,1073741833,1073741834,0,0,0
</chunk>
   <chunk x="176" y="-80" width="16" height="16">
0,0,0,0,0,0,0,0,0,0,0,0,0,1073741832,1073741833,1073741833,
0,0,0,0,0,0,0,0,0,0,0,0,0,1073741832,1073741833,1073741833,
0,0,0,0,0,0,0,0,0,0,0,0,0,1073741832,1073741833,1073741833,
0,0,0,0,0,0,0,0,0,0,0,0,0,1073741832,1073741833,1073741833,
0,0,0,0,0,0,0,0,0,0,0,0,0,1073741832,1073741833,1073741833,
0,0,0,0,0,0,0,0,0,0,0,0,0,1073741832,1073741833,1073741833,
0,0,0,0,0,0,0,0,0,0,0,0,0,1073741832,1073741833,1073741833,
0,0,0,0,0,0,0,0,0,0,0,0,0,1073741832,1073741833,1073741833,
0,0,0,0,0,0,0,0,0,0,0,0,0,1073741832,1073741833,1073741833,
0,0,0,0,0,0,0,0,0,0,0,0,0,1073741832,1073741833,1073741833,
0,0,0,0,0,0,0,0,0,0,0,0,0,1073741832,1073741833,1073741833,
0,0,0,0,0,0,0,0,0,0,0,0,0,1073741832,1073741833,1073741833,
0,0,0,0,0,0,0,0,0,0,0,0,0,1073741832,1073741833,1073741833,
0,0,0,0,0,0,0,0,0,0,0,0,0,1073741832,1073741833,1073741833,
0,0,0,0,0,0,0,0,0,0,0,0,0,1073741832,1073741833,1073741833,
0,0,0,0,0,0,0,0,0,0,0,0,0,1073741832,1073741833,1073741833
</chunk>
   <chunk x="192" y="-80" width="16" height="16">
1073741833,0,0,0,0,0,0,0,0,0,0,0,0,0,0,0,
1073741833,0,0,0,0,0,0,0,0,0,0,0,0,0,0,0,
1073741833,0,0,0,0,0,0,0,0,0,0,0,0,0,0,0,
1073741833,0,0,0,0,0,0,0,0,0,0,0,0,0,0,0,
1073741833,0,0,0,0,0,0,0,0,0,0,0,0,0,0,0,
1073741833,0,0,0,0,0,0,0,0,0,0,0,0,0,0,0,
1073741833,0,0,0,0,0,0,0,0,0,0,0,0,0,0,0,
1073741833,0,0,0,0,0,0,0,0,0,0,0,0,0,0,0,
1073741833,0,0,0,0,0,0,0,0,0,0,0,0,0,0,0,
1073741833,0,0,0,0,0,0,0,0,0,0,0,0,0,0,0,
1073741833,0,0,0,0,0,0,0,0,0,0,0,0,0,0,0,
1073741833,0,0,0,0,0,0,0,0,0,0,0,0,0,0,0,
1073741833,0,0,0,0,0,0,0,0,0,0,0,0,0,0,0,
1073741833,0,0,0,0,0,0,0,0,0,0,0,0,0,0,0,
1073741833,0,0,0,0,0,0,0,0,0,0,0,0,0,0,0,
1073741833,0,0,0,0,0,0,0,0,0,0,0,0,0,0,0
</chunk>
   <chunk x="144" y="-64" width="16" height="16">
0,0,0,0,0,0,0,0,0,1073741833,1073741833,1073741833,1073741834,0,0,0,
0,0,0,0,0,0,0,0,0,1073741833,1073741833,1073741833,1073741834,0,0,0,
0,0,0,0,0,0,0,0,0,1073741833,1073741833,1073741833,1073741834,0,0,0,
0,0,0,0,0,0,0,0,0,1073741833,1073741833,1073741833,1073741834,0,0,0,
0,0,0,0,0,0,0,0,0,1073741833,1073741833,1073741833,1073741834,0,0,0,
0,0,0,0,0,0,0,0,0,1073741833,1073741833,1073741833,1073741834,0,0,0,
0,0,0,0,0,0,0,0,0,1073741833,1073741833,1073741833,1073741834,0,0,0,
0,0,0,0,0,0,0,0,0,1073741833,1073741833,1073741833,1073741834,0,0,0,
0,0,0,0,0,0,0,0,0,1073741833,1073741833,1073741833,1073741834,0,0,0,
0,0,0,0,0,0,0,0,0,1073741833,1073741833,1073741833,1073741834,0,0,0,
0,0,0,0,0,0,0,0,0,1073741833,1073741833,1073741833,1073741834,0,0,0,
0,0,0,0,0,0,0,0,0,1073741833,1073741833,1073741833,1073741834,0,0,0,
0,0,0,0,0,0,0,0,0,1073741833,1073741833,1073741833,1073741834,0,0,0,
0,0,0,0,0,0,0,0,0,1073741833,1073741833,1073741833,1073741834,0,0,0,
0,0,0,0,0,0,0,0,0,1073741833,1073741833,1073741833,1073741834,0,0,0,
0,0,0,0,0,0,0,0,0,1073741833,1073741833,1073741833,1073741834,0,0,0
</chunk>
   <chunk x="176" y="-64" width="16" height="16">
0,0,0,0,0,0,0,0,0,0,0,0,0,1073741832,1073741833,1073741833,
0,0,0,0,0,0,0,0,0,0,0,0,0,1073741832,1073741833,1073741833,
0,0,0,0,0,0,0,0,0,0,0,0,0,1073741832,1073741833,1073741833,
0,0,0,0,0,0,0,0,0,0,0,0,0,1073741832,1073741833,1073741833,
0,0,0,0,0,0,0,0,0,0,0,0,0,1073741832,1073741833,1073741833,
0,0,0,0,0,0,0,0,0,0,0,0,0,1073741832,1073741833,1073741833,
0,0,0,0,0,0,0,0,0,0,0,0,0,1073741832,1073741833,1073741833,
0,0,0,0,0,0,0,0,0,0,0,0,0,1073741832,1073741833,1073741833,
0,0,0,0,0,0,0,0,0,0,0,0,0,1073741832,1073741833,1073741833,
0,0,0,0,0,0,0,0,0,0,0,0,0,1073741832,1073741833,1073741833,
0,0,0,0,0,0,0,0,0,0,0,0,0,1073741832,1073741833,1073741833,
0,0,0,0,0,0,0,0,0,0,0,0,0,1073741832,1073741833,1073741833,
0,0,0,0,0,0,0,0,0,0,0,0,0,1073741832,1073741833,1073741833,
0,0,0,0,0,0,0,0,0,0,0,0,0,1073741832,1073741833,1073741833,
0,0,0,0,0,0,0,0,0,0,0,0,0,1073741832,1073741833,1073741833,
0,0,0,0,0,0,0,0,0,0,0,0,0,1073741832,1073741833,1073741833
</chunk>
   <chunk x="192" y="-64" width="16" height="16">
1073741833,0,0,0,0,0,0,0,0,0,0,0,0,0,0,0,
1073741833,0,0,0,0,0,0,0,0,0,0,0,0,0,0,0,
1073741833,0,0,0,0,0,0,0,0,0,0,0,0,0,0,0,
1073741833,0,0,0,0,0,0,0,0,0,0,0,0,0,0,0,
1073741833,0,0,0,0,0,0,0,0,0,0,0,0,0,0,0,
1073741833,0,0,0,0,0,0,0,0,0,0,0,0,0,0,0,
1073741833,0,0,0,0,0,0,0,0,0,0,0,0,0,0,0,
1073741833,0,0,0,0,0,0,0,0,0,0,0,0,0,0,0,
1073741833,0,0,0,0,0,0,0,0,0,0,0,0,0,0,0,
1073741833,0,0,0,0,0,0,0,0,0,0,0,0,0,0,0,
1073741833,0,0,0,0,0,0,0,0,0,0,0,0,0,0,0,
1073741833,0,0,0,0,0,0,0,0,0,0,0,0,0,0,0,
1073741833,0,0,0,0,0,0,0,0,0,0,0,0,0,0,0,
1073741833,0,0,0,0,0,0,0,0,0,0,0,0,0,0,0,
1073741833,0,0,0,0,0,0,0,0,0,0,0,0,0,0,0,
1073741833,0,0,0,0,0,0,0,0,0,0,0,0,0,0,0
</chunk>
   <chunk x="144" y="-48" width="16" height="16">
0,0,0,0,0,0,0,0,0,1073741833,1073741833,1073741833,1073741834,0,0,0,
0,0,0,0,0,0,0,0,0,1073741833,1073741833,1073741833,1073741834,0,0,0,
0,0,0,0,0,0,0,0,0,1073741833,1073741833,1073741833,1073741834,0,0,0,
0,0,0,0,0,0,0,0,0,1073741833,1073741833,1073741833,1073741834,0,0,0,
0,0,0,0,0,0,0,0,0,1073741833,1073741833,1073741833,1073741834,0,0,0,
0,0,0,0,0,0,0,0,0,1073741833,1073741833,1073741833,1073741834,0,0,0,
0,0,0,0,0,0,0,0,0,1073741833,1073741833,1073741833,1073741834,0,0,0,
0,0,0,0,0,0,0,0,0,1073741833,1073741833,1073741833,1073741834,0,0,0,
0,0,0,0,0,0,0,0,0,1073741833,1073741833,1073741833,1073741834,0,0,0,
0,0,0,0,0,0,0,0,0,1073741833,1073741833,1073741833,1073741834,0,0,0,
0,0,0,0,0,0,0,0,0,1073741833,1073741833,1073741833,1073741834,0,0,0,
0,0,0,0,0,0,0,0,0,1073741833,1073741833,1073741833,1073741834,0,0,0,
0,0,0,0,0,0,0,0,0,1073741833,1073741833,1073741833,1073741834,0,0,0,
0,0,0,0,0,0,0,0,0,1073741833,1073741833,1073741833,1073741834,0,0,0,
0,0,0,0,0,0,0,0,0,1073741833,1073741833,1073741833,1073741834,0,0,0,
0,0,0,0,0,0,0,0,0,1073741833,1073741833,1073741833,1073741834,0,0,0
</chunk>
   <chunk x="176" y="-48" width="16" height="16">
0,0,0,0,0,0,0,0,0,0,0,0,0,1073741832,1073741833,1073741833,
0,0,0,0,0,0,0,0,0,0,0,0,0,1073741832,1073741833,1073741833,
0,0,0,0,0,0,0,0,0,0,0,0,0,1073741832,1073741833,1073741833,
0,0,0,0,0,0,0,0,0,0,0,0,0,1073741832,1073741833,1073741833,
0,0,0,0,0,0,0,0,0,0,0,0,0,1073741832,1073741833,1073741833,
0,0,0,0,0,0,0,0,0,0,0,0,0,1073741832,1073741833,1073741833,
0,0,0,0,0,0,0,0,0,0,0,0,0,1073741832,1073741833,1073741833,
0,0,0,0,0,0,0,0,0,0,0,0,0,1073741832,1073741833,1073741833,
0,0,0,0,0,0,0,0,0,0,0,0,0,1073741832,1073741833,1073741833,
0,0,0,0,0,0,0,0,0,0,0,0,0,1073741832,1073741833,1073741833,
0,0,0,0,0,0,0,0,0,0,0,0,0,1073741832,1073741833,1073741833,
0,0,0,0,0,0,0,0,0,0,0,0,0,1073741832,1073741833,1073741833,
0,0,0,0,0,0,0,0,0,0,0,0,0,1073741832,1073741833,1073741833,
0,0,0,0,0,0,0,0,0,0,0,0,0,1073741832,1073741833,1073741833,
0,0,0,0,0,0,0,0,0,0,0,0,0,1073741832,1073741833,1073741833,
0,0,0,0,0,0,0,0,0,0,0,0,0,1073741832,1073741833,1073741833
</chunk>
   <chunk x="192" y="-48" width="16" height="16">
1073741833,0,0,0,0,0,0,0,0,0,0,0,0,0,0,0,
1073741833,0,0,0,0,0,0,0,0,0,0,0,0,0,0,0,
1073741833,0,0,0,0,0,0,0,0,0,0,0,0,0,0,0,
1073741833,0,0,0,0,0,0,0,0,0,0,0,0,0,0,0,
1073741833,0,0,0,0,0,0,0,0,0,0,0,0,0,0,0,
1073741833,0,0,0,0,0,0,0,0,0,0,0,0,0,0,0,
1073741833,0,0,0,0,0,0,0,0,0,0,0,0,0,0,0,
1073741833,0,0,0,0,0,0,0,0,0,0,0,0,0,0,0,
1073741833,0,0,0,0,0,0,0,0,0,0,0,0,0,0,0,
1073741833,0,0,0,0,0,0,0,0,0,0,0,0,0,0,0,
1073741833,0,0,0,0,0,0,0,0,0,0,0,0,0,0,0,
1073741833,0,0,0,0,0,0,0,0,0,0,0,0,0,0,0,
1073741833,0,0,0,0,0,0,0,0,0,0,0,0,0,0,0,
1073741833,0,0,0,0,0,0,0,0,0,0,0,0,0,0,0,
1073741833,0,0,0,0,0,0,0,0,0,0,0,0,0,0,0,
1073741833,0,0,0,0,0,0,0,0,0,0,0,0,0,0,0
</chunk>
   <chunk x="144" y="-32" width="16" height="16">
0,0,0,0,0,0,0,0,0,1073741833,1073741833,1073741833,1073741834,0,0,0,
0,0,0,0,0,0,0,0,0,1073741833,1073741833,1073741833,1073741834,0,0,0,
0,0,0,0,0,0,0,0,0,1073741833,1073741833,1073741833,1073741834,0,0,0,
0,0,0,0,0,0,0,0,0,1073741833,1073741833,1073741833,1073741834,0,0,0,
0,0,0,0,0,0,0,0,0,1073741833,1073741833,1073741833,1073741834,0,0,0,
0,0,0,0,0,0,0,0,0,1073741833,1073741833,1073741833,1073741834,0,0,0,
0,0,0,0,0,0,0,0,0,1073741833,1073741833,1073741833,1073741834,0,0,0,
0,0,0,0,0,0,0,0,0,1073741833,1073741833,1073741833,1073741834,0,0,0,
0,0,0,0,0,0,0,0,0,1073741833,1073741833,1073741833,1073741834,0,0,0,
0,0,0,0,0,0,0,0,0,1073741833,1073741833,1073741833,1073741834,0,0,0,
0,0,0,0,0,0,0,0,0,1073741833,1073741833,1073741833,1073741834,0,0,0,
0,0,0,0,0,0,0,0,0,1073741833,1073741833,1073741833,1073741834,0,0,0,
0,0,0,0,0,0,0,0,0,1073741833,1073741833,1073741833,1073741834,0,0,0,
0,0,0,0,0,0,0,0,0,1073741833,1073741833,1073741833,1073741834,0,0,0,
0,0,0,0,0,0,0,0,0,1073741833,1073741833,1073741833,1073741834,0,0,0,
0,0,0,0,0,0,0,0,0,1073741833,1073741833,1073741833,1073741834,0,0,0
</chunk>
   <chunk x="176" y="-32" width="16" height="16">
0,0,0,0,0,0,0,0,0,0,0,0,0,1073741832,1073741833,1073741833,
0,0,0,0,0,0,0,0,0,0,0,0,0,1073741832,1073741833,1073741833,
0,0,0,0,0,0,0,0,0,0,0,0,0,1073741832,1073741833,1073741833,
0,0,0,0,0,0,0,0,0,0,0,0,0,1073741832,1073741833,1073741833,
0,0,0,0,0,0,0,0,0,0,0,0,0,1073741832,1073741833,1073741833,
0,0,0,0,0,0,0,0,0,0,0,0,0,1073741832,1073741833,1073741833,
0,0,0,0,0,0,0,0,0,0,0,0,0,1073741832,1073741833,1073741833,
0,0,0,0,0,0,0,0,0,0,0,0,0,1073741832,1073741833,1073741833,
0,0,0,0,0,0,0,0,0,0,0,0,0,1073741832,1073741833,1073741833,
0,0,0,0,0,0,0,0,0,0,0,0,0,1073741832,1073741833,1073741833,
0,0,0,0,0,0,0,0,0,0,0,0,0,1073741832,1073741833,1073741833,
0,0,0,0,0,0,0,0,0,0,0,0,0,1073741832,1073741833,1073741833,
0,0,0,0,0,0,0,0,0,0,0,0,0,1073741832,1073741833,1073741833,
0,0,0,0,0,0,0,0,0,0,0,0,0,1073741832,1073741833,1073741833,
0,0,0,0,0,0,0,0,0,0,0,0,0,1073741832,1073741833,1073741833,
0,0,0,0,0,0,0,0,0,0,0,0,0,1073741832,1073741833,1073741833
</chunk>
   <chunk x="192" y="-32" width="16" height="16">
1073741833,0,0,0,0,0,0,0,0,0,0,0,0,0,0,0,
1073741833,0,0,0,0,0,0,0,0,0,0,0,0,0,0,0,
1073741833,0,0,0,0,0,0,0,0,0,0,0,0,0,0,0,
1073741833,0,0,0,0,0,0,0,0,0,0,0,0,0,0,0,
1073741833,0,0,0,0,0,0,0,0,0,0,0,0,0,0,0,
1073741833,0,0,0,0,0,0,0,0,0,0,0,0,0,0,0,
1073741833,0,0,0,0,0,0,0,0,0,0,0,0,0,0,0,
1073741833,0,0,0,0,0,0,0,0,0,0,0,0,0,0,0,
1073741833,0,0,0,0,0,0,0,0,0,0,0,0,0,0,0,
1073741833,0,0,0,0,0,0,0,0,0,0,0,0,0,0,0,
1073741833,0,0,0,0,0,0,0,0,0,0,0,0,0,0,0,
1073741833,0,0,0,0,0,0,0,0,0,0,0,0,0,0,0,
1073741833,0,0,0,0,0,0,0,0,0,0,0,0,0,0,0,
1073741833,0,0,0,0,0,0,0,0,0,0,0,0,0,0,0,
1073741833,0,0,0,0,0,0,0,0,0,0,0,0,0,0,0,
1073741833,0,0,0,0,0,0,0,0,0,0,0,0,0,0,0
</chunk>
   <chunk x="144" y="-16" width="16" height="16">
0,0,0,0,0,0,0,0,0,1073741833,1073741833,1073741833,1073741834,0,0,0,
0,0,0,0,0,0,0,0,0,1073741833,1073741833,1073741833,1073741834,0,0,0,
0,0,0,0,0,0,0,0,0,1073741833,1073741833,1073741833,1073741834,0,0,0,
0,0,0,0,0,0,0,0,0,1073741833,1073741833,1073741833,1073741834,0,0,0,
0,0,0,0,0,0,0,0,0,1073741833,1073741833,1073741833,1073741834,0,0,0,
0,0,0,0,0,0,0,0,0,1073741833,1073741833,1073741833,1073741834,0,0,0,
0,0,0,0,0,0,0,0,0,1073741833,1073741833,1073741833,1073741834,0,0,0,
0,0,0,0,0,0,0,0,0,1073741833,1073741833,1073741833,1073741834,0,0,0,
0,0,0,0,0,0,0,0,0,1073741833,1073741833,1073741833,1073741834,0,0,0,
0,0,0,0,0,0,0,0,0,1073741833,1073741833,1073741833,1073741834,0,0,0,
0,0,0,0,0,0,0,0,0,1073741833,1073741833,1073741833,1073741834,0,0,0,
0,0,0,0,0,0,0,0,0,1073741833,1073741833,1073741833,1073741834,0,0,0,
0,0,0,0,0,0,0,0,0,1073741833,1073741833,1073741833,1073741834,0,0,0,
0,0,0,0,0,0,0,0,0,1073741833,1073741833,1073741833,1073741834,0,0,0,
0,0,0,0,0,0,0,0,0,1073741833,1073741833,1073741833,1073741834,0,0,0,
0,0,0,0,0,0,0,0,0,1073741833,1073741833,1073741833,1073741834,0,0,0
</chunk>
   <chunk x="176" y="-16" width="16" height="16">
0,0,0,0,0,0,0,0,0,0,0,0,0,1073741832,1073741833,1073741833,
0,0,0,0,0,0,0,0,0,0,0,0,0,1073741832,1073741833,1073741833,
0,0,0,0,0,0,0,0,0,0,0,0,0,1073741832,1073741833,1073741833,
0,0,0,0,0,0,0,0,0,0,0,0,0,1073741832,1073741833,1073741833,
0,0,0,0,0,0,0,0,0,0,0,0,0,1073741832,1073741833,1073741833,
0,0,0,0,0,0,0,0,0,0,0,0,0,1073741832,1073741833,1073741833,
0,0,0,0,0,0,0,0,0,0,0,0,0,1073741832,1073741833,1073741833,
0,0,0,0,0,0,0,0,0,0,0,0,0,1073741832,1073741833,1073741833,
0,0,0,0,0,0,0,0,0,0,0,0,0,1073741832,1073741833,1073741833,
0,0,0,0,0,0,0,0,0,0,0,0,0,1073741832,1073741833,1073741833,
0,0,0,0,0,0,0,0,0,0,0,0,0,1073741832,1073741833,1073741833,
0,0,0,0,0,0,0,0,0,0,0,0,0,1073741832,1073741833,1073741833,
0,0,0,0,0,0,0,0,0,0,0,0,0,1073741832,1073741833,1073741833,
0,0,0,0,0,0,0,0,0,0,0,0,0,1073741832,1073741833,1073741833,
0,0,0,0,0,0,0,0,0,0,0,0,0,1073741832,1073741833,1073741833,
0,0,0,0,0,0,0,0,0,0,0,0,0,1073741832,1073741833,1073741833
</chunk>
   <chunk x="192" y="-16" width="16" height="16">
1073741833,0,0,0,0,0,0,0,0,0,0,0,0,0,0,0,
1073741833,0,0,0,0,0,0,0,0,0,0,0,0,0,0,0,
1073741833,0,0,0,0,0,0,0,0,0,0,0,0,0,0,0,
1073741833,0,0,0,0,0,0,0,0,0,0,0,0,0,0,0,
1073741833,0,0,0,0,0,0,0,0,0,0,0,0,0,0,0,
1073741833,0,0,0,0,0,0,0,0,0,0,0,0,0,0,0,
1073741833,0,0,0,0,0,0,0,0,0,0,0,0,0,0,0,
1073741833,0,0,0,0,0,0,0,0,0,0,0,0,0,0,0,
1073741833,0,0,0,0,0,0,0,0,0,0,0,0,0,0,0,
1073741833,0,0,0,0,0,0,0,0,0,0,0,0,0,0,0,
1073741833,0,0,0,0,0,0,0,0,0,0,0,0,0,0,0,
1073741833,0,0,0,0,0,0,0,0,0,0,0,0,0,0,0,
1073741833,0,0,0,0,0,0,0,0,0,0,0,0,0,0,0,
1073741833,0,0,0,0,0,0,0,0,0,0,0,0,0,0,0,
1073741833,0,0,0,0,0,0,0,0,0,0,0,0,0,0,0,
1073741833,0,0,0,0,0,0,0,0,0,0,0,0,0,0,0
</chunk>
   <chunk x="144" y="0" width="16" height="16">
0,0,0,0,0,0,0,0,0,1073741833,1073741833,1073741833,1073741834,0,0,0,
0,0,0,0,0,0,0,0,0,1073741833,1073741833,1073741833,1073741834,0,0,0,
0,0,0,0,0,0,0,0,0,1073741833,1073741833,1073741833,1073741834,0,0,0,
0,0,0,0,0,0,0,0,0,1073741833,1073741833,1073741833,1073741834,0,0,0,
0,0,0,0,0,0,0,0,0,1073741833,1073741833,1073741833,1073741834,0,0,0,
0,0,0,0,0,0,0,0,0,1073741833,1073741833,1073741833,1073741834,0,0,0,
0,0,0,0,0,0,0,0,0,1073741833,1073741833,1073741833,1073741834,0,0,0,
0,0,0,0,0,0,0,0,0,1073741833,1073741833,1073741833,1073741834,0,0,0,
0,0,0,0,0,0,0,0,0,1073741833,1073741833,1073741833,1073741834,0,0,0,
0,0,0,0,0,0,0,0,0,1073741833,1073741833,1073741833,1073741834,0,0,0,
0,0,0,0,0,0,0,0,0,1073741833,1073741833,1073741833,1073741834,0,0,0,
0,0,0,0,0,0,0,0,0,1073741833,1073741833,1073741833,1073741834,0,0,0,
0,0,0,0,0,0,0,0,0,1073741833,1073741833,1073741833,1073741834,0,0,0,
0,0,0,0,0,0,0,0,0,1073741833,1073741833,1073741833,1073741834,0,0,0,
0,0,0,0,0,0,0,0,0,1073741833,1073741833,1073741833,1073741834,0,0,0,
0,0,0,0,0,0,0,0,0,1073741833,1073741833,1073741833,1073741834,0,0,0
</chunk>
   <chunk x="176" y="0" width="16" height="16">
0,0,0,0,0,0,0,0,0,0,0,0,0,1073741832,1073741833,1073741833,
0,0,0,0,0,0,0,0,0,0,0,0,0,1073741832,1073741833,1073741833,
0,0,0,0,0,0,0,0,0,0,0,0,0,1073741832,1073741833,1073741833,
0,0,0,0,0,0,0,0,0,0,0,0,0,1073741832,1073741833,1073741833,
0,0,0,0,0,0,0,0,0,0,0,0,0,1073741832,1073741833,1073741833,
0,0,0,0,0,0,0,0,0,0,0,0,0,1073741832,1073741833,1073741833,
0,0,0,0,0,0,0,0,0,0,0,0,0,1073741832,1073741833,1073741833,
0,0,0,0,0,0,0,0,0,0,0,0,0,1073741832,1073741833,1073741833,
0,0,0,0,0,0,0,0,0,0,0,0,0,1073741832,1073741833,1073741833,
0,0,0,0,0,0,0,0,0,0,0,0,0,1073741832,1073741833,1073741833,
0,0,0,0,0,0,0,0,0,0,0,0,0,1073741832,1073741833,1073741833,
0,0,0,0,0,0,0,0,0,0,0,0,0,1073741832,1073741833,1073741833,
0,0,0,0,0,0,0,0,0,0,0,0,0,1073741832,1073741833,1073741833,
0,0,0,0,0,0,0,0,0,0,0,0,0,1073741832,1073741833,1073741833,
0,0,0,0,0,0,0,0,0,0,0,0,0,1073741832,1073741833,1073741833,
0,0,0,0,0,0,0,0,0,0,0,0,0,1073741832,1073741833,1073741833
</chunk>
   <chunk x="192" y="0" width="16" height="16">
1073741833,0,0,0,0,0,0,0,0,0,0,0,0,0,0,0,
1073741833,0,0,0,0,0,0,0,0,0,0,0,0,0,0,0,
1073741833,0,0,0,0,0,0,0,0,0,0,0,0,0,0,0,
1073741833,0,0,0,0,0,0,0,0,0,0,0,0,0,0,0,
1073741833,0,0,0,0,0,0,0,0,0,0,0,0,0,0,0,
1073741833,0,0,0,0,0,0,0,0,0,0,0,0,0,0,0,
1073741833,0,0,0,0,0,0,0,0,0,0,0,0,0,0,0,
1073741833,0,0,0,0,0,0,0,0,0,0,0,0,0,0,0,
1073741833,0,0,0,0,0,0,0,0,0,0,0,0,0,0,0,
1073741833,0,0,0,0,0,0,0,0,0,0,0,0,0,0,0,
1073741833,0,0,0,0,0,0,0,0,0,0,0,0,0,0,0,
1073741833,0,0,0,0,0,0,0,0,0,0,0,0,0,0,0,
1073741833,0,0,0,0,0,0,0,0,0,0,0,0,0,0,0,
1073741833,0,0,0,0,0,0,0,0,0,0,0,0,0,0,0,
1073741833,0,0,0,0,0,0,0,0,0,0,0,0,0,0,0,
1073741833,0,0,0,0,0,0,0,0,0,0,0,0,0,0,0
</chunk>
   <chunk x="144" y="16" width="16" height="16">
0,0,0,0,0,0,0,0,0,1073741833,1073741833,1073741833,1073741834,0,0,0,
0,0,0,0,0,0,0,0,0,1073741833,1073741833,1073741833,1073741834,0,0,0,
0,0,0,0,0,0,0,0,0,1073741833,1073741833,1073741833,1073741834,0,0,0,
0,0,0,0,0,0,0,0,0,1073741833,1073741833,1073741833,1073741834,0,0,0,
0,0,0,0,0,0,0,0,0,1073741833,1073741833,1073741833,1073741834,0,0,0,
0,0,0,0,0,0,0,0,0,1073741833,1073741833,1073741833,1073741834,0,0,0,
0,0,0,0,0,0,0,0,0,1073741833,1073741833,1073741833,1073741834,0,0,0,
0,0,0,0,0,0,0,0,0,1073741833,1073741833,1073741833,1073741834,0,0,0,
0,0,0,0,0,0,0,0,0,1073741833,1073741833,1073741833,1073741834,0,0,0,
0,0,0,0,0,0,0,0,0,1073741833,1073741833,1073741833,1073741834,0,0,0,
0,0,0,0,0,0,0,0,0,1073741833,1073741833,1073741833,1073741834,0,0,0,
0,0,0,0,0,0,0,0,0,1073741833,1073741833,1073741833,1073741834,0,0,0,
0,0,0,0,0,0,0,0,0,1073741833,1073741833,1073741833,1073741834,0,0,0,
0,0,0,0,0,0,0,0,0,1073741833,1073741833,1073741833,1073741834,0,0,0,
0,0,0,0,0,0,0,0,0,1073741833,1073741833,1073741833,1073741834,0,0,0,
0,0,0,0,0,0,0,0,0,1073741833,1073741833,1073741833,1073741834,0,0,0
</chunk>
   <chunk x="176" y="16" width="16" height="16">
0,0,0,0,0,0,0,0,0,0,0,0,0,1073741832,1073741833,1073741833,
0,0,0,0,0,0,0,0,0,0,0,0,0,1073741832,1073741833,1073741833,
0,0,0,0,0,0,0,0,0,0,0,0,0,1073741832,1073741833,1073741833,
0,0,0,0,0,0,0,0,0,0,0,0,0,1073741832,1073741833,1073741833,
0,0,0,0,0,0,0,0,0,0,0,0,0,1073741832,1073741833,1073741833,
0,0,0,0,0,0,0,0,0,0,0,0,0,1073741832,1073741833,1073741833,
0,0,0,0,0,0,0,0,0,0,0,0,0,1073741832,1073741833,1073741833,
0,0,0,0,0,0,0,0,0,0,0,0,0,1073741832,1073741833,1073741833,
0,0,0,0,0,0,0,0,0,0,0,0,0,1073741832,1073741833,1073741833,
0,0,0,0,0,0,0,0,0,0,0,0,0,1073741832,1073741833,1073741833,
0,0,0,0,0,0,0,0,0,0,0,0,0,1073741832,1073741833,1073741833,
0,0,0,0,0,0,0,0,0,0,0,0,0,1073741832,1073741833,1073741833,
0,0,0,0,0,0,0,0,0,0,0,0,0,1073741832,1073741833,1073741833,
0,0,0,0,0,0,0,0,0,0,0,0,0,1073741832,1073741833,1073741833,
0,0,0,0,0,0,0,0,0,0,0,0,0,1073741832,1073741833,1073741833,
0,0,0,0,0,0,0,0,0,0,0,0,0,1073741832,1073741833,1073741833
</chunk>
   <chunk x="192" y="16" width="16" height="16">
1073741833,0,0,0,0,0,0,0,0,0,0,0,0,0,0,0,
1073741833,0,0,0,0,0,0,0,0,0,0,0,0,0,0,0,
1073741833,0,0,0,0,0,0,0,0,0,0,0,0,0,0,0,
1073741833,0,0,0,0,0,0,0,0,0,0,0,0,0,0,0,
1073741833,0,0,0,0,0,0,0,0,0,0,0,0,0,0,0,
1073741833,0,0,0,0,0,0,0,0,0,0,0,0,0,0,0,
1073741833,0,0,0,0,0,0,0,0,0,0,0,0,0,0,0,
1073741833,0,0,0,0,0,0,0,0,0,0,0,0,0,0,0,
1073741833,0,0,0,0,0,0,0,0,0,0,0,0,0,0,0,
1073741833,0,0,0,0,0,0,0,0,0,0,0,0,0,0,0,
1073741833,0,0,0,0,0,0,0,0,0,0,0,0,0,0,0,
1073741833,0,0,0,0,0,0,0,0,0,0,0,0,0,0,0,
1073741833,0,0,0,0,0,0,0,0,0,0,0,0,0,0,0,
1073741833,0,0,0,0,0,0,0,0,0,0,0,0,0,0,0,
1073741833,0,0,0,0,0,0,0,0,0,0,0,0,0,0,0,
1073741833,0,0,0,0,0,0,0,0,0,0,0,0,0,0,0
</chunk>
   <chunk x="144" y="32" width="16" height="16">
0,0,0,0,0,0,0,0,0,1073741833,1073741833,1073741833,1073741834,0,0,0,
0,0,0,0,0,0,0,0,0,1073741833,1073741833,1073741833,1073741834,0,0,0,
0,0,0,0,0,0,0,0,0,1073741833,1073741833,1073741833,1073741834,0,0,0,
0,0,0,0,0,0,0,0,0,1073741833,1073741833,1073741833,1073741834,0,0,0,
0,0,0,0,0,0,0,0,0,1073741833,1073741833,1073741833,1073741834,0,0,0,
0,0,0,0,0,0,0,0,0,1073741833,1073741833,1073741833,1073741834,0,0,0,
0,0,0,0,0,0,0,0,0,0,0,0,0,0,0,0,
0,0,0,0,0,0,0,0,0,0,0,0,0,0,0,0,
0,0,0,0,0,0,0,0,0,0,0,0,0,0,0,0,
0,0,0,0,0,0,0,0,0,0,0,0,0,0,0,0,
0,0,0,0,0,0,0,0,0,0,0,0,0,0,0,0,
0,0,0,0,0,0,0,0,0,0,0,0,0,0,0,0,
0,0,0,0,0,0,0,0,0,0,0,0,0,0,0,0,
0,0,0,0,0,0,0,0,0,0,0,0,0,0,0,0,
0,0,0,0,0,0,0,0,0,0,0,0,0,0,0,0,
0,0,0,0,0,0,0,0,0,0,0,0,0,0,0,0
</chunk>
   <chunk x="176" y="32" width="16" height="16">
0,0,0,0,0,0,0,0,0,0,0,0,0,1073741832,1073741833,1073741833,
0,0,0,0,0,0,0,0,0,0,0,0,0,1073741832,1073741833,1073741833,
0,0,0,0,0,0,0,0,0,0,0,0,0,1073741832,1073741833,1073741833,
0,0,0,0,0,0,0,0,0,0,0,0,0,1073741832,1073741833,1073741833,
0,0,0,0,0,0,0,0,0,0,0,0,0,1073741832,1073741833,1073741833,
0,0,0,0,0,0,0,0,0,0,0,0,0,1073741832,1073741833,1073741833,
0,0,0,0,0,0,0,0,0,0,0,0,0,0,0,0,
0,0,0,0,0,0,0,0,0,0,0,0,0,0,0,0,
0,0,0,0,0,0,0,0,0,0,0,0,0,0,0,0,
0,0,0,0,0,0,0,0,0,0,0,0,0,0,0,0,
0,0,0,0,0,0,0,0,0,0,0,0,0,0,0,0,
0,0,0,0,0,0,0,0,0,0,0,0,0,0,0,0,
0,0,0,0,0,0,0,0,0,0,0,0,0,0,0,0,
0,0,0,0,0,0,0,0,0,0,0,0,0,0,0,0,
0,0,0,0,0,0,0,0,0,0,0,0,0,0,0,0,
0,0,0,0,0,0,0,0,0,0,0,0,0,0,0,0
</chunk>
   <chunk x="192" y="32" width="16" height="16">
1073741833,0,0,0,0,0,0,0,0,0,0,0,0,0,0,0,
1073741833,0,0,0,0,0,0,0,0,0,0,0,0,0,0,0,
1073741833,0,0,0,0,0,0,0,0,0,0,0,0,0,0,0,
1073741833,0,0,0,0,0,0,0,0,0,0,0,0,0,0,0,
1073741833,0,0,0,0,0,0,0,0,0,0,0,0,0,0,0,
1073741833,0,0,0,0,0,0,0,0,0,0,0,0,0,0,0,
0,0,0,0,0,0,0,0,0,0,0,0,0,0,0,0,
0,0,0,0,0,0,0,0,0,0,0,0,0,0,0,0,
0,0,0,0,0,0,0,0,0,0,0,0,0,0,0,0,
0,0,0,0,0,0,0,0,0,0,0,0,0,0,0,0,
0,0,0,0,0,0,0,0,0,0,0,0,0,0,0,0,
0,0,0,0,0,0,0,0,0,0,0,0,0,0,0,0,
0,0,0,0,0,0,0,0,0,0,0,0,0,0,0,0,
0,0,0,0,0,0,0,0,0,0,0,0,0,0,0,0,
0,0,0,0,0,0,0,0,0,0,0,0,0,0,0,0,
0,0,0,0,0,0,0,0,0,0,0,0,0,0,0,0
</chunk>
  </data>
 </layer>
</map>
