<?xml version="1.0" encoding="UTF-8"?>
<map version="1.10" tiledversion="1.11.2" orientation="orthogonal" renderorder="right-down" width="120" height="40" tilewidth="16" tileheight="16" infinite="1" nextlayerid="2" nextobjectid="1">
 <editorsettings>
  <export format="csv"/>
 </editorsettings>
 <tileset firstgid="1" source="tileset.tsx"/>
 <layer id="1" name="Tile Layer 1" width="120" height="40">
  <data encoding="csv">
   <chunk x="112" y="-128" width="16" height="16">
0,0,0,0,0,0,0,0,0,0,0,0,0,0,0,0,
0,0,0,0,0,0,0,0,0,0,0,0,0,0,0,0,
0,0,0,0,0,0,0,0,0,0,0,0,0,0,0,0,
0,0,0,0,0,0,0,0,0,0,0,0,0,0,0,0,
0,0,0,0,0,0,0,0,0,0,0,0,0,0,0,0,
0,0,0,0,0,0,0,0,0,0,0,0,0,0,0,0,
0,0,0,0,0,0,0,0,0,0,0,0,0,0,0,0,
0,0,0,0,0,0,0,0,0,0,0,0,0,0,0,0,
0,0,0,0,0,0,0,0,0,0,0,0,0,0,0,0,
0,0,0,0,0,0,0,0,0,0,0,0,0,0,0,0,
0,0,0,0,0,0,0,0,0,0,0,0,0,0,0,0,
0,0,0,0,0,0,0,0,0,0,0,0,0,0,0,0,
0,0,0,0,0,0,0,0,9,9,9,10,0,0,0,0,
0,0,0,0,0,0,0,0,9,9,9,10,0,0,0,0,
0,0,0,0,0,0,0,0,9,9,9,10,0,0,0,0,
0,0,0,0,0,0,0,0,9,9,9,10,0,0,0,0
</chunk>
   <chunk x="144" y="-128" width="16" height="16">
0,0,0,0,0,0,0,0,0,0,0,0,0,0,0,0,
0,0,0,0,0,0,0,0,0,0,0,0,0,0,0,0,
0,0,0,0,0,0,0,0,0,0,0,0,0,0,0,0,
0,0,0,0,0,0,0,0,0,0,0,0,0,0,0,0,
0,0,0,0,0,0,0,0,0,0,0,0,0,0,0,0,
0,0,0,0,0,0,0,0,0,0,0,0,0,0,0,0,
0,0,0,0,0,0,0,0,0,0,0,0,0,0,0,0,
0,0,0,0,0,0,0,0,0,0,0,0,0,0,0,0,
0,0,0,0,0,0,0,0,0,0,0,0,0,0,0,0,
0,0,0,0,0,0,0,0,0,0,0,0,0,0,0,0,
0,0,0,0,0,0,0,0,0,0,0,0,0,0,0,0,
0,0,0,0,0,0,0,0,0,0,0,0,0,0,0,0,
0,0,0,0,0,0,0,0,0,0,0,0,8,9,9,9,
0,0,0,0,0,0,0,0,0,0,0,0,8,9,9,9,
0,0,0,0,0,0,0,0,0,0,0,0,8,9,9,9,
0,0,0,0,0,0,0,0,0,0,0,0,8,9,9,9
</chunk>
   <chunk x="112" y="-112" width="16" height="16">
0,0,0,0,0,0,0,0,9,9,9,10,0,0,0,0,
0,0,0,0,0,0,0,0,9,9,9,10,0,0,0,0,
0,0,0,0,0,0,0,0,9,9,9,10,0,0,0,0,
0,0,0,0,0,0,0,0,9,9,9,10,0,0,0,0,
0,0,0,0,0,0,0,0,9,9,9,10,0,0,0,0,
0,0,0,0,0,0,0,0,9,9,9,10,0,0,0,0,
0,0,0,0,0,0,0,0,9,9,9,10,0,0,0,0,
0,0,0,0,0,0,0,0,9,9,9,10,0,0,0,0,
0,0,0,0,0,0,0,0,9,9,9,10,0,0,0,0,
0,0,0,0,0,0,0,0,9,9,9,10,0,0,0,0,
0,0,0,0,0,0,0,0,9,9,9,10,0,0,0,0,
0,0,0,0,0,0,0,0,9,9,9,10,0,0,0,0,
0,0,0,0,0,0,0,0,9,9,9,10,0,0,0,0,
0,0,0,0,0,0,0,0,9,9,9,10,0,0,0,0,
0,0,0,0,0,0,0,0,9,9,9,10,0,0,0,0,
0,0,0,0,0,0,0,0,9,9,9,10,0,0,0,0
</chunk>
   <chunk x="144" y="-112" width="16" height="16">
0,0,0,0,0,0,0,0,0,0,0,0,8,9,9,9,
0,0,0,0,0,0,0,0,0,0,0,0,8,9,9,9,
0,0,0,0,0,0,0,0,0,0,0,0,8,9,9,9,
0,0,0,0,0,0,0,0,0,0,0,0,8,9,9,9,
0,0,0,0,0,0,0,0,0,0,0,0,8,9,9,9,
0,0,0,0,0,0,0,0,0,0,0,0,8,9,9,9,
0,0,0,0,0,0,0,0,0,0,0,0,8,9,9,9,
0,0,0,0,0,0,0,0,0,0,0,0,8,9,9,9,
0,0,0,0,0,0,0,0,0,0,0,0,8,9,9,9,
0,0,0,0,0,0,0,0,0,0,0,0,8,9,9,9,
0,0,0,0,0,0,0,0,0,0,0,0,8,9,9,9,
0,0,0,0,0,0,0,0,0,0,0,0,8,9,9,9,
0,0,0,0,0,0,0,0,0,0,0,0,8,9,9,9,
0,0,0,0,0,0,0,0,0,0,0,0,8,9,9,9,
0,0,0,0,0,0,0,0,0,0,0,0,8,9,9,9,
0,0,0,0,0,0,0,0,0,0,0,0,8,9,9,9
</chunk>
   <chunk x="112" y="-96" width="16" height="16">
0,0,0,0,0,0,0,0,9,9,9,10,0,0,0,0,
0,0,0,0,0,0,0,0,9,9,9,10,0,0,0,0,
0,0,0,0,0,0,0,0,9,9,9,10,0,0,0,0,
0,0,0,0,0,0,0,0,9,9,9,10,0,0,0,0,
0,0,0,0,0,0,0,0,9,9,9,10,0,0,0,0,
0,0,0,0,0,0,0,0,9,9,9,10,0,0,0,0,
0,0,0,0,0,0,0,0,9,9,9,10,0,0,0,0,
0,0,0,0,0,0,0,0,9,9,9,10,0,0,0,0,
0,0,0,0,0,0,0,0,9,9,9,10,0,0,0,0,
0,0,0,0,0,0,0,0,9,9,9,10,0,0,0,0,
0,0,0,0,0,0,0,0,9,9,9,10,0,0,0,0,
0,0,0,0,0,0,0,0,9,9,9,10,0,0,0,0,
0,0,0,0,0,0,0,0,9,9,9,10,0,0,0,0,
0,0,0,0,0,0,0,0,9,9,9,10,0,0,0,0,
0,0,0,0,0,0,0,0,9,9,9,10,0,0,0,0,
0,0,0,0,0,0,0,0,9,9,9,10,0,0,0,0
</chunk>
   <chunk x="144" y="-96" width="16" height="16">
0,0,0,0,0,0,0,0,0,0,0,0,8,9,9,9,
0,0,0,0,0,0,0,0,0,0,0,0,8,9,9,9,
0,0,0,0,0,0,0,0,0,0,0,0,8,9,9,9,
0,0,0,0,0,0,0,0,0,0,0,0,8,9,9,9,
0,0,0,0,0,0,0,0,0,0,0,0,8,9,9,9,
0,0,0,0,0,0,0,0,0,0,0,0,8,9,9,9,
0,0,0,0,0,0,0,0,0,0,0,0,8,9,9,9,
0,0,0,0,0,0,0,0,0,0,0,0,8,9,9,9,
0,0,0,0,0,0,0,0,0,0,0,0,8,9,9,9,
0,0,0,0,0,0,0,0,0,0,0,0,8,9,9,9,
0,0,0,0,0,0,0,0,0,0,0,0,8,9,9,9,
0,0,0,0,0,0,0,0,0,0,0,0,8,9,9,9,
0,0,0,0,0,0,0,0,0,0,0,0,8,9,9,9,
0,0,0,0,0,0,0,0,0,0,0,0,8,9,9,9,
0,0,0,0,0,0,0,0,0,0,0,0,8,9,9,9,
0,0,0,0,0,0,0,0,0,0,0,0,8,9,9,9
</chunk>
   <chunk x="112" y="-80" width="16" height="16">
0,0,0,0,0,0,0,0,9,9,9,10,0,0,0,0,
0,0,0,0,0,0,0,0,9,9,9,10,0,0,0,0,
0,0,0,0,0,0,0,0,9,9,9,10,0,0,0,0,
0,0,0,0,0,0,0,0,9,9,9,10,0,0,0,0,
0,0,0,0,0,0,0,0,9,9,9,10,0,0,0,0,
0,0,0,0,0,0,0,0,9,9,9,10,0,0,0,0,
0,0,0,0,0,0,0,0,9,9,9,10,0,0,0,0,
0,0,0,0,0,0,0,0,9,9,9,10,0,0,0,0,
0,0,0,0,0,0,0,0,9,9,9,10,0,0,0,0,
0,0,0,0,0,0,0,0,9,9,9,10,0,0,0,0,
0,0,0,0,0,0,0,0,9,9,9,10,0,0,0,0,
0,0,0,0,0,0,0,0,9,9,9,10,0,0,0,0,
0,0,0,0,0,0,0,0,9,9,9,10,0,0,0,0,
0,0,0,0,0,0,0,0,9,9,9,10,0,0,0,0,
0,0,0,0,0,0,0,0,9,9,9,10,0,0,0,0,
0,0,0,0,0,0,0,0,9,9,9,10,0,0,0,0
</chunk>
   <chunk x="144" y="-80" width="16" height="16">
0,0,0,0,0,0,0,0,0,0,0,0,8,9,9,9,
0,0,0,0,0,0,0,0,0,0,0,0,8,9,9,9,
0,0,0,0,0,0,0,0,0,0,0,0,8,9,9,9,
0,0,0,0,0,0,0,0,0,0,0,0,8,9,9,9,
0,0,0,0,0,0,0,0,0,0,0,0,8,9,9,9,
0,0,0,0,0,0,0,0,0,0,0,0,8,9,9,9,
0,0,0,0,0,0,0,0,0,0,0,0,8,9,9,9,
0,0,0,0,0,0,0,0,0,0,0,0,8,9,9,9,
0,0,0,0,0,0,0,0,0,0,0,0,8,9,9,9,
0,0,0,0,0,0,0,0,0,0,0,0,8,9,9,9,
0,0,0,0,0,0,0,0,0,0,0,0,8,9,9,9,
0,0,0,0,0,0,0,0,0,0,0,0,8,9,9,9,
0,0,0,0,0,0,0,0,0,0,0,0,8,9,9,9,
0,0,0,0,0,0,0,0,0,0,0,0,8,9,9,9,
0,0,0,0,0,0,0,0,0,0,0,0,8,9,9,9,
0,0,0,0,0,0,0,0,0,0,0,0,8,9,9,9
</chunk>
   <chunk x="112" y="-64" width="16" height="16">
0,0,0,0,0,0,0,0,9,9,9,10,0,0,0,0,
0,0,0,0,0,0,0,0,9,9,9,10,0,0,0,0,
0,0,0,0,0,0,0,0,9,9,9,10,0,0,0,0,
0,0,0,0,0,0,0,0,9,9,9,10,0,0,0,0,
0,0,0,0,0,0,0,0,9,9,9,10,0,0,0,0,
0,0,0,0,0,0,0,0,9,9,9,10,0,0,0,0,
0,0,0,0,0,0,0,0,9,9,9,10,0,0,0,0,
0,0,0,0,0,0,0,0,9,9,9,10,0,0,0,0,
0,0,0,0,0,0,0,0,9,9,9,10,0,0,0,0,
0,0,0,0,0,0,0,0,9,9,9,10,0,0,0,0,
0,0,0,0,0,0,0,0,9,9,9,10,0,0,0,0,
0,0,0,0,0,0,0,0,9,9,9,10,0,0,0,0,
0,0,0,0,0,0,0,0,9,9,9,10,0,0,0,0,
0,0,0,0,0,0,0,0,9,9,9,10,0,0,0,0,
0,0,0,0,0,0,0,0,9,9,9,10,0,0,0,0,
0,0,0,0,0,0,0,0,9,9,9,10,0,0,0,0
</chunk>
   <chunk x="144" y="-64" width="16" height="16">
0,0,0,0,0,0,0,0,0,0,0,0,8,9,9,9,
0,0,0,0,0,0,0,0,0,0,0,0,8,9,9,9,
0,0,0,0,0,0,0,0,0,0,0,0,8,9,9,9,
0,0,0,0,0,0,0,0,0,0,0,0,8,9,9,9,
0,0,0,0,0,0,0,0,0,0,0,0,8,9,9,9,
0,0,0,0,0,0,0,0,0,0,0,0,8,9,9,9,
0,0,0,0,0,0,0,0,0,0,0,0,8,9,9,9,
0,0,0,0,0,0,0,0,0,0,0,0,8,9,9,9,
0,0,0,0,0,0,0,0,0,0,0,0,8,9,9,9,
0,0,0,0,0,0,0,0,0,0,0,0,8,9,9,9,
0,0,0,0,0,0,0,0,0,0,0,0,8,9,9,9,
0,0,0,0,0,0,0,0,0,0,0,0,8,9,9,9,
0,0,0,0,0,0,0,0,0,0,0,0,8,9,9,9,
0,0,0,0,0,0,0,0,0,0,0,0,8,9,9,9,
0,0,0,0,0,0,0,0,0,0,0,0,8,9,9,9,
0,0,0,0,0,0,0,0,0,0,0,0,8,9,9,9
</chunk>
   <chunk x="112" y="-48" width="16" height="16">
0,0,0,0,0,0,0,0,9,9,9,10,0,0,0,0,
0,0,0,0,0,0,0,0,9,9,9,10,0,0,0,0,
0,0,0,0,0,0,0,0,9,9,9,10,0,0,0,0,
0,0,0,0,0,0,0,0,9,9,9,10,0,0,0,0,
0,0,0,0,0,0,0,0,9,9,9,10,0,0,0,0,
0,0,0,0,0,0,0,0,9,9,9,10,0,0,0,0,
0,0,0,0,0,0,0,0,9,9,9,10,0,0,0,0,
0,0,0,0,0,0,0,0,9,9,9,10,0,0,0,0,
0,0,0,0,0,0,0,0,9,9,9,10,0,0,0,0,
0,0,0,0,0,0,0,0,9,9,9,10,0,0,0,0,
0,0,0,0,0,0,0,0,9,9,9,10,0,0,0,0,
0,0,0,0,0,0,0,0,9,9,9,10,0,0,0,0,
0,0,0,0,0,0,0,0,9,9,9,10,0,0,0,0,
0,0,0,0,0,0,0,0,9,9,9,10,0,0,0,0,
0,0,0,0,0,0,0,0,9,9,9,10,0,0,0,0,
0,0,0,0,0,0,0,0,9,9,9,10,0,0,0,0
</chunk>
   <chunk x="144" y="-48" width="16" height="16">
0,0,0,0,0,0,0,0,0,0,0,0,8,9,9,9,
0,0,0,0,0,0,0,0,0,0,0,0,8,9,9,9,
0,0,0,0,0,0,0,0,0,0,0,0,8,9,9,9,
0,0,0,0,0,0,0,0,0,0,0,0,8,9,9,9,
0,0,0,0,0,0,0,0,0,0,0,0,8,9,9,9,
0,0,0,0,0,0,0,0,0,0,0,0,8,9,9,9,
0,0,0,0,0,0,0,0,0,0,0,0,8,9,9,9,
0,0,0,0,0,0,0,0,0,0,0,0,8,9,9,9,
0,0,0,0,0,0,0,0,0,0,0,0,8,9,9,9,
0,0,0,0,0,0,0,0,0,0,0,0,8,9,9,9,
0,0,0,0,0,0,0,0,0,0,0,0,8,9,9,9,
0,0,0,0,0,0,0,0,0,0,0,0,8,9,9,9,
0,0,0,0,0,0,0,0,0,0,0,0,8,9,9,9,
0,0,0,0,0,0,0,0,0,0,0,0,8,9,9,9,
0,0,0,0,0,0,0,0,0,0,0,0,8,9,9,9,
0,0,0,0,0,0,0,0,0,0,0,0,8,9,9,9
</chunk>
   <chunk x="112" y="-32" width="16" height="16">
0,0,0,0,0,0,0,0,9,9,9,10,0,0,0,0,
0,0,0,0,0,0,0,0,9,9,9,10,0,0,0,0,
0,0,0,0,0,0,0,0,9,9,9,10,0,0,0,0,
0,0,0,0,0,0,0,0,9,9,9,10,0,0,0,0,
0,0,0,0,0,0,0,0,9,9,9,10,0,0,0,0,
0,0,0,0,0,0,0,0,9,9,9,10,0,0,0,0,
0,0,0,0,0,0,0,0,9,9,9,10,0,0,0,0,
0,0,0,0,0,0,0,0,9,9,9,10,0,0,0,0,
0,0,0,0,0,0,0,0,9,9,9,10,0,0,0,0,
0,0,0,0,0,0,0,0,9,9,9,10,0,0,0,0,
0,0,0,0,0,0,0,0,9,9,9,10,0,0,0,0,
0,0,0,0,0,0,0,0,9,9,9,10,0,0,0,0,
0,0,0,0,0,0,0,0,9,9,9,10,0,0,0,0,
0,0,0,0,0,0,0,0,9,9,9,10,0,0,0,0,
0,0,0,0,0,0,0,0,9,9,9,10,0,0,0,0,
0,0,0,0,0,0,0,0,9,9,9,10,0,0,0,0
</chunk>
   <chunk x="144" y="-32" width="16" height="16">
0,0,0,0,0,0,0,0,0,0,0,0,8,9,9,9,
0,0,0,0,0,0,0,0,0,0,0,0,8,9,9,9,
0,0,0,0,0,0,0,0,0,0,0,0,8,9,9,9,
0,0,0,0,0,0,0,0,0,0,0,0,8,9,9,9,
0,0,0,0,0,0,0,0,0,0,0,0,8,9,9,9,
0,0,0,0,0,0,0,0,0,0,0,0,8,9,9,9,
0,0,0,0,0,0,0,0,0,0,0,0,8,9,9,9,
0,0,0,0,0,0,0,0,0,0,0,0,8,9,9,9,
0,0,0,0,0,0,0,0,0,0,0,0,8,9,9,9,
0,0,0,0,0,0,0,0,0,0,0,0,8,9,9,9,
0,0,0,0,0,0,0,0,0,0,0,0,8,9,9,9,
0,0,0,0,0,0,0,0,0,0,0,0,8,9,9,9,
0,0,0,0,0,0,0,0,0,0,0,0,8,9,9,9,
0,0,0,0,0,0,0,0,0,0,0,0,8,9,9,9,
0,0,0,0,0,0,0,0,0,0,0,0,8,9,9,9,
0,0,0,0,0,0,0,0,0,0,0,0,8,9,9,9
</chunk>
   <chunk x="112" y="-16" width="16" height="16">
0,0,0,0,0,0,0,0,9,9,9,10,0,0,0,0,
0,0,0,0,0,0,0,0,9,9,9,10,0,0,0,0,
0,0,0,0,0,0,0,0,9,9,9,10,0,0,0,0,
0,0,0,0,0,0,0,0,9,9,9,10,0,0,0,0,
0,0,0,0,0,0,0,0,9,9,9,10,0,0,0,0,
0,0,0,0,0,0,0,0,9,9,9,10,0,0,0,0,
0,0,0,0,0,0,0,0,9,9,9,10,0,0,0,0,
0,0,0,0,0,0,0,0,9,9,9,10,0,0,0,0,
0,0,0,0,0,0,0,0,9,9,9,10,0,0,0,0,
0,0,0,0,0,0,0,0,9,9,9,10,0,0,0,0,
0,0,0,0,0,0,0,0,9,9,9,10,0,0,0,0,
0,0,0,0,0,0,0,0,9,9,9,10,0,0,0,0,
0,0,0,0,0,0,0,0,9,9,9,10,0,0,0,0,
0,0,0,0,0,0,0,0,9,9,9,10,0,0,0,0,
0,0,0,0,0,0,0,0,9,9,9,10,0,0,0,0,
0,0,0,0,0,0,0,0,9,9,9,10,0,0,0,0
</chunk>
   <chunk x="144" y="-16" width="16" height="16">
0,0,0,0,0,0,0,0,0,0,0,0,8,9,9,9,
0,0,0,0,0,0,0,0,0,0,0,0,8,9,9,9,
0,0,0,0,0,0,0,0,0,0,0,0,8,9,9,9,
0,0,0,0,0,0,0,0,0,0,0,0,8,9,9,9,
0,0,0,0,0,0,0,0,0,0,0,0,8,9,9,9,
0,0,0,0,0,0,0,0,0,0,0,0,8,9,9,9,
0,0,0,0,0,0,0,0,0,0,0,0,8,9,9,9,
0,0,0,0,0,0,0,0,0,0,0,0,8,9,9,9,
0,0,0,0,0,0,0,0,0,0,0,0,8,9,9,9,
0,0,0,0,0,0,0,0,0,0,0,0,8,9,9,9,
0,0,0,0,0,0,0,0,0,0,0,0,8,9,9,9,
0,0,0,0,0,0,0,0,0,0,0,0,8,9,9,9,
0,0,0,0,0,0,0,0,0,0,0,0,8,9,9,9,
0,0,0,0,0,0,0,0,0,0,0,0,8,9,9,9,
0,0,0,0,0,0,0,0,0,0,0,0,8,9,9,9,
0,0,0,0,0,0,0,0,0,0,0,0,8,9,9,9
</chunk>
   <chunk x="0" y="0" width="16" height="16">
9,9,9,9,9,9,9,9,9,9,9,9,9,9,9,9,
9,9,9,9,9,9,9,9,9,9,9,9,9,9,9,9,
9,9,9,9,9,9,9,9,9,9,9,9,9,9,9,9,
9,9,9,1,14,14,14,14,14,14,14,14,14,14,14,14,
9,9,9,10,0,0,0,0,0,0,0,0,0,0,0,0,
9,9,9,10,0,0,0,0,0,0,0,0,0,0,0,0,
9,9,9,10,0,0,0,0,0,0,0,0,0,0,0,0,
9,9,9,10,0,0,0,0,0,0,0,0,0,0,0,0,
9,9,9,10,0,0,0,0,0,0,0,0,0,0,0,0,
9,9,9,10,0,0,0,0,0,0,0,0,0,0,0,0,
9,9,9,10,0,0,0,0,0,0,0,0,0,0,0,0,
9,9,9,10,0,0,0,0,0,0,0,0,0,0,0,0,
9,9,9,10,0,0,0,0,0,0,0,0,0,0,0,0,
9,9,9,10,0,0,0,0,0,0,0,0,0,0,0,0,
9,9,9,10,0,0,0,0,0,0,0,0,0,0,0,0,
9,9,9,10,0,0,0,0,0,0,0,0,0,0,0,0
</chunk>
   <chunk x="16" y="0" width="16" height="16">
9,9,9,9,9,9,9,9,9,9,9,9,9,9,9,9,
9,9,9,9,9,9,9,9,9,9,9,9,9,9,9,9,
9,9,9,9,9,9,9,9,9,9,9,9,9,9,9,9,
14,14,14,14,14,14,14,14,14,14,14,14,14,14,14,14,
0,0,0,0,0,0,0,0,0,0,0,0,0,0,0,0,
0,0,0,0,0,0,0,0,0,0,0,0,0,0,0,0,
0,0,0,0,0,0,0,0,0,0,0,0,0,0,0,0,
0,0,0,0,0,0,0,0,0,0,0,0,0,0,0,0,
0,0,0,0,0,0,0,0,0,0,0,0,0,0,0,0,
0,0,0,0,0,0,0,0,0,0,0,0,0,0,0,0,
0,0,0,0,0,0,0,0,0,0,0,0,0,0,0,0,
0,0,0,0,0,0,0,0,0,0,0,0,0,0,0,0,
0,0,0,0,0,0,0,0,0,0,0,0,0,0,0,0,
0,0,0,0,0,0,0,0,0,0,0,0,0,0,0,0,
0,0,0,0,0,0,0,0,0,0,0,0,0,0,0,0,
0,0,0,0,0,0,0,0,0,0,0,0,0,0,0,0
</chunk>
   <chunk x="32" y="0" width="16" height="16">
9,9,9,9,9,9,9,9,9,9,9,9,9,9,9,9,
9,9,9,9,9,9,9,9,9,9,9,9,9,9,9,9,
9,9,9,9,9,9,9,9,9,9,9,9,9,9,9,9,
14,14,14,14,14,14,14,14,14,14,14,14,14,14,14,14,
0,0,0,0,0,0,0,0,0,0,0,0,0,0,0,0,
0,0,0,0,0,0,0,0,0,0,0,0,0,0,0,0,
0,0,0,0,0,0,0,0,0,0,0,0,0,0,0,0,
0,0,0,0,0,0,0,0,0,0,0,0,0,0,0,0,
0,0,0,0,0,0,0,0,0,0,0,0,0,0,0,0,
0,0,0,0,0,0,0,0,0,0,0,0,0,0,0,0,
0,0,0,0,0,0,0,0,0,0,0,0,0,0,0,0,
0,0,0,0,0,0,0,0,0,0,0,0,0,0,0,0,
0,0,0,0,0,0,0,0,0,0,0,0,0,0,0,0,
0,0,0,0,0,0,0,0,0,0,0,0,0,0,0,0,
0,0,0,0,0,0,0,0,0,0,0,0,0,0,0,0,
0,0,0,0,0,0,0,0,0,0,0,0,0,0,0,0
</chunk>
   <chunk x="48" y="0" width="16" height="16">
9,9,9,9,9,9,9,9,9,9,9,9,9,9,9,9,
9,9,9,9,9,9,9,9,9,9,9,9,9,9,9,9,
9,9,9,9,9,9,9,9,9,9,9,9,9,9,9,9,
14,14,14,14,14,14,14,14,14,14,14,14,14,14,14,14,
0,0,0,0,0,0,0,0,0,0,0,0,0,0,0,0,
0,0,0,0,0,0,0,0,0,0,0,0,0,0,0,0,
0,0,0,0,0,0,0,0,0,0,0,0,0,0,0,0,
0,0,0,0,0,0,0,0,0,0,0,0,0,0,0,0,
0,0,0,0,0,0,0,0,0,0,0,0,0,0,0,0,
0,0,0,0,0,0,0,0,0,0,0,0,0,0,0,0,
0,0,0,0,0,0,0,0,0,0,0,0,0,0,0,0,
0,0,0,0,0,0,0,0,0,0,0,0,0,0,0,0,
0,0,0,0,0,0,0,0,0,0,0,0,0,0,0,0,
0,0,0,0,0,0,0,0,0,0,0,0,0,0,0,0,
0,0,0,0,0,0,0,0,0,0,0,0,0,0,0,0,
0,0,0,0,0,0,0,0,0,0,0,0,0,0,0,0
</chunk>
   <chunk x="64" y="0" width="16" height="16">
9,9,9,9,9,9,9,9,9,9,9,9,9,9,9,9,
9,9,9,9,9,9,9,9,9,9,9,9,9,9,9,9,
9,9,9,9,9,9,9,9,9,9,9,9,9,9,9,9,
14,14,14,14,14,14,14,14,14,14,14,14,14,14,14,14,
0,0,0,0,0,0,0,0,0,0,0,0,0,0,0,0,
0,0,0,0,0,0,0,0,0,0,0,0,0,0,0,0,
0,0,0,0,0,0,0,0,0,0,0,0,0,0,0,0,
0,0,0,0,0,0,0,0,0,0,0,0,0,0,0,0,
0,0,0,0,0,0,0,0,0,0,0,0,0,0,0,0,
0,0,0,0,0,0,0,0,0,0,0,0,0,0,0,0,
0,0,0,0,0,0,0,0,0,0,0,0,0,0,0,0,
0,0,0,0,0,0,0,0,0,0,0,0,0,0,0,0,
0,0,0,0,0,0,0,0,0,0,0,0,0,0,0,0,
0,0,0,0,0,0,0,0,0,0,0,0,0,0,0,0,
0,0,0,0,0,0,0,0,0,0,0,0,0,0,0,0,
0,0,0,0,0,0,0,0,0,0,0,0,0,0,0,0
</chunk>
   <chunk x="80" y="0" width="16" height="16">
9,9,9,9,9,9,9,9,9,9,9,9,9,9,9,9,
9,9,9,9,9,9,9,9,9,9,9,9,9,9,9,9,
9,9,9,9,9,9,9,9,9,9,9,9,9,9,9,9,
14,14,14,14,14,14,14,14,14,14,14,14,14,14,14,14,
0,0,0,0,0,0,0,0,0,0,0,0,0,0,0,0,
0,0,0,0,0,0,0,0,0,0,0,0,0,0,0,0,
0,0,0,0,0,0,0,0,0,0,0,0,0,0,0,0,
0,0,0,0,0,0,0,0,0,0,0,0,0,0,0,0,
0,0,0,0,0,0,0,0,0,0,0,0,0,0,0,0,
0,0,0,0,0,0,0,0,0,0,0,0,0,0,0,0,
0,0,0,0,0,0,0,0,0,0,0,0,0,0,0,0,
0,0,0,0,0,0,0,0,0,0,0,0,0,0,0,0,
0,0,0,0,0,0,0,0,0,0,0,0,0,0,0,0,
0,0,0,0,0,0,0,0,0,0,0,0,0,0,0,0,
0,0,0,0,0,0,0,0,0,0,0,0,0,0,0,0,
0,0,0,0,0,0,0,0,0,0,0,0,0,0,0,0
</chunk>
   <chunk x="96" y="0" width="16" height="16">
9,9,9,9,9,9,9,9,9,9,9,9,9,9,9,9,
9,9,9,9,9,9,9,9,9,9,9,9,9,9,9,9,
9,9,9,9,9,9,9,9,9,9,9,9,9,9,9,9,
14,14,14,14,14,14,14,14,14,14,14,14,14,14,14,14,
0,0,0,0,0,0,0,0,0,0,0,0,0,0,0,0,
0,0,0,0,0,0,0,0,0,0,0,0,0,0,0,0,
0,0,0,0,0,0,0,0,0,0,0,0,0,0,0,0,
0,0,0,0,0,0,0,0,0,0,0,0,0,0,0,0,
0,0,0,0,0,0,0,0,0,0,0,0,0,0,0,0,
0,0,0,0,0,0,0,0,0,0,0,0,0,0,0,0,
0,0,0,0,0,0,0,0,0,0,0,0,0,0,0,0,
0,0,0,0,0,0,0,0,0,0,0,0,0,0,0,0,
0,0,0,0,0,0,0,0,0,0,0,0,0,0,0,0,
0,0,0,0,0,0,0,0,0,0,0,0,0,0,0,0,
0,0,0,0,0,0,0,0,0,0,0,0,0,0,0,0,
0,0,0,0,0,0,0,0,0,0,0,0,0,0,0,0
</chunk>
   <chunk x="112" y="0" width="16" height="16">
9,9,9,9,9,9,9,9,9,9,9,10,0,0,0,0,
9,9,9,9,9,9,9,9,9,9,9,10,0,0,0,0,
9,9,9,9,9,9,9,9,9,9,9,10,0,0,0,0,
14,14,14,14,14,14,14,14,14,14,14,15,0,0,0,0,
0,0,0,0,0,0,0,0,0,0,0,0,0,0,0,0,
0,0,0,0,0,0,0,0,0,0,0,0,0,0,0,0,
0,0,0,0,0,0,0,0,0,0,0,0,0,0,0,0,
0,0,0,0,0,0,0,0,0,0,0,0,0,0,0,0,
0,0,0,0,0,0,0,0,0,0,0,0,0,0,0,0,
0,0,0,0,0,0,0,0,0,0,0,0,0,0,0,0,
0,0,0,0,0,0,0,0,0,0,0,0,0,0,0,0,
0,0,0,0,0,0,0,0,0,0,0,0,0,0,0,0,
0,0,0,0,0,0,0,0,0,0,0,0,0,0,0,0,
0,0,0,0,0,0,0,0,0,0,0,0,0,0,0,0,
0,0,0,0,0,0,0,0,0,0,0,0,0,0,0,0,
0,0,0,0,0,0,0,0,0,0,0,0,0,0,0,0
</chunk>
   <chunk x="144" y="0" width="16" height="16">
0,0,0,0,0,0,0,0,0,0,0,0,8,9,9,9,
0,0,0,0,0,0,0,0,0,0,0,0,8,9,9,9,
0,0,0,0,0,0,0,0,0,0,0,0,8,9,9,9,
0,0,0,0,0,0,0,0,0,0,0,0,8,9,9,9,
0,0,0,0,0,0,0,0,0,0,0,0,8,9,9,9,
0,0,0,0,0,0,0,0,0,0,0,0,8,9,9,9,
0,0,0,0,0,0,0,0,0,0,0,0,8,9,9,9,
0,0,0,0,0,0,0,0,0,0,0,0,8,9,9,9,
0,0,0,0,0,0,0,0,0,0,0,0,8,9,9,9,
0,0,0,0,0,0,0,0,0,0,0,0,8,9,9,9,
0,0,0,0,0,0,0,0,0,0,0,0,8,9,9,9,
0,0,0,0,0,0,0,0,0,0,0,0,8,9,9,9,
0,0,0,0,0,0,0,0,0,0,0,0,8,9,9,9,
0,0,0,0,0,0,0,0,0,0,0,0,8,9,9,9,
0,0,0,0,0,0,0,0,0,0,0,0,8,9,9,9,
0,0,0,0,0,0,0,0,0,0,0,0,8,9,9,9
</chunk>
   <chunk x="0" y="16" width="16" height="16">
9,9,9,10,0,0,0,0,0,0,0,0,0,0,0,0,
9,9,9,10,0,0,0,0,0,0,0,0,0,0,0,0,
9,9,9,10,0,0,0,0,0,0,0,0,0,0,0,0,
9,9,9,10,0,0,0,0,0,0,0,0,0,0,0,0,
9,9,9,10,0,0,0,0,0,0,0,0,0,0,0,0,
9,9,9,10,0,0,0,0,0,0,0,0,0,0,0,0,
9,9,9,10,0,0,0,0,0,0,0,0,0,0,0,0,
9,9,9,10,0,0,0,0,0,0,0,0,0,0,0,0,
9,9,9,10,0,0,0,0,0,0,0,0,0,0,0,0,
9,9,9,10,0,0,0,0,0,0,0,0,0,0,0,0,
9,9,9,10,0,0,0,0,0,0,0,0,0,0,0,0,
9,9,9,10,0,0,0,0,0,0,0,0,0,0,0,0,
9,9,9,10,0,0,0,0,0,0,0,0,0,0,0,0,
9,9,9,10,0,0,0,0,0,0,0,0,0,0,0,0,
9,9,9,10,0,0,0,0,0,0,0,0,0,0,0,0,
9,9,9,10,0,0,0,0,0,0,0,0,0,0,0,0
</chunk>
   <chunk x="144" y="16" width="16" height="16">
0,0,0,0,0,0,0,0,0,0,0,0,8,9,9,9,
0,0,0,0,0,0,0,0,0,0,0,0,8,9,9,9,
0,0,0,0,0,0,0,0,0,0,0,0,8,9,9,9,
0,0,0,0,0,0,0,0,0,0,0,0,8,9,9,9,
0,0,0,0,0,0,0,0,0,0,0,0,8,9,9,9,
0,0,0,0,0,0,0,0,0,0,0,0,8,9,9,9,
0,0,0,0,0,0,0,0,0,0,0,0,8,9,9,9,
0,0,0,0,0,0,0,0,0,0,0,0,8,9,9,9,
0,0,0,0,0,0,0,0,0,0,0,0,8,9,9,9,
0,0,0,0,0,0,0,0,0,0,0,0,8,9,9,9,
0,0,0,0,0,0,0,0,0,0,0,0,8,9,9,9,
0,0,0,0,0,0,0,0,0,0,0,0,8,9,9,9,
0,0,0,0,0,0,0,0,0,0,0,0,8,9,9,9,
0,0,0,0,0,0,0,0,0,0,0,0,8,9,9,9,
0,0,0,0,0,0,0,0,0,0,0,0,8,9,9,9,
0,0,0,0,0,0,0,0,0,0,0,0,8,9,9,9
</chunk>
   <chunk x="0" y="32" width="16" height="16">
9,9,9,10,0,0,0,0,0,0,0,0,0,0,0,0,
9,9,9,10,0,0,0,0,0,0,0,0,0,0,0,0,
9,9,9,10,0,0,0,0,0,0,0,0,0,0,0,0,
9,9,9,10,0,0,0,0,0,0,0,0,0,0,0,0,
9,9,9,6,4,4,4,4,4,4,4,4,4,4,4,4,
9,9,9,9,9,9,9,9,9,9,9,9,9,9,9,9,
9,9,9,9,9,9,9,9,9,9,9,9,9,9,9,9,
9,9,9,9,9,9,9,9,9,9,9,9,9,9,9,9,
0,0,0,0,0,0,0,0,0,0,0,0,0,0,0,0,
0,0,0,0,0,0,0,0,0,0,0,0,0,0,0,0,
0,0,0,0,0,0,0,0,0,0,0,0,0,0,0,0,
0,0,0,0,0,0,0,0,0,0,0,0,0,0,0,0,
0,0,0,0,0,0,0,0,0,0,0,0,0,0,0,0,
0,0,0,0,0,0,0,0,0,0,0,0,0,0,0,0,
0,0,0,0,0,0,0,0,0,0,0,0,0,0,0,0,
0,0,0,0,0,0,0,0,0,0,0,0,0,0,0,0
</chunk>
   <chunk x="16" y="32" width="16" height="16">
0,0,0,0,0,0,0,0,0,0,0,0,0,0,0,0,
0,0,0,0,0,0,0,0,0,0,0,0,0,0,0,0,
0,0,0,0,0,0,0,0,0,0,0,0,0,0,0,0,
0,0,0,0,0,0,0,0,0,0,0,0,0,0,0,0,
4,4,4,4,4,4,4,4,4,4,4,4,4,4,4,4,
9,9,9,9,9,9,9,9,9,9,9,9,9,9,9,9,
9,9,9,9,9,9,9,9,9,9,9,9,9,9,9,9,
9,9,9,9,9,9,9,9,9,9,9,9,9,9,9,9,
0,0,0,0,0,0,0,0,0,0,0,0,0,0,0,0,
0,0,0,0,0,0,0,0,0,0,0,0,0,0,0,0,
0,0,0,0,0,0,0,0,0,0,0,0,0,0,0,0,
0,0,0,0,0,0,0,0,0,0,0,0,0,0,0,0,
0,0,0,0,0,0,0,0,0,0,0,0,0,0,0,0,
0,0,0,0,0,0,0,0,0,0,0,0,0,0,0,0,
0,0,0,0,0,0,0,0,0,0,0,0,0,0,0,0,
0,0,0,0,0,0,0,0,0,0,0,0,0,0,0,0
</chunk>
   <chunk x="32" y="32" width="16" height="16">
0,0,0,0,0,0,0,0,0,0,0,0,0,0,0,0,
0,0,0,0,0,0,0,0,0,0,0,0,0,0,0,0,
0,0,0,0,0,0,0,0,0,0,0,0,0,0,0,0,
0,0,0,0,0,0,0,0,0,0,0,0,0,0,0,0,
4,4,4,4,4,4,4,4,4,4,4,4,4,4,4,4,
9,9,9,9,9,9,9,9,9,9,9,9,9,9,9,9,
9,9,9,9,9,9,9,9,9,9,9,9,9,9,9,9,
9,9,9,9,9,9,9,9,9,9,9,9,9,9,9,9,
0,0,0,0,0,0,0,0,0,0,0,0,0,0,0,0,
0,0,0,0,0,0,0,0,0,0,0,0,0,0,0,0,
0,0,0,0,0,0,0,0,0,0,0,0,0,0,0,0,
0,0,0,0,0,0,0,0,0,0,0,0,0,0,0,0,
0,0,0,0,0,0,0,0,0,0,0,0,0,0,0,0,
0,0,0,0,0,0,0,0,0,0,0,0,0,0,0,0,
0,0,0,0,0,0,0,0,0,0,0,0,0,0,0,0,
0,0,0,0,0,0,0,0,0,0,0,0,0,0,0,0
</chunk>
   <chunk x="48" y="32" width="16" height="16">
0,0,0,0,0,0,0,0,0,0,0,0,0,0,0,0,
0,0,0,0,0,0,0,0,0,0,0,0,0,0,0,0,
0,0,0,0,0,0,0,0,0,0,0,0,0,0,0,0,
0,0,0,0,0,0,0,0,0,0,0,0,0,0,0,0,
4,4,4,4,4,4,4,4,4,4,4,4,4,4,4,4,
9,9,9,9,9,9,9,9,9,9,9,9,9,9,9,9,
9,9,9,9,9,9,9,9,9,9,9,9,9,9,9,9,
9,9,9,9,9,9,9,9,9,9,9,9,9,9,9,9,
0,0,0,0,0,0,0,0,0,0,0,0,0,0,0,0,
0,0,0,0,0,0,0,0,0,0,0,0,0,0,0,0,
0,0,0,0,0,0,0,0,0,0,0,0,0,0,0,0,
0,0,0,0,0,0,0,0,0,0,0,0,0,0,0,0,
0,0,0,0,0,0,0,0,0,0,0,0,0,0,0,0,
0,0,0,0,0,0,0,0,0,0,0,0,0,0,0,0,
0,0,0,0,0,0,0,0,0,0,0,0,0,0,0,0,
0,0,0,0,0,0,0,0,0,0,0,0,0,0,0,0
</chunk>
   <chunk x="64" y="32" width="16" height="16">
0,0,0,0,0,0,0,0,0,0,0,0,0,0,0,0,
0,0,0,0,0,0,0,0,0,0,0,0,0,0,0,0,
0,0,0,0,0,0,0,0,0,0,0,0,0,0,0,0,
0,0,0,0,0,0,0,0,0,0,0,0,0,0,0,0,
4,4,4,4,4,4,4,4,4,4,4,4,4,4,4,4,
9,9,9,9,9,9,9,9,9,9,9,9,9,9,9,9,
9,9,9,9,9,9,9,9,9,9,9,9,9,9,9,9,
9,9,9,9,9,9,9,9,9,9,9,9,9,9,9,9,
0,0,0,0,0,0,0,0,0,0,0,0,0,0,0,0,
0,0,0,0,0,0,0,0,0,0,0,0,0,0,0,0,
0,0,0,0,0,0,0,0,0,0,0,0,0,0,0,0,
0,0,0,0,0,0,0,0,0,0,0,0,0,0,0,0,
0,0,0,0,0,0,0,0,0,0,0,0,0,0,0,0,
0,0,0,0,0,0,0,0,0,0,0,0,0,0,0,0,
0,0,0,0,0,0,0,0,0,0,0,0,0,0,0,0,
0,0,0,0,0,0,0,0,0,0,0,0,0,0,0,0
</chunk>
   <chunk x="80" y="32" width="16" height="16">
0,0,0,0,0,0,0,0,0,0,0,0,0,0,0,0,
0,0,0,0,0,0,0,0,0,0,0,0,0,0,0,0,
0,0,0,0,0,0,0,0,0,0,0,0,0,0,0,0,
0,0,0,0,0,0,0,0,0,0,0,0,0,0,0,0,
4,4,4,4,4,4,4,4,4,4,4,4,4,4,4,4,
9,9,9,9,9,9,9,9,9,9,9,9,9,9,9,9,
9,9,9,9,9,9,9,9,9,9,9,9,9,9,9,9,
9,9,9,9,9,9,9,9,9,9,9,9,9,9,9,9,
0,0,0,0,0,0,0,0,0,0,0,0,0,0,0,0,
0,0,0,0,0,0,0,0,0,0,0,0,0,0,0,0,
0,0,0,0,0,0,0,0,0,0,0,0,0,0,0,0,
0,0,0,0,0,0,0,0,0,0,0,0,0,0,0,0,
0,0,0,0,0,0,0,0,0,0,0,0,0,0,0,0,
0,0,0,0,0,0,0,0,0,0,0,0,0,0,0,0,
0,0,0,0,0,0,0,0,0,0,0,0,0,0,0,0,
0,0,0,0,0,0,0,0,0,0,0,0,0,0,0,0
</chunk>
   <chunk x="96" y="32" width="16" height="16">
0,0,0,0,0,0,0,0,0,0,0,0,0,0,0,0,
0,0,0,0,0,0,0,0,0,0,0,0,0,0,0,0,
0,0,0,0,0,0,0,0,0,0,0,0,0,0,0,0,
0,0,0,0,0,0,0,0,0,0,0,0,0,0,0,0,
4,4,4,4,4,4,4,4,4,4,4,4,4,4,4,4,
9,9,9,9,9,9,9,9,9,9,9,9,9,9,9,9,
9,9,9,9,9,9,9,9,9,9,9,9,9,9,9,9,
9,9,9,9,9,9,9,9,9,9,9,9,9,9,9,9,
0,0,0,0,0,0,0,0,0,0,0,0,0,0,0,0,
0,0,0,0,0,0,0,0,0,0,0,0,0,0,0,0,
0,0,0,0,0,0,0,0,0,0,0,0,0,0,0,0,
0,0,0,0,0,0,0,0,0,0,0,0,0,0,0,0,
0,0,0,0,0,0,0,0,0,0,0,0,0,0,0,0,
0,0,0,0,0,0,0,0,0,0,0,0,0,0,0,0,
0,0,0,0,0,0,0,0,0,0,0,0,0,0,0,0,
0,0,0,0,0,0,0,0,0,0,0,0,0,0,0,0
</chunk>
   <chunk x="112" y="32" width="16" height="16">
0,0,0,0,0,0,0,0,0,0,0,0,0,0,0,0,
0,0,0,0,0,0,0,0,0,0,0,0,0,0,0,0,
0,0,0,0,0,0,0,0,0,0,0,0,0,0,0,0,
0,0,0,0,0,0,0,0,0,0,0,0,0,0,0,0,
4,4,4,4,4,4,4,4,4,4,4,4,4,4,4,4,
9,9,9,9,9,9,9,9,9,9,9,9,9,9,9,9,
9,9,9,9,9,9,9,9,9,9,9,9,9,9,9,9,
9,9,9,9,9,9,9,9,9,9,9,9,9,9,9,9,
0,0,0,0,0,0,0,0,0,0,0,0,0,0,0,0,
0,0,0,0,0,0,0,0,0,0,0,0,0,0,0,0,
0,0,0,0,0,0,0,0,0,0,0,0,0,0,0,0,
0,0,0,0,0,0,0,0,0,0,0,0,0,0,0,0,
0,0,0,0,0,0,0,0,0,0,0,0,0,0,0,0,
0,0,0,0,0,0,0,0,0,0,0,0,0,0,0,0,
0,0,0,0,0,0,0,0,0,0,0,0,0,0,0,0,
0,0,0,0,0,0,0,0,0,0,0,0,0,0,0,0
</chunk>
   <chunk x="128" y="32" width="16" height="16">
0,0,0,0,0,0,0,0,0,0,0,0,0,0,0,0,
0,0,0,0,0,0,0,0,0,0,0,0,0,0,0,0,
0,0,0,0,0,0,0,0,0,0,0,0,0,0,0,0,
0,0,0,0,0,0,0,0,0,0,0,0,0,0,0,0,
4,4,4,4,4,4,4,4,4,4,4,4,4,4,4,4,
9,9,9,9,9,9,9,9,9,9,9,9,9,9,9,9,
9,9,9,9,9,9,9,9,9,9,9,9,9,9,9,9,
9,9,9,9,9,9,9,9,9,9,9,9,9,9,9,9,
0,0,0,0,0,0,0,0,0,0,0,0,0,0,0,0,
0,0,0,0,0,0,0,0,0,0,0,0,0,0,0,0,
0,0,0,0,0,0,0,0,0,0,0,0,0,0,0,0,
0,0,0,0,0,0,0,0,0,0,0,0,0,0,0,0,
0,0,0,0,0,0,0,0,0,0,0,0,0,0,0,0,
0,0,0,0,0,0,0,0,0,0,0,0,0,0,0,0,
0,0,0,0,0,0,0,0,0,0,0,0,0,0,0,0,
0,0,0,0,0,0,0,0,0,0,0,0,0,0,0,0
</chunk>
   <chunk x="144" y="32" width="16" height="16">
0,0,0,0,0,0,0,0,0,0,0,0,8,9,9,9,
0,0,0,0,0,0,0,0,0,0,0,0,8,9,9,9,
0,0,0,0,0,0,0,0,0,0,0,0,8,9,9,9,
0,0,0,0,0,0,0,0,0,0,0,0,8,9,9,9,
4,4,4,4,4,4,4,4,4,4,4,4,7,9,9,9,
9,9,9,9,9,9,9,9,9,9,9,9,9,9,9,9,
9,9,9,9,9,9,9,9,9,9,9,9,9,9,9,9,
9,9,9,9,9,9,9,9,9,9,9,9,9,9,9,9,
0,0,0,0,0,0,0,0,0,0,0,0,0,0,0,0,
0,0,0,0,0,0,0,0,0,0,0,0,0,0,0,0,
0,0,0,0,0,0,0,0,0,0,0,0,0,0,0,0,
0,0,0,0,0,0,0,0,0,0,0,0,0,0,0,0,
0,0,0,0,0,0,0,0,0,0,0,0,0,0,0,0,
0,0,0,0,0,0,0,0,0,0,0,0,0,0,0,0,
0,0,0,0,0,0,0,0,0,0,0,0,0,0,0,0,
0,0,0,0,0,0,0,0,0,0,0,0,0,0,0,0
</chunk>
  </data>
 </layer>
</map>
