<?xml version="1.0" encoding="UTF-8"?>
<map version="1.10" tiledversion="1.11.2" orientation="orthogonal" renderorder="right-down" width="120" height="40" tilewidth="16" tileheight="16" infinite="1" nextlayerid="2" nextobjectid="1">
 <editorsettings>
  <export format="csv"/>
 </editorsettings>
 <tileset firstgid="1" source="tileset.tsx"/>
 <layer id="1" name="Tile Layer 1" width="120" height="40">
  <data encoding="csv">
   <chunk x="0" y="-128" width="16" height="16">
0,0,0,0,0,0,0,0,0,0,0,0,0,0,0,0,
0,0,0,0,0,0,0,0,0,0,0,0,0,0,0,0,
0,0,0,0,0,0,0,0,0,0,0,0,0,0,0,0,
0,0,0,0,0,0,0,0,0,0,0,0,0,0,0,0,
0,0,0,0,0,0,0,0,0,0,0,0,0,0,0,0,
0,0,0,0,0,0,0,0,0,0,0,0,0,0,0,0,
0,0,0,0,0,0,0,0,0,0,0,0,0,0,0,0,
0,0,0,0,0,0,0,0,0,0,0,0,0,0,0,0,
0,0,0,0,0,0,0,0,0,0,0,0,0,0,0,0,
0,0,0,0,0,0,0,0,0,0,0,0,0,0,0,0,
0,0,0,0,0,0,0,0,0,0,0,0,0,0,0,0,
0,0,0,0,0,0,0,0,0,0,0,0,0,0,0,0,
0,0,0,0,0,0,0,0,0,0,0,0,0,0,0,0,
0,0,0,0,0,0,0,0,0,0,0,0,0,0,0,0,
0,0,0,0,0,0,0,0,0,0,0,0,0,0,0,0,
0,3221225481,3221225481,3221225481,3221225481,3221225481,3221225481,3221225481,3221225481,3221225481,3221225481,3221225481,3221225481,3221225481,3221225481,3221225481
</chunk>
   <chunk x="16" y="-128" width="16" height="16">
0,0,0,0,0,0,0,0,0,0,0,0,0,0,0,0,
0,0,0,0,0,0,0,0,0,0,0,0,0,0,0,0,
0,0,0,0,0,0,0,0,0,0,0,0,0,0,0,0,
0,0,0,0,0,0,0,0,0,0,0,0,0,0,0,0,
0,0,0,0,0,0,0,0,0,0,0,0,0,0,0,0,
0,0,0,0,0,0,0,0,0,0,0,0,0,0,0,0,
0,0,0,0,0,0,0,0,0,0,0,0,0,0,0,0,
0,0,0,0,0,0,0,0,0,0,0,0,0,0,0,0,
0,0,0,0,0,0,0,0,0,0,0,0,0,0,0,0,
0,0,0,0,0,0,0,0,0,0,0,0,0,0,0,0,
0,0,0,0,0,0,0,0,0,0,0,0,0,0,0,0,
0,0,0,0,0,0,0,0,0,0,0,0,0,0,0,0,
0,0,0,0,0,0,0,0,0,0,0,0,0,0,0,0,
0,0,0,0,0,0,0,0,0,0,0,0,0,0,0,0,
0,0,0,0,0,0,0,0,0,0,0,0,0,0,0,0,
3221225481,3221225481,3221225481,3221225481,3221225481,3221225481,3221225481,3221225481,3221225481,3221225481,3221225481,3221225481,3221225481,3221225481,3221225481,3221225481
</chunk>
   <chunk x="32" y="-128" width="16" height="16">
0,0,0,0,0,0,0,0,0,0,0,0,0,0,0,0,
0,0,0,0,0,0,0,0,0,0,0,0,0,0,0,0,
0,0,0,0,0,0,0,0,0,0,0,0,0,0,0,0,
0,0,0,0,0,0,0,0,0,0,0,0,0,0,0,0,
0,0,0,0,0,0,0,0,0,0,0,0,0,0,0,0,
0,0,0,0,0,0,0,0,0,0,0,0,0,0,0,0,
0,0,0,0,0,0,0,0,0,0,0,0,0,0,0,0,
0,0,0,0,0,0,0,0,0,0,0,0,0,0,0,0,
0,0,0,0,0,0,0,0,0,0,0,0,0,0,0,0,
0,0,0,0,0,0,0,0,0,0,0,0,0,0,0,0,
0,0,0,0,0,0,0,0,0,0,0,0,0,0,0,0,
0,0,0,0,0,0,0,0,0,0,0,0,0,0,0,0,
0,0,0,0,0,0,0,0,0,0,0,0,0,0,0,0,
0,0,0,0,0,0,0,0,0,0,0,0,0,0,0,0,
0,0,0,0,0,0,0,0,0,0,0,0,0,0,0,0,
3221225481,3221225481,3221225481,3221225481,3221225481,3221225481,3221225481,3221225481,3221225481,3221225481,3221225481,3221225481,3221225481,3221225481,3221225481,3221225481
</chunk>
   <chunk x="48" y="-128" width="16" height="16">
0,0,0,0,0,0,0,0,0,0,0,0,0,0,0,0,
0,0,0,0,0,0,0,0,0,0,0,0,0,0,0,0,
0,0,0,0,0,0,0,0,0,0,0,0,0,0,0,0,
0,0,0,0,0,0,0,0,0,0,0,0,0,0,0,0,
0,0,0,0,0,0,0,0,0,0,0,0,0,0,0,0,
0,0,0,0,0,0,0,0,0,0,0,0,0,0,0,0,
0,0,0,0,0,0,0,0,0,0,0,0,0,0,0,0,
0,0,0,0,0,0,0,0,0,0,0,0,0,0,0,0,
0,0,0,0,0,0,0,0,0,0,0,0,0,0,0,0,
0,0,0,0,0,0,0,0,0,0,0,0,0,0,0,0,
0,0,0,0,0,0,0,0,0,0,0,0,0,0,0,0,
0,0,0,0,0,0,0,0,0,0,0,0,0,0,0,0,
0,0,0,0,0,0,0,0,0,0,0,0,0,0,0,0,
0,0,0,0,0,0,0,0,0,0,0,0,0,0,0,0,
0,0,0,0,0,0,0,0,0,0,0,0,0,0,0,0,
3221225481,3221225481,3221225481,3221225481,3221225481,3221225481,3221225481,3221225481,3221225481,3221225481,3221225481,3221225481,3221225481,3221225481,3221225481,3221225481
</chunk>
   <chunk x="64" y="-128" width="16" height="16">
0,0,0,0,0,0,0,0,0,0,0,0,0,0,0,0,
0,0,0,0,0,0,0,0,0,0,0,0,0,0,0,0,
0,0,0,0,0,0,0,0,0,0,0,0,0,0,0,0,
0,0,0,0,0,0,0,0,0,0,0,0,0,0,0,0,
0,0,0,0,0,0,0,0,0,0,0,0,0,0,0,0,
0,0,0,0,0,0,0,0,0,0,0,0,0,0,0,0,
0,0,0,0,0,0,0,0,0,0,0,0,0,0,0,0,
0,0,0,0,0,0,0,0,0,0,0,0,0,0,0,0,
0,0,0,0,0,0,0,0,0,0,0,0,0,0,0,0,
0,0,0,0,0,0,0,0,0,0,0,0,0,0,0,0,
0,0,0,0,0,0,0,0,0,0,0,0,0,0,0,0,
0,0,0,0,0,0,0,0,0,0,0,0,0,0,0,0,
0,0,0,0,0,0,0,0,0,0,0,0,0,0,0,0,
0,0,0,0,0,0,0,0,0,0,0,0,0,0,0,0,
0,0,0,0,0,0,0,0,0,0,0,0,0,0,0,0,
3221225481,3221225481,3221225481,3221225481,3221225481,3221225481,3221225481,3221225481,3221225481,3221225481,3221225481,3221225481,3221225481,3221225481,3221225481,3221225481
</chunk>
   <chunk x="80" y="-128" width="16" height="16">
0,0,0,0,0,0,0,0,0,0,0,0,0,0,0,0,
0,0,0,0,0,0,0,0,0,0,0,0,0,0,0,0,
0,0,0,0,0,0,0,0,0,0,0,0,0,0,0,0,
0,0,0,0,0,0,0,0,0,0,0,0,0,0,0,0,
0,0,0,0,0,0,0,0,0,0,0,0,0,0,0,0,
0,0,0,0,0,0,0,0,0,0,0,0,0,0,0,0,
0,0,0,0,0,0,0,0,0,0,0,0,0,0,0,0,
0,0,0,0,0,0,0,0,0,0,0,0,0,0,0,0,
0,0,0,0,0,0,0,0,0,0,0,0,0,0,0,0,
0,0,0,0,0,0,0,0,0,0,0,0,0,0,0,0,
0,0,0,0,0,0,0,0,0,0,0,0,0,0,0,0,
0,0,0,0,0,0,0,0,0,0,0,0,0,0,0,0,
0,0,0,0,0,0,0,0,0,0,0,0,0,0,0,0,
0,0,0,0,0,0,0,0,0,0,0,0,0,0,0,0,
0,0,0,0,0,0,0,0,0,0,0,0,0,0,0,0,
3221225481,3221225481,3221225481,3221225481,3221225481,3221225481,3221225481,3221225481,3221225481,3221225481,3221225481,3221225481,3221225481,3221225481,3221225481,3221225481
</chunk>
   <chunk x="96" y="-128" width="16" height="16">
0,0,0,0,0,0,0,0,0,0,0,0,0,0,0,0,
0,0,0,0,0,0,0,0,0,0,0,0,0,0,0,0,
0,0,0,0,0,0,0,0,0,0,0,0,0,0,0,0,
0,0,0,0,0,0,0,0,0,0,0,0,0,0,0,0,
0,0,0,0,0,0,0,0,0,0,0,0,0,0,0,0,
0,0,0,0,0,0,0,0,0,0,0,0,0,0,0,0,
0,0,0,0,0,0,0,0,0,0,0,0,0,0,0,0,
0,0,0,0,0,0,0,0,0,0,0,0,0,0,0,0,
0,0,0,0,0,0,0,0,0,0,0,0,0,0,0,0,
0,0,0,0,0,0,0,0,0,0,0,0,0,0,0,0,
0,0,0,0,0,0,0,0,0,0,0,0,0,0,0,0,
0,0,0,0,0,0,0,0,0,0,0,0,0,0,0,0,
0,0,0,0,0,0,0,0,0,0,0,0,0,0,0,0,
0,0,0,0,0,0,0,0,0,0,0,0,0,0,0,0,
0,0,0,0,0,0,0,0,0,0,0,0,0,0,0,0,
3221225481,3221225481,3221225481,3221225481,3221225481,3221225481,3221225481,3221225481,3221225481,3221225481,3221225481,3221225481,3221225481,3221225481,3221225481,3221225481
</chunk>
   <chunk x="112" y="-128" width="16" height="16">
0,0,0,0,0,0,0,0,0,0,0,0,0,0,0,0,
0,0,0,0,0,0,0,0,0,0,0,0,0,0,0,0,
0,0,0,0,0,0,0,0,0,0,0,0,0,0,0,0,
0,0,0,0,0,0,0,0,0,0,0,0,0,0,0,0,
0,0,0,0,0,0,0,0,0,0,0,0,0,0,0,0,
0,0,0,0,0,0,0,0,0,0,0,0,0,0,0,0,
0,0,0,0,0,0,0,0,0,0,0,0,0,0,0,0,
0,0,0,0,0,0,0,0,0,0,0,0,0,0,0,0,
0,0,0,0,0,0,0,0,0,0,0,0,0,0,0,0,
0,0,0,0,0,0,0,0,0,0,0,0,0,0,0,0,
0,0,0,0,0,0,0,0,0,0,0,0,0,0,0,0,
0,0,0,0,0,0,0,0,0,0,0,0,0,0,0,0,
0,0,0,0,0,0,0,0,0,0,0,0,0,0,0,0,
0,0,0,0,0,0,0,0,0,0,0,0,0,0,0,0,
0,0,0,0,0,0,0,0,0,0,0,0,0,0,0,0,
3221225481,3221225481,3221225481,3221225481,3221225481,3221225481,3221225481,3221225481,3221225481,3221225481,3221225481,3221225481,3221225481,3221225481,3221225481,3221225481
</chunk>
   <chunk x="128" y="-128" width="16" height="16">
0,0,0,0,0,0,0,0,0,0,0,0,0,0,0,0,
0,0,0,0,0,0,0,0,0,0,0,0,0,0,0,0,
0,0,0,0,0,0,0,0,0,0,0,0,0,0,0,0,
0,0,0,0,0,0,0,0,0,0,0,0,0,0,0,0,
0,0,0,0,0,0,0,0,0,0,0,0,0,0,0,0,
0,0,0,0,0,0,0,0,0,0,0,0,0,0,0,0,
0,0,0,0,0,0,0,0,0,0,0,0,0,0,0,0,
0,0,0,0,0,0,0,0,0,0,0,0,0,0,0,0,
0,0,0,0,0,0,0,0,0,0,0,0,0,0,0,0,
0,0,0,0,0,0,0,0,0,0,0,0,0,0,0,0,
0,0,0,0,0,0,0,0,0,0,0,0,0,0,0,0,
0,0,0,0,0,0,0,0,0,0,0,0,0,0,0,0,
0,0,0,0,0,0,0,0,0,0,0,0,0,0,0,0,
0,0,0,0,0,0,0,0,0,0,0,0,0,0,0,0,
0,0,0,0,0,0,0,0,0,0,0,0,0,0,0,0,
3221225481,3221225481,3221225481,3221225481,3221225481,3221225481,3221225481,3221225481,3221225481,3221225481,3221225481,3221225481,3221225481,3221225481,3221225481,3221225481
</chunk>
   <chunk x="144" y="-128" width="16" height="16">
0,0,0,0,0,0,0,0,0,0,0,0,0,0,0,0,
0,0,0,0,0,0,0,0,0,0,0,0,0,0,0,0,
0,0,0,0,0,0,0,0,0,0,0,0,0,0,0,0,
0,0,0,0,0,0,0,0,0,0,0,0,0,0,0,0,
0,0,0,0,0,0,0,0,0,0,0,0,0,0,0,0,
0,0,0,0,0,0,0,0,0,0,0,0,0,0,0,0,
0,0,0,0,0,0,0,0,0,0,0,0,0,0,0,0,
0,0,0,0,0,0,0,0,0,0,0,0,0,0,0,0,
0,0,0,0,0,0,0,0,0,0,0,0,0,0,0,0,
0,0,0,0,0,0,0,0,0,0,0,0,0,0,0,0,
0,0,0,0,0,0,0,0,0,0,0,0,0,0,0,0,
0,0,0,0,0,0,0,0,0,0,0,0,0,0,0,0,
0,0,0,0,0,0,0,0,0,0,0,0,0,0,0,0,
0,0,0,0,0,0,0,0,0,0,0,0,0,0,0,0,
0,0,0,0,0,0,0,0,0,0,0,0,0,0,0,0,
3221225481,3221225481,3221225481,3221225481,3221225481,3221225481,3221225481,3221225481,3221225481,3221225481,3221225481,3221225481,3221225481,3221225481,3221225481,3221225481
</chunk>
   <chunk x="160" y="-128" width="16" height="16">
0,0,0,0,0,0,0,0,0,0,0,0,0,0,0,0,
0,0,0,0,0,0,0,0,0,0,0,0,0,0,0,0,
0,0,0,0,0,0,0,0,0,0,0,0,0,0,0,0,
0,0,0,0,0,0,0,0,0,0,0,0,0,0,0,0,
0,0,0,0,0,0,0,0,0,0,0,0,0,0,0,0,
0,0,0,0,0,0,0,0,0,0,0,0,0,0,0,0,
0,0,0,0,0,0,0,0,0,0,0,0,0,0,0,0,
0,0,0,0,0,0,0,0,0,0,0,0,0,0,0,0,
0,0,0,0,0,0,0,0,0,0,0,0,0,0,0,0,
0,0,0,0,0,0,0,0,0,0,0,0,0,0,0,0,
0,0,0,0,0,0,0,0,0,0,0,0,0,0,0,0,
0,0,0,0,0,0,0,0,0,0,0,0,0,0,0,0,
0,0,0,0,0,0,0,0,0,0,0,0,0,0,0,0,
0,0,0,0,0,0,0,0,0,0,0,0,0,0,0,0,
0,0,0,0,0,0,0,0,0,0,0,0,0,0,0,0,
3221225481,0,0,0,0,0,0,0,0,0,0,0,0,0,0,0
</chunk>
   <chunk x="0" y="-112" width="16" height="16">
0,3221225481,3221225481,3221225481,3221225481,3221225481,3221225481,3221225481,3221225481,3221225481,3221225481,3221225481,3221225481,3221225481,3221225481,3221225481,
0,3221225481,3221225481,3221225481,3221225481,3221225481,3221225481,3221225481,3221225481,3221225481,3221225481,3221225481,3221225481,3221225481,3221225481,3221225481,
0,3221225481,3221225481,3221225481,3221225479,3221225476,3221225476,3221225476,3221225476,3221225476,3221225476,3221225476,3221225476,3221225476,3221225476,3221225476,
0,3221225481,3221225481,3221225481,3221225480,0,0,0,0,0,0,0,0,0,0,0,
0,3221225481,3221225481,3221225481,3221225480,0,0,0,0,0,0,0,0,0,0,0,
0,3221225481,3221225481,3221225481,3221225480,0,0,0,0,0,0,0,0,0,0,0,
0,3221225481,3221225481,3221225481,3221225480,0,0,0,0,0,0,0,0,0,0,0,
0,3221225481,3221225481,3221225481,3221225480,0,0,0,0,0,0,0,0,0,0,0,
0,3221225481,3221225481,3221225481,3221225480,0,0,0,0,0,0,0,0,0,0,0,
0,3221225481,3221225481,3221225481,3221225480,0,0,0,0,0,0,0,0,0,0,0,
0,3221225481,3221225481,3221225481,3221225480,0,0,0,0,0,0,0,0,0,0,0,
0,3221225481,3221225481,3221225481,3221225480,0,0,0,0,0,0,0,0,0,0,0,
0,3221225481,3221225481,3221225481,3221225480,0,0,0,0,0,0,0,0,0,0,0,
0,3221225481,3221225481,3221225481,3221225480,0,0,0,0,0,0,0,0,0,0,0,
0,3221225481,3221225481,3221225481,3221225480,0,0,0,0,0,0,0,0,0,0,0,
0,3221225481,3221225481,3221225481,3221225480,0,0,0,0,0,0,0,0,0,0,0
</chunk>
   <chunk x="16" y="-112" width="16" height="16">
3221225481,3221225481,3221225481,3221225481,3221225481,3221225481,3221225481,3221225481,3221225481,3221225481,3221225481,3221225481,3221225481,3221225481,3221225481,3221225481,
3221225481,3221225481,3221225481,3221225481,3221225481,3221225481,3221225481,3221225481,3221225481,3221225481,3221225481,3221225481,3221225481,3221225481,3221225481,3221225481,
3221225476,3221225476,3221225476,3221225476,3221225476,3221225476,3221225476,3221225476,3221225476,3221225476,3221225476,3221225476,3221225476,3221225476,3221225476,3221225476,
0,0,0,0,0,0,0,0,0,0,0,0,0,0,0,0,
0,0,0,0,0,0,0,0,0,0,0,0,0,0,0,0,
0,0,0,0,0,0,0,0,0,0,0,0,0,0,0,0,
0,0,0,0,0,0,0,0,0,0,0,0,0,0,0,0,
0,0,0,0,0,0,0,0,0,0,0,0,0,0,0,0,
0,0,0,0,0,0,0,0,0,0,0,0,0,0,0,0,
0,0,0,0,0,0,0,0,0,0,0,0,0,0,0,0,
0,0,0,0,0,0,0,0,0,0,0,0,0,0,0,0,
0,0,0,0,0,0,0,0,0,0,0,0,0,0,0,0,
0,0,0,0,0,0,0,0,0,0,0,0,0,0,0,0,
0,0,0,0,0,0,0,0,0,0,0,0,0,0,0,0,
0,0,0,0,0,0,0,0,0,0,0,0,0,0,0,0,
0,0,0,0,0,0,0,0,0,0,0,0,0,0,0,0
</chunk>
   <chunk x="32" y="-112" width="16" height="16">
3221225481,3221225481,3221225481,3221225481,3221225481,3221225481,3221225481,3221225481,3221225481,3221225481,3221225481,3221225481,3221225481,3221225481,3221225481,3221225481,
3221225481,3221225481,3221225481,3221225481,3221225481,3221225481,3221225481,3221225481,3221225481,3221225481,3221225481,3221225481,3221225481,3221225481,3221225481,3221225481,
3221225476,3221225476,3221225476,3221225476,3221225476,3221225476,3221225476,3221225476,3221225476,3221225476,3221225476,3221225476,3221225476,3221225476,3221225476,3221225476,
0,0,0,0,0,0,0,0,0,0,0,0,0,0,0,0,
0,0,0,0,0,0,0,0,0,0,0,0,0,0,0,0,
0,0,0,0,0,0,0,0,0,0,0,0,0,0,0,0,
0,0,0,0,0,0,0,0,0,0,0,0,0,0,0,0,
0,0,0,0,0,0,0,0,0,0,0,0,0,0,0,0,
0,0,0,0,0,0,0,0,0,0,0,0,0,0,0,0,
0,0,0,0,0,0,0,0,0,0,0,0,0,0,0,0,
0,0,0,0,0,0,0,0,0,0,0,0,0,0,0,0,
0,0,0,0,0,0,0,0,0,0,0,0,0,0,0,0,
0,0,0,0,0,0,0,0,0,0,0,0,0,0,0,0,
0,0,0,0,0,0,0,0,0,0,0,0,0,0,0,0,
0,0,0,0,0,0,0,0,0,0,0,0,0,0,0,0,
0,0,0,0,0,0,0,0,0,0,0,0,0,0,0,0
</chunk>
   <chunk x="48" y="-112" width="16" height="16">
3221225481,3221225481,3221225481,3221225481,3221225481,3221225481,3221225481,3221225481,3221225481,3221225481,3221225481,3221225481,3221225481,3221225481,3221225481,3221225481,
3221225481,3221225481,3221225481,3221225481,3221225481,3221225481,3221225481,3221225481,3221225481,3221225481,3221225481,3221225481,3221225481,3221225481,3221225481,3221225481,
3221225476,3221225476,3221225476,3221225476,3221225476,3221225476,3221225476,3221225476,3221225476,3221225476,3221225476,3221225476,3221225476,3221225476,3221225476,3221225476,
0,0,0,0,0,0,0,0,0,0,0,0,0,0,0,0,
0,0,0,0,0,0,0,0,0,0,0,0,0,0,0,0,
0,0,0,0,0,0,0,0,0,0,0,0,0,0,0,0,
0,0,0,0,0,0,0,0,0,0,0,0,0,0,0,0,
0,0,0,0,0,0,0,0,0,0,0,0,0,0,0,0,
0,0,0,0,0,0,0,0,0,0,0,0,0,0,0,0,
0,0,0,0,0,0,0,0,0,0,0,0,0,0,0,0,
0,0,0,0,0,0,0,0,0,0,0,0,0,0,0,0,
0,0,0,0,0,0,0,0,0,0,0,0,0,0,0,0,
0,0,0,0,0,0,0,0,0,0,0,0,0,0,0,0,
0,0,0,0,0,0,0,0,0,0,0,0,0,0,0,0,
0,0,0,0,0,0,0,0,0,0,0,0,0,0,0,0,
0,0,0,0,0,0,0,0,0,0,0,0,0,0,0,0
</chunk>
   <chunk x="64" y="-112" width="16" height="16">
3221225481,3221225481,3221225481,3221225481,3221225481,3221225481,3221225481,3221225481,3221225481,3221225481,3221225481,3221225481,3221225481,3221225481,3221225481,3221225481,
3221225481,3221225481,3221225481,3221225481,3221225481,3221225481,3221225481,3221225481,3221225481,3221225481,3221225481,3221225481,3221225481,3221225481,3221225481,3221225481,
3221225476,3221225476,3221225476,3221225476,3221225476,3221225476,3221225476,3221225476,3221225476,3221225476,3221225476,3221225476,3221225476,3221225476,3221225476,3221225476,
0,0,0,0,0,0,0,0,0,0,0,0,0,0,0,0,
0,0,0,0,0,0,0,0,0,0,0,0,0,0,0,0,
0,0,0,0,0,0,0,0,0,0,0,0,0,0,0,0,
0,0,0,0,0,0,0,0,0,0,0,0,0,0,0,0,
0,0,0,0,0,0,0,0,0,0,0,0,0,0,0,0,
0,0,0,0,0,0,0,0,0,0,0,0,0,0,0,0,
0,0,0,0,0,0,0,0,0,0,0,0,0,0,0,0,
0,0,0,0,0,0,0,0,0,0,0,0,0,0,0,0,
0,0,0,0,0,0,0,0,0,0,0,0,0,0,0,0,
0,0,0,0,0,0,0,0,0,0,0,0,0,0,0,0,
0,0,0,0,0,0,0,0,0,0,0,0,0,0,0,0,
0,0,0,0,0,0,0,0,0,0,0,0,0,0,0,0,
0,0,0,0,0,0,0,0,0,0,0,0,0,0,0,0
</chunk>
   <chunk x="80" y="-112" width="16" height="16">
3221225481,3221225481,3221225481,3221225481,3221225481,3221225481,3221225481,3221225481,3221225481,3221225481,3221225481,3221225481,3221225481,3221225481,3221225481,3221225481,
3221225481,3221225481,3221225481,3221225481,3221225481,3221225481,3221225481,3221225481,3221225481,3221225481,3221225481,3221225481,3221225481,3221225481,3221225481,3221225481,
3221225476,3221225476,3221225476,3221225476,3221225476,3221225476,3221225476,3221225476,3221225476,3221225476,3221225476,3221225476,3221225476,3221225476,3221225476,3221225476,
0,0,0,0,0,0,0,0,0,0,0,0,0,0,0,0,
0,0,0,0,0,0,0,0,0,0,0,0,0,0,0,0,
0,0,0,0,0,0,0,0,0,0,0,0,0,0,0,0,
0,0,0,0,0,0,0,0,0,0,0,0,0,0,0,0,
0,0,0,0,0,0,0,0,0,0,0,0,0,0,0,0,
0,0,0,0,0,0,0,0,0,0,0,0,0,0,0,0,
0,0,0,0,0,0,0,0,0,0,0,0,0,0,0,0,
0,0,0,0,0,0,0,0,0,0,0,0,0,0,0,0,
0,0,0,0,0,0,0,0,0,0,0,0,0,0,0,0,
0,0,0,0,0,0,0,0,0,0,0,0,0,0,0,0,
0,0,0,0,0,0,0,0,0,0,0,0,0,0,0,0,
0,0,0,0,0,0,0,0,0,0,0,0,0,0,0,0,
0,0,0,0,0,0,0,0,0,0,0,0,0,0,0,0
</chunk>
   <chunk x="96" y="-112" width="16" height="16">
3221225481,3221225481,3221225481,3221225481,3221225481,3221225481,3221225481,3221225481,3221225481,3221225481,3221225481,3221225481,3221225481,3221225481,3221225481,3221225481,
3221225481,3221225481,3221225481,3221225481,3221225481,3221225481,3221225481,3221225481,3221225481,3221225481,3221225481,3221225481,3221225481,3221225481,3221225481,3221225481,
3221225476,3221225476,3221225476,3221225476,3221225476,3221225476,3221225476,3221225476,3221225476,3221225476,3221225476,3221225476,3221225476,3221225476,3221225476,3221225476,
0,0,0,0,0,0,0,0,0,0,0,0,0,0,0,0,
0,0,0,0,0,0,0,0,0,0,0,0,0,0,0,0,
0,0,0,0,0,0,0,0,0,0,0,0,0,0,0,0,
0,0,0,0,0,0,0,0,0,0,0,0,0,0,0,0,
0,0,0,0,0,0,0,0,0,0,0,0,0,0,0,0,
0,0,0,0,0,0,0,0,0,0,0,0,0,0,0,0,
0,0,0,0,0,0,0,0,0,0,0,0,0,0,0,0,
0,0,0,0,0,0,0,0,0,0,0,0,0,0,0,0,
0,0,0,0,0,0,0,0,0,0,0,0,0,0,0,0,
0,0,0,0,0,0,0,0,0,0,0,0,0,0,0,0,
0,0,0,0,0,0,0,0,0,0,0,0,0,0,0,0,
0,0,0,0,0,0,0,0,0,0,0,0,0,0,0,0,
0,0,0,0,0,0,0,0,0,0,0,0,0,0,0,0
</chunk>
   <chunk x="112" y="-112" width="16" height="16">
3221225481,3221225481,3221225481,3221225481,3221225481,3221225481,3221225481,3221225481,3221225481,3221225481,3221225481,3221225481,3221225481,3221225481,3221225481,3221225481,
3221225481,3221225481,3221225481,3221225481,3221225481,3221225481,3221225481,3221225481,3221225481,3221225481,3221225481,3221225481,3221225481,3221225481,3221225481,3221225481,
3221225476,3221225476,3221225476,3221225476,3221225476,3221225476,3221225476,3221225476,3221225476,3221225476,3221225476,3221225476,3221225476,3221225476,3221225476,3221225476,
0,0,0,0,0,0,0,0,0,0,0,0,0,0,0,0,
0,0,0,0,0,0,0,0,0,0,0,0,0,0,0,0,
0,0,0,0,0,0,0,0,0,0,0,0,0,0,0,0,
0,0,0,0,0,0,0,0,0,0,0,0,0,0,0,0,
0,0,0,0,0,0,0,0,0,0,0,0,0,0,0,0,
0,0,0,0,0,0,0,0,0,0,0,0,0,0,0,0,
0,0,0,0,0,0,0,0,0,0,0,0,0,0,0,0,
0,0,0,0,0,0,0,0,0,0,0,0,0,0,0,0,
0,0,0,0,0,0,0,0,0,0,0,0,0,0,0,0,
0,0,0,0,0,0,0,0,0,0,0,0,0,0,0,0,
0,0,0,0,0,0,0,0,0,0,0,0,0,0,0,0,
0,0,0,0,0,0,0,0,0,0,0,0,0,0,0,0,
0,0,0,0,0,0,0,0,0,0,0,0,0,0,0,0
</chunk>
   <chunk x="128" y="-112" width="16" height="16">
3221225481,3221225481,3221225481,3221225481,3221225481,3221225481,3221225481,3221225481,3221225481,3221225481,3221225481,3221225481,3221225481,3221225481,3221225481,3221225481,
3221225481,3221225481,3221225481,3221225481,3221225481,3221225481,3221225481,3221225481,3221225481,3221225481,3221225481,3221225481,3221225481,3221225481,3221225481,3221225481,
3221225476,3221225476,3221225476,3221225476,3221225476,3221225476,3221225476,3221225476,3221225476,3221225476,3221225476,3221225476,3221225476,3221225476,3221225476,3221225476,
0,0,0,0,0,0,0,0,0,0,0,0,0,0,0,0,
0,0,0,0,0,0,0,0,0,0,0,0,0,0,0,0,
0,0,0,0,0,0,0,0,0,0,0,0,0,0,0,0,
0,0,0,0,0,0,0,0,0,0,0,0,0,0,0,0,
0,0,0,0,0,0,0,0,0,0,0,0,0,0,0,0,
0,0,0,0,0,0,0,0,0,0,0,0,0,0,0,0,
0,0,0,0,0,0,0,0,0,0,0,0,0,0,0,0,
0,0,0,0,0,0,0,0,0,0,0,0,0,0,0,0,
0,0,0,0,0,0,0,0,0,0,0,0,0,0,0,0,
0,0,0,0,0,0,0,0,0,0,0,0,0,0,0,0,
0,0,0,0,0,0,0,0,0,0,0,0,0,0,0,0,
0,0,0,0,0,0,0,0,0,0,0,0,0,0,0,0,
0,0,0,0,0,0,0,0,0,0,0,0,0,0,0,0
</chunk>
   <chunk x="144" y="-112" width="16" height="16">
3221225481,3221225481,3221225481,3221225481,3221225481,3221225481,3221225481,3221225481,3221225481,3221225481,3221225481,3221225481,3221225481,3221225481,3221225481,3221225481,
3221225481,3221225481,3221225481,3221225481,3221225481,3221225481,3221225481,3221225481,3221225481,3221225481,3221225481,3221225481,3221225481,3221225481,3221225481,3221225481,
3221225476,3221225476,3221225476,3221225476,3221225476,3221225476,3221225476,3221225476,3221225476,3221225476,3221225476,3221225476,3221225476,3221225478,3221225481,3221225481,
0,0,0,0,0,0,0,0,0,0,0,0,0,3221225482,3221225481,3221225481,
0,0,0,0,0,0,0,0,0,0,0,0,0,3221225482,3221225481,3221225481,
0,0,0,0,0,0,0,0,0,0,0,0,0,3221225482,3221225481,3221225481,
0,0,0,0,0,0,0,0,0,0,0,0,0,3221225482,3221225481,3221225481,
0,0,0,0,0,0,0,0,0,0,0,0,0,3221225482,3221225481,3221225481,
0,0,0,0,0,0,0,0,0,0,0,0,0,3221225482,3221225481,3221225481,
0,0,0,0,0,0,0,0,0,0,0,0,0,3221225482,3221225481,3221225481,
0,0,0,0,0,0,0,0,0,0,0,0,0,3221225482,3221225481,3221225481,
0,0,0,0,0,0,0,0,0,0,0,0,0,3221225482,3221225481,3221225481,
0,0,0,0,0,0,0,0,0,0,0,0,0,3221225482,3221225481,3221225481,
0,0,0,0,0,0,0,0,0,0,0,0,0,3221225482,3221225481,3221225481,
0,0,0,0,0,0,0,0,0,0,0,0,0,3221225482,3221225481,3221225481,
0,0,0,0,0,0,0,0,0,0,0,0,0,3221225482,3221225481,3221225481
</chunk>
   <chunk x="160" y="-112" width="16" height="16">
3221225481,0,0,0,0,0,0,0,0,0,0,0,0,0,0,0,
3221225481,0,0,0,0,0,0,0,0,0,0,0,0,0,0,0,
3221225481,0,0,0,0,0,0,0,0,0,0,0,0,0,0,0,
3221225481,0,0,0,0,0,0,0,0,0,0,0,0,0,0,0,
3221225481,0,0,0,0,0,0,0,0,0,0,0,0,0,0,0,
3221225481,0,0,0,0,0,0,0,0,0,0,0,0,0,0,0,
3221225481,0,0,0,0,0,0,0,0,0,0,0,0,0,0,0,
3221225481,0,0,0,0,0,0,0,0,0,0,0,0,0,0,0,
3221225481,0,0,0,0,0,0,0,0,0,0,0,0,0,0,0,
3221225481,0,0,0,0,0,0,0,0,0,0,0,0,0,0,0,
3221225481,0,0,0,0,0,0,0,0,0,0,0,0,0,0,0,
3221225481,0,0,0,0,0,0,0,0,0,0,0,0,0,0,0,
3221225481,0,0,0,0,0,0,0,0,0,0,0,0,0,0,0,
3221225481,0,0,0,0,0,0,0,0,0,0,0,0,0,0,0,
3221225481,0,0,0,0,0,0,0,0,0,0,0,0,0,0,0,
3221225481,0,0,0,0,0,0,0,0,0,0,0,0,0,0,0
</chunk>
   <chunk x="0" y="-96" width="16" height="16">
0,3221225481,3221225481,3221225481,3221225480,0,0,0,0,0,0,0,0,0,0,0,
0,3221225481,3221225481,3221225481,3221225480,0,0,0,0,0,0,0,0,0,0,0,
0,3221225481,3221225481,3221225481,3221225480,0,0,0,0,0,0,0,0,0,0,0,
0,3221225481,3221225481,3221225481,3221225480,0,0,0,0,0,0,0,0,0,0,0,
0,3221225481,3221225481,3221225481,3221225480,0,0,0,0,0,0,0,0,0,0,0,
0,3221225481,3221225481,3221225481,3221225480,0,0,0,0,0,0,0,0,0,0,0,
0,3221225481,3221225481,3221225481,3221225480,0,0,0,0,0,0,0,0,0,0,0,
0,3221225481,3221225481,3221225481,3221225480,0,0,0,0,0,0,0,0,0,0,0,
0,3221225481,3221225481,3221225481,3221225480,0,0,0,0,0,0,0,0,0,0,0,
0,3221225481,3221225481,3221225481,3221225480,0,0,0,0,0,0,0,0,0,0,0,
0,3221225481,3221225481,3221225481,3221225480,0,0,0,0,0,0,0,0,0,0,0,
0,3221225481,3221225481,3221225481,3221225480,0,0,0,0,0,0,0,0,0,0,0,
0,3221225481,3221225481,3221225481,3221225480,0,0,0,0,0,0,0,0,0,0,0,
0,3221225481,3221225481,3221225481,3221225480,0,0,0,0,0,0,0,0,0,0,0,
0,3221225481,3221225481,3221225481,3221225480,0,0,0,0,0,0,0,0,0,0,0,
0,3221225481,3221225481,3221225481,3221225480,0,0,0,0,0,0,0,0,0,0,0
</chunk>
   <chunk x="144" y="-96" width="16" height="16">
0,0,0,0,0,0,0,0,0,0,0,0,0,3221225482,3221225481,3221225481,
0,0,0,0,0,0,0,0,0,0,0,0,0,3221225482,3221225481,3221225481,
0,0,0,0,0,0,0,0,0,0,0,0,0,3221225482,3221225481,3221225481,
0,0,0,0,0,0,0,0,0,0,0,0,0,3221225482,3221225481,3221225481,
0,0,0,0,0,0,0,0,0,0,0,0,0,3221225482,3221225481,3221225481,
0,0,0,0,0,0,0,0,0,0,0,0,0,3221225482,3221225481,3221225481,
0,0,0,0,0,0,0,0,0,0,0,0,0,3221225482,3221225481,3221225481,
0,0,0,0,0,0,0,0,0,0,0,0,0,3221225482,3221225481,3221225481,
0,0,0,0,0,0,0,0,0,0,0,0,0,3221225482,3221225481,3221225481,
0,0,0,0,0,0,0,0,0,0,0,0,0,3221225482,3221225481,3221225481,
0,0,0,0,0,0,0,0,0,0,0,0,0,3221225482,3221225481,3221225481,
0,0,0,0,0,0,0,0,0,0,0,0,0,3221225482,3221225481,3221225481,
0,0,0,0,0,0,0,0,0,0,0,0,0,3221225482,3221225481,3221225481,
0,0,0,0,0,0,0,0,0,0,0,0,0,3221225482,3221225481,3221225481,
0,0,0,0,0,0,0,0,0,0,0,0,0,3221225482,3221225481,3221225481,
0,0,0,0,0,0,0,0,0,0,0,0,0,3221225482,3221225481,3221225481
</chunk>
   <chunk x="160" y="-96" width="16" height="16">
3221225481,0,0,0,0,0,0,0,0,0,0,0,0,0,0,0,
3221225481,0,0,0,0,0,0,0,0,0,0,0,0,0,0,0,
3221225481,0,0,0,0,0,0,0,0,0,0,0,0,0,0,0,
3221225481,0,0,0,0,0,0,0,0,0,0,0,0,0,0,0,
3221225481,0,0,0,0,0,0,0,0,0,0,0,0,0,0,0,
3221225481,0,0,0,0,0,0,0,0,0,0,0,0,0,0,0,
3221225481,0,0,0,0,0,0,0,0,0,0,0,0,0,0,0,
3221225481,0,0,0,0,0,0,0,0,0,0,0,0,0,0,0,
3221225481,0,0,0,0,0,0,0,0,0,0,0,0,0,0,0,
3221225481,0,0,0,0,0,0,0,0,0,0,0,0,0,0,0,
3221225481,0,0,0,0,0,0,0,0,0,0,0,0,0,0,0,
3221225481,0,0,0,0,0,0,0,0,0,0,0,0,0,0,0,
3221225481,0,0,0,0,0,0,0,0,0,0,0,0,0,0,0,
3221225481,0,0,0,0,0,0,0,0,0,0,0,0,0,0,0,
3221225481,0,0,0,0,0,0,0,0,0,0,0,0,0,0,0,
3221225481,0,0,0,0,0,0,0,0,0,0,0,0,0,0,0
</chunk>
   <chunk x="0" y="-80" width="16" height="16">
0,3221225481,3221225481,3221225481,3221225480,0,0,0,0,0,0,0,0,0,0,0,
0,3221225481,3221225481,3221225481,3221225480,0,0,0,0,0,0,0,0,0,0,0,
0,3221225481,3221225481,3221225481,3221225480,0,0,0,0,0,0,0,0,0,0,0,
0,3221225481,3221225481,3221225481,3221225480,0,0,0,0,0,0,0,0,0,0,0,
0,3221225481,3221225481,3221225481,3221225480,0,0,0,0,0,0,0,0,0,0,0,
0,3221225481,3221225481,3221225481,3221225480,0,0,0,0,0,0,0,0,0,0,0,
0,3221225481,3221225481,3221225481,3221225480,0,0,0,0,0,0,0,0,0,0,0,
0,3221225481,3221225481,3221225481,3221225480,0,0,0,0,0,0,0,0,0,0,0,
0,3221225481,3221225481,3221225481,3221225480,0,0,0,0,0,0,0,0,0,0,0,
0,3221225481,3221225481,3221225481,3221225480,0,0,0,0,0,0,0,0,0,0,0,
0,3221225481,3221225481,3221225481,3221225480,0,0,0,0,0,0,0,0,0,0,0,
0,3221225481,3221225481,3221225481,3221225480,0,0,0,0,0,0,0,0,0,0,0,
0,3221225481,3221225481,3221225481,3221225480,0,0,0,0,0,0,0,0,0,0,0,
0,3221225481,3221225481,3221225481,3221225480,0,0,0,0,0,0,0,0,0,0,0,
0,3221225481,3221225481,3221225481,3221225480,0,0,0,0,0,0,0,0,0,0,0,
0,3221225481,3221225481,3221225481,3221225480,0,0,0,0,0,0,0,0,0,0,0
</chunk>
   <chunk x="32" y="-80" width="16" height="16">
0,0,0,0,0,0,0,0,0,0,0,0,0,0,0,0,
0,0,0,0,0,0,0,0,0,0,0,0,0,0,0,0,
0,0,0,0,0,0,0,0,0,0,0,0,0,0,0,0,
0,0,0,0,0,3221225487,3221225486,3221225486,3221225486,3221225486,3221225486,3221225486,3221225486,3221225486,3221225486,3221225486,
0,0,0,0,0,3221225482,3221225481,3221225481,3221225481,3221225481,3221225481,3221225481,3221225481,3221225481,3221225481,3221225481,
0,0,0,0,0,3221225482,3221225481,3221225481,3221225481,3221225481,3221225481,3221225481,3221225481,3221225481,3221225481,3221225481,
0,0,0,0,0,3221225482,3221225481,3221225481,3221225481,3221225481,3221225481,3221225481,3221225481,3221225481,3221225481,3221225481,
0,0,0,0,0,3221225482,3221225481,3221225481,3221225481,0,0,0,0,0,0,0,
0,0,0,0,0,3221225482,3221225481,3221225481,3221225481,0,0,0,0,0,0,0,
0,0,0,0,0,3221225482,3221225481,3221225481,3221225481,0,0,0,0,0,0,0,
0,0,0,0,0,3221225482,3221225481,3221225481,3221225481,0,0,0,0,0,0,0,
0,0,0,0,0,3221225482,3221225481,3221225481,3221225481,0,0,0,0,0,0,0,
0,0,0,0,0,3221225482,3221225481,3221225481,3221225481,0,0,0,0,0,0,0,
0,0,0,0,0,3221225482,3221225481,3221225481,3221225481,0,0,0,0,0,0,0,
0,0,0,0,0,3221225482,3221225481,3221225481,3221225481,0,0,0,0,0,0,0,
0,0,0,0,0,3221225482,3221225481,3221225481,3221225481,0,0,0,0,0,0,0
</chunk>
   <chunk x="48" y="-80" width="16" height="16">
0,0,0,0,0,0,0,0,0,0,0,0,0,0,0,0,
0,0,0,0,0,0,0,0,0,0,0,0,0,0,0,0,
0,0,0,0,0,0,0,0,0,0,0,0,0,0,0,0,
3221225486,3221225486,3221225486,3221225486,3221225486,3221225486,3221225486,3221225486,3221225486,3221225486,3221225486,3221225486,3221225486,3221225486,3221225486,3221225486,
3221225481,3221225481,3221225481,3221225481,3221225481,3221225481,3221225481,3221225481,3221225481,3221225481,3221225481,3221225481,3221225481,3221225481,3221225481,3221225481,
3221225481,3221225481,3221225481,3221225481,3221225481,3221225481,3221225481,3221225481,3221225481,3221225481,3221225481,3221225481,3221225481,3221225481,3221225481,3221225481,
3221225481,3221225481,3221225481,3221225481,3221225481,3221225481,3221225481,3221225481,3221225481,3221225481,3221225481,3221225481,3221225481,3221225481,3221225481,3221225481,
0,0,0,0,0,0,0,0,0,0,0,0,0,0,0,0,
0,0,0,0,0,0,0,0,0,0,0,0,0,0,0,0,
0,0,0,0,0,0,0,0,0,0,0,0,0,0,0,0,
0,0,0,0,0,0,0,0,0,0,0,0,0,0,0,0,
0,0,0,0,0,0,0,0,0,0,0,0,0,0,0,0,
0,0,0,0,0,0,0,0,0,0,0,0,0,0,0,0,
0,0,0,0,0,0,0,0,0,0,0,0,0,0,0,0,
0,0,0,0,0,0,0,0,0,0,0,0,0,0,0,0,
0,0,0,0,0,0,0,0,0,0,0,0,0,0,0,0
</chunk>
   <chunk x="64" y="-80" width="16" height="16">
0,0,0,0,0,0,0,0,0,0,0,0,0,0,0,0,
0,0,0,0,0,0,0,0,0,0,0,0,0,0,0,0,
0,0,0,0,0,0,0,0,0,0,0,0,0,0,0,0,
3221225486,3221225486,3221225486,3221225486,3221225486,3221225486,3221225486,3221225486,3221225486,3221225486,3221225486,3221225486,3221225486,3221225486,3221225486,3221225486,
3221225481,3221225481,3221225481,3221225481,3221225481,3221225481,3221225481,3221225481,3221225481,3221225481,3221225481,3221225481,3221225481,3221225481,3221225481,3221225481,
3221225481,3221225481,3221225481,3221225481,3221225481,3221225481,3221225481,3221225481,3221225481,3221225481,3221225481,3221225481,3221225481,3221225481,3221225481,3221225481,
3221225481,3221225481,3221225481,3221225481,3221225481,3221225481,3221225481,3221225481,3221225481,3221225481,3221225481,3221225481,3221225481,3221225481,3221225481,3221225481,
0,0,0,0,0,0,0,0,0,0,0,0,0,0,0,0,
0,0,0,0,0,0,0,0,0,0,0,0,0,0,0,0,
0,0,0,0,0,0,0,0,0,0,0,0,0,0,0,0,
0,0,0,0,0,0,0,0,0,0,0,0,0,0,0,0,
0,0,0,0,0,0,0,0,0,0,0,0,0,0,0,0,
0,0,0,0,0,0,0,0,0,0,0,0,0,0,0,0,
0,0,0,0,0,0,0,0,0,0,0,0,0,0,0,0,
0,0,0,0,0,0,0,0,0,0,0,0,0,0,0,0,
0,0,0,0,0,0,0,0,0,0,0,0,0,0,0,0
</chunk>
   <chunk x="80" y="-80" width="16" height="16">
0,0,0,0,0,0,0,0,0,0,0,0,0,0,0,0,
0,0,0,0,0,0,0,0,0,0,0,0,0,0,0,0,
0,0,0,0,0,0,0,0,0,0,0,0,0,0,0,0,
3221225486,3221225486,3221225486,3221225486,3221225486,3221225486,3221225486,3221225486,3221225486,3221225486,3221225486,3221225486,3221225486,3221225486,3221225486,3221225486,
3221225481,3221225481,3221225481,3221225481,3221225481,3221225481,3221225481,3221225481,3221225481,3221225481,3221225481,3221225481,3221225481,3221225481,3221225481,3221225481,
3221225481,3221225481,3221225481,3221225481,3221225481,3221225481,3221225481,3221225481,3221225481,3221225481,3221225481,3221225481,3221225481,3221225481,3221225481,3221225481,
3221225481,3221225481,3221225481,3221225481,3221225481,3221225481,3221225481,3221225481,3221225481,3221225481,3221225481,3221225481,3221225481,3221225481,3221225481,3221225481,
0,0,0,0,0,0,0,0,0,0,0,0,0,0,0,0,
0,0,0,0,0,0,0,0,0,0,0,0,0,0,0,0,
0,0,0,0,0,0,0,0,0,0,0,0,0,0,0,0,
0,0,0,0,0,0,0,0,0,0,0,0,0,0,0,0,
0,0,0,0,0,0,0,0,0,0,0,0,0,0,0,0,
0,0,0,0,0,0,0,0,0,0,0,0,0,0,0,0,
0,0,0,0,0,0,0,0,0,0,0,0,0,0,0,0,
0,0,0,0,0,0,0,0,0,0,0,0,0,0,0,0,
0,0,0,0,0,0,0,0,0,0,0,0,0,0,0,0
</chunk>
   <chunk x="96" y="-80" width="16" height="16">
0,0,0,0,0,0,0,0,0,0,0,0,0,0,0,0,
0,0,0,0,0,0,0,0,0,0,0,0,0,0,0,0,
0,0,0,0,0,0,0,0,0,0,0,0,0,0,0,0,
3221225486,3221225486,3221225486,3221225486,3221225486,3221225486,3221225486,3221225486,3221225486,3221225486,3221225486,3221225486,3221225486,3221225486,3221225486,3221225486,
3221225481,3221225481,3221225481,3221225481,3221225481,3221225481,3221225481,3221225481,3221225481,3221225481,3221225481,3221225481,3221225481,3221225481,3221225481,3221225481,
3221225481,3221225481,3221225481,3221225481,3221225481,3221225481,3221225481,3221225481,3221225481,3221225481,3221225481,3221225481,3221225481,3221225481,3221225481,3221225481,
3221225481,3221225481,3221225481,3221225481,3221225481,3221225481,3221225481,3221225481,3221225481,3221225481,3221225481,3221225481,3221225481,3221225481,3221225481,3221225481,
0,0,0,0,0,0,0,0,0,0,0,0,0,0,0,0,
0,0,0,0,0,0,0,0,0,0,0,0,0,0,0,0,
0,0,0,0,0,0,0,0,0,0,0,0,0,0,0,0,
0,0,0,0,0,0,0,0,0,0,0,0,0,0,0,0,
0,0,0,0,0,0,0,0,0,0,0,0,0,0,0,0,
0,0,0,0,0,0,0,0,0,0,0,0,0,0,0,0,
0,0,0,0,0,0,0,0,0,0,0,0,0,0,0,0,
0,0,0,0,0,0,0,0,0,0,0,0,0,0,0,0,
0,0,0,0,0,0,0,0,0,0,0,0,0,0,0,0
</chunk>
   <chunk x="112" y="-80" width="16" height="16">
0,0,0,0,0,0,0,0,0,0,0,0,0,0,0,0,
0,0,0,0,0,0,0,0,0,0,0,0,0,0,0,0,
0,0,0,0,0,0,0,0,0,0,0,0,0,0,0,0,
3221225486,3221225486,3221225486,3221225486,3221225486,3221225486,3221225486,3221225486,3221225486,3221225486,3221225486,3221225486,3221225486,3221225486,3221225486,3221225486,
3221225481,3221225481,3221225481,3221225481,3221225481,3221225481,3221225481,3221225481,3221225481,3221225481,3221225481,3221225481,3221225481,3221225481,3221225481,3221225481,
3221225481,3221225481,3221225481,3221225481,3221225481,3221225481,3221225481,3221225481,3221225481,3221225481,3221225481,3221225481,3221225481,3221225481,3221225481,3221225481,
3221225481,3221225481,3221225481,3221225481,3221225481,3221225481,3221225481,3221225481,3221225481,3221225481,3221225481,3221225481,3221225481,3221225481,3221225481,3221225481,
0,0,0,0,0,0,0,0,0,0,0,0,0,0,0,0,
0,0,0,0,0,0,0,0,0,0,0,0,0,0,0,0,
0,0,0,0,0,0,0,0,0,0,0,0,0,0,0,0,
0,0,0,0,0,0,0,0,0,0,0,0,0,0,0,0,
0,0,0,0,0,0,0,0,0,0,0,0,0,0,0,0,
0,0,0,0,0,0,0,0,0,0,0,0,0,0,0,0,
0,0,0,0,0,0,0,0,0,0,0,0,0,0,0,0,
0,0,0,0,0,0,0,0,0,0,0,0,0,0,0,0,
0,0,0,0,0,0,0,0,0,0,0,0,0,0,0,0
</chunk>
   <chunk x="128" y="-80" width="16" height="16">
0,0,0,0,0,0,0,0,0,0,0,0,0,0,0,0,
0,0,0,0,0,0,0,0,0,0,0,0,0,0,0,0,
0,0,0,0,0,0,0,0,0,0,0,0,0,0,0,0,
3221225486,3221225486,3221225486,3221225486,3221225486,3221225486,3221225486,3221225486,3221225486,3221225486,3221225486,3221225486,3221225486,3221225486,3221225486,3221225486,
3221225481,3221225481,3221225481,3221225481,3221225481,3221225481,3221225481,3221225481,3221225481,3221225481,3221225481,3221225481,3221225481,3221225481,3221225481,3221225481,
3221225481,3221225481,3221225481,3221225481,3221225481,3221225481,3221225481,3221225481,3221225481,3221225481,3221225481,3221225481,3221225481,3221225481,3221225481,3221225481,
3221225481,3221225481,3221225481,3221225481,3221225481,3221225481,3221225481,3221225481,3221225481,3221225481,3221225481,3221225481,3221225481,3221225481,3221225481,3221225481,
0,0,0,0,0,0,0,0,0,0,0,0,0,0,0,0,
0,0,0,0,0,0,0,0,0,0,0,0,0,0,0,0,
0,0,0,0,0,0,0,0,0,0,0,0,0,0,0,0,
0,0,0,0,0,0,0,0,0,0,0,0,0,0,0,0,
0,0,0,0,0,0,0,0,0,0,0,0,0,0,0,0,
0,0,0,0,0,0,0,0,0,0,0,0,0,0,0,0,
0,0,0,0,0,0,0,0,0,0,0,0,0,0,0,0,
0,0,0,0,0,0,0,0,0,0,0,0,0,0,0,0,
0,0,0,0,0,0,0,0,0,0,0,0,0,0,0,0
</chunk>
   <chunk x="144" y="-80" width="16" height="16">
0,0,0,0,0,0,0,0,0,0,0,0,0,3221225482,3221225481,3221225481,
0,0,0,0,0,0,0,0,0,0,0,0,0,3221225482,3221225481,3221225481,
0,0,0,0,0,0,0,0,0,0,0,0,0,3221225482,3221225481,3221225481,
3221225486,3221225486,3221225486,3221225486,3221225486,3221225486,3221225486,3221225486,3221225486,3221225486,3221225486,3221225486,3221225486,3221225473,3221225481,3221225481,
3221225481,3221225481,3221225481,3221225481,3221225481,3221225481,3221225481,3221225481,3221225481,3221225481,3221225481,3221225481,3221225481,3221225481,3221225481,3221225481,
3221225481,3221225481,3221225481,3221225481,3221225481,3221225481,3221225481,3221225481,3221225481,3221225481,3221225481,3221225481,3221225481,3221225481,3221225481,3221225481,
3221225481,3221225481,3221225481,3221225481,3221225481,3221225481,3221225481,3221225481,3221225481,3221225481,3221225481,3221225481,3221225481,3221225481,3221225481,3221225481,
0,0,0,0,0,0,0,0,0,0,0,0,0,0,0,0,
0,0,0,0,0,0,0,0,0,0,0,0,0,0,0,0,
0,0,0,0,0,0,0,0,0,0,0,0,0,0,0,0,
0,0,0,0,0,0,0,0,0,0,0,0,0,0,0,0,
0,0,0,0,0,0,0,0,0,0,0,0,0,0,0,0,
0,0,0,0,0,0,0,0,0,0,0,0,0,0,0,0,
0,0,0,0,0,0,0,0,0,0,0,0,0,0,0,0,
0,0,0,0,0,0,0,0,0,0,0,0,0,0,0,0,
0,0,0,0,0,0,0,0,0,0,0,0,0,0,0,0
</chunk>
   <chunk x="160" y="-80" width="16" height="16">
3221225481,0,0,0,0,0,0,0,0,0,0,0,0,0,0,0,
3221225481,0,0,0,0,0,0,0,0,0,0,0,0,0,0,0,
3221225481,0,0,0,0,0,0,0,0,0,0,0,0,0,0,0,
3221225481,0,0,0,0,0,0,0,0,0,0,0,0,0,0,0,
3221225481,0,0,0,0,0,0,0,0,0,0,0,0,0,0,0,
3221225481,0,0,0,0,0,0,0,0,0,0,0,0,0,0,0,
3221225481,0,0,0,0,0,0,0,0,0,0,0,0,0,0,0,
0,0,0,0,0,0,0,0,0,0,0,0,0,0,0,0,
0,0,0,0,0,0,0,0,0,0,0,0,0,0,0,0,
0,0,0,0,0,0,0,0,0,0,0,0,0,0,0,0,
0,0,0,0,0,0,0,0,0,0,0,0,0,0,0,0,
0,0,0,0,0,0,0,0,0,0,0,0,0,0,0,0,
0,0,0,0,0,0,0,0,0,0,0,0,0,0,0,0,
0,0,0,0,0,0,0,0,0,0,0,0,0,0,0,0,
0,0,0,0,0,0,0,0,0,0,0,0,0,0,0,0,
0,0,0,0,0,0,0,0,0,0,0,0,0,0,0,0
</chunk>
   <chunk x="0" y="-64" width="16" height="16">
0,3221225481,3221225481,3221225481,3221225480,0,0,0,0,0,0,0,0,0,0,0,
0,3221225481,3221225481,3221225481,3221225480,0,0,0,0,0,0,0,0,0,0,0,
0,3221225481,3221225481,3221225481,3221225480,0,0,0,0,0,0,0,0,0,0,0,
0,3221225481,3221225481,3221225481,3221225480,0,0,0,0,0,0,0,0,0,0,0,
0,3221225481,3221225481,3221225481,3221225480,0,0,0,0,0,0,0,0,0,0,0,
0,3221225481,3221225481,3221225481,3221225480,0,0,0,0,0,0,0,0,0,0,0,
0,3221225481,3221225481,3221225481,3221225480,0,0,0,0,0,0,0,0,0,0,0,
0,3221225481,3221225481,3221225481,3221225480,0,0,0,0,0,0,0,0,0,0,0,
0,3221225481,3221225481,3221225481,3221225480,0,0,0,0,0,0,0,0,0,0,0,
0,3221225481,3221225481,3221225481,3221225480,0,0,0,0,0,0,0,0,0,0,0,
0,3221225481,3221225481,3221225481,3221225480,0,0,0,0,0,0,0,0,0,0,0,
0,3221225481,3221225481,3221225481,3221225480,0,0,0,0,0,0,0,0,0,0,0,
0,3221225481,3221225481,3221225481,3221225480,0,0,0,0,0,0,0,0,0,0,0,
0,3221225481,3221225481,3221225481,3221225480,0,0,0,0,0,0,0,0,0,0,0,
0,3221225481,3221225481,3221225481,3221225480,0,0,0,0,0,0,0,0,0,0,0,
0,3221225481,3221225481,3221225481,3221225480,0,0,0,0,0,0,0,0,0,0,0
</chunk>
   <chunk x="32" y="-64" width="16" height="16">
0,0,0,0,0,3221225482,3221225481,3221225481,3221225481,0,0,0,0,0,0,0,
0,0,0,0,0,3221225482,3221225481,3221225481,3221225481,0,0,0,0,0,0,0,
0,0,0,0,0,3221225482,3221225481,3221225481,3221225481,0,0,0,0,0,0,0,
0,0,0,0,0,3221225482,3221225481,3221225481,3221225481,0,0,0,0,0,0,0,
0,0,0,0,0,3221225482,3221225481,3221225481,3221225481,0,0,0,0,0,0,0,
0,0,0,0,0,3221225482,3221225481,3221225481,3221225481,0,0,0,0,0,0,0,
0,0,0,0,0,3221225482,3221225481,3221225481,3221225481,0,0,0,0,0,0,0,
0,0,0,0,0,3221225482,3221225481,3221225481,3221225481,0,0,0,0,0,0,0,
0,0,0,0,0,3221225482,3221225481,3221225481,3221225481,0,0,0,0,0,0,0,
0,0,0,0,0,3221225482,3221225481,3221225481,3221225481,0,0,0,0,0,0,0,
0,0,0,0,0,3221225482,3221225481,3221225481,3221225481,0,0,0,0,0,0,0,
0,0,0,0,0,3221225482,3221225481,3221225481,3221225481,0,0,0,0,0,0,0,
0,0,0,0,0,3221225482,3221225481,3221225481,3221225481,0,0,0,0,0,0,0,
0,0,0,0,0,3221225482,3221225481,3221225481,3221225481,0,0,0,0,0,0,0,
0,0,0,0,0,3221225482,3221225481,3221225481,3221225481,0,0,0,0,0,0,0,
0,0,0,0,0,3221225482,3221225481,3221225481,3221225481,0,0,0,0,0,0,0
</chunk>
   <chunk x="0" y="-48" width="16" height="16">
0,3221225481,3221225481,3221225481,3221225480,0,0,0,0,0,0,0,0,0,0,0,
0,3221225481,3221225481,3221225481,3221225480,0,0,0,0,0,0,0,0,0,0,0,
0,3221225481,3221225481,3221225481,3221225480,0,0,0,0,0,0,0,0,0,0,0,
0,3221225481,3221225481,3221225481,3221225480,0,0,0,0,0,0,0,0,0,0,0,
0,3221225481,3221225481,3221225481,3221225480,0,0,0,0,0,0,0,0,0,0,0,
0,3221225481,3221225481,3221225481,3221225480,0,0,0,0,0,0,0,0,0,0,0,
0,3221225481,3221225481,3221225481,3221225480,0,0,0,0,0,0,0,0,0,0,0,
0,3221225481,3221225481,3221225481,3221225480,0,0,0,0,0,0,0,0,0,0,0,
0,3221225481,3221225481,3221225481,3221225480,0,0,0,0,0,0,0,0,0,0,0,
0,3221225481,3221225481,3221225481,3221225480,0,0,0,0,0,0,0,0,0,0,0,
0,3221225481,3221225481,3221225481,3221225480,0,0,0,0,0,0,0,0,0,0,0,
0,3221225481,3221225481,3221225481,3221225480,0,0,0,0,0,0,0,0,0,0,0,
0,3221225481,3221225481,3221225481,3221225480,0,0,0,0,0,0,0,0,0,0,0,
0,3221225481,3221225481,3221225481,3221225480,0,0,0,0,0,0,0,0,0,0,0,
0,3221225481,3221225481,3221225481,3221225480,0,0,0,0,0,0,0,0,0,0,0,
0,3221225481,3221225481,3221225481,3221225480,0,0,0,0,0,0,0,0,0,0,0
</chunk>
   <chunk x="32" y="-48" width="16" height="16">
0,0,0,0,0,3221225482,3221225481,3221225481,3221225481,0,0,0,0,0,0,0,
0,0,0,0,0,3221225482,3221225481,3221225481,3221225481,0,0,0,0,0,0,0,
0,0,0,0,0,3221225482,3221225481,3221225481,3221225481,0,0,0,0,0,0,0,
0,0,0,0,0,3221225482,3221225481,3221225481,3221225481,0,0,0,0,0,0,0,
0,0,0,0,0,3221225482,3221225481,3221225481,3221225481,0,0,0,0,0,0,0,
0,0,0,0,0,3221225482,3221225481,3221225481,3221225481,0,0,0,0,0,0,0,
0,0,0,0,0,3221225482,3221225481,3221225481,3221225481,0,0,0,0,0,0,0,
0,0,0,0,0,3221225482,3221225481,3221225481,3221225481,0,0,0,0,0,0,0,
0,0,0,0,0,3221225482,3221225481,3221225481,3221225481,0,0,0,0,0,0,0,
0,0,0,0,0,3221225482,3221225481,3221225481,3221225481,0,0,0,0,0,0,0,
0,0,0,0,0,3221225482,3221225481,3221225481,3221225481,0,0,0,0,0,0,0,
0,0,0,0,0,3221225482,3221225481,3221225481,3221225481,0,0,0,0,0,0,0,
0,0,0,0,0,3221225482,3221225481,3221225481,3221225481,0,0,0,0,0,0,0,
0,0,0,0,0,3221225482,3221225481,3221225481,3221225481,0,0,0,0,0,0,0,
0,0,0,0,0,3221225482,3221225481,3221225481,3221225481,0,0,0,0,0,0,0,
0,0,0,0,0,3221225482,3221225481,3221225481,3221225481,0,0,0,0,0,0,0
</chunk>
   <chunk x="0" y="-32" width="16" height="16">
0,3221225481,3221225481,3221225481,3221225480,0,0,0,0,0,0,0,0,0,0,0,
0,3221225481,3221225481,3221225481,3221225480,0,0,0,0,0,0,0,0,0,0,0,
0,3221225481,3221225481,3221225481,3221225480,0,0,0,0,0,0,0,0,0,0,0,
0,3221225481,3221225481,3221225481,3221225480,0,0,0,0,0,0,0,0,0,0,0,
0,3221225481,3221225481,3221225481,3221225480,0,0,0,0,0,0,0,0,0,0,0,
0,3221225481,3221225481,3221225481,3221225480,0,0,0,0,0,0,0,0,0,0,0,
0,3221225481,3221225481,3221225481,3221225480,0,0,0,0,0,0,0,0,0,0,0,
0,3221225481,3221225481,3221225481,3221225480,0,0,0,0,0,0,0,0,0,0,0,
0,3221225481,3221225481,3221225481,3221225480,0,0,0,0,0,0,0,0,0,0,0,
0,3221225481,3221225481,3221225481,3221225480,0,0,0,0,0,0,0,0,0,0,0,
0,3221225481,3221225481,3221225481,3221225480,0,0,0,0,0,0,0,0,0,0,0,
0,3221225481,3221225481,3221225481,3221225480,0,0,0,0,0,0,0,0,0,0,0,
0,3221225481,3221225481,3221225481,3221225480,0,0,0,0,0,0,0,0,0,0,0,
0,3221225481,3221225481,3221225481,3221225480,0,0,0,0,0,0,0,0,0,0,0,
0,3221225481,3221225481,3221225481,3221225480,0,0,0,0,0,0,0,0,0,0,0,
0,3221225481,3221225481,3221225481,3221225480,0,0,0,0,0,0,0,0,0,0,0
</chunk>
   <chunk x="32" y="-32" width="16" height="16">
0,0,0,0,0,3221225482,3221225481,3221225481,3221225481,0,0,0,0,0,0,0,
0,0,0,0,0,3221225482,3221225481,3221225481,3221225481,0,0,0,0,0,0,0,
0,0,0,0,0,3221225482,3221225481,3221225481,3221225481,0,0,0,0,0,0,0,
0,0,0,0,0,3221225482,3221225481,3221225481,3221225481,0,0,0,0,0,0,0,
0,0,0,0,0,3221225482,3221225481,3221225481,3221225481,0,0,0,0,0,0,0,
0,0,0,0,0,3221225482,3221225481,3221225481,3221225481,0,0,0,0,0,0,0,
0,0,0,0,0,3221225482,3221225481,3221225481,3221225481,0,0,0,0,0,0,0,
0,0,0,0,0,3221225482,3221225481,3221225481,3221225481,0,0,0,0,0,0,0,
0,0,0,0,0,3221225482,3221225481,3221225481,3221225481,0,0,0,0,0,0,0,
0,0,0,0,0,3221225482,3221225481,3221225481,3221225481,0,0,0,0,0,0,0,
0,0,0,0,0,3221225482,3221225481,3221225481,3221225481,0,0,0,0,0,0,0,
0,0,0,0,0,3221225482,3221225481,3221225481,3221225481,0,0,0,0,0,0,0,
0,0,0,0,0,3221225482,3221225481,3221225481,3221225481,0,0,0,0,0,0,0,
0,0,0,0,0,3221225482,3221225481,3221225481,3221225481,0,0,0,0,0,0,0,
0,0,0,0,0,3221225482,3221225481,3221225481,3221225481,0,0,0,0,0,0,0,
0,0,0,0,0,3221225482,3221225481,3221225481,3221225481,0,0,0,0,0,0,0
</chunk>
   <chunk x="0" y="-16" width="16" height="16">
0,3221225481,3221225481,3221225481,3221225480,0,0,0,0,0,0,0,0,0,0,0,
0,3221225481,3221225481,3221225481,3221225480,0,0,0,0,0,0,0,0,0,0,0,
0,3221225481,3221225481,3221225481,3221225480,0,0,0,0,0,0,0,0,0,0,0,
0,3221225481,3221225481,3221225481,3221225480,0,0,0,0,0,0,0,0,0,0,0,
0,3221225481,3221225481,3221225481,3221225480,0,0,0,0,0,0,0,0,0,0,0,
0,3221225481,3221225481,3221225481,3221225480,0,0,0,0,0,0,0,0,0,0,0,
0,3221225481,3221225481,3221225481,3221225480,0,0,0,0,0,0,0,0,0,0,0,
0,3221225481,3221225481,3221225481,3221225480,0,0,0,0,0,0,0,0,0,0,0,
0,3221225481,3221225481,3221225481,3221225480,0,0,0,0,0,0,0,0,0,0,0,
0,3221225481,3221225481,3221225481,3221225480,0,0,0,0,0,0,0,0,0,0,0,
0,3221225481,3221225481,3221225481,3221225480,0,0,0,0,0,0,0,0,0,0,0,
0,3221225481,3221225481,3221225481,3221225480,0,0,0,0,0,0,0,0,0,0,0,
0,3221225481,3221225481,3221225481,3221225480,0,0,0,0,0,0,0,0,0,0,0,
0,3221225481,3221225481,3221225481,3221225480,0,0,0,0,0,0,0,0,0,0,0,
0,3221225481,3221225481,3221225481,3221225480,0,0,0,0,0,0,0,0,0,0,0,
0,3221225481,3221225481,3221225481,3221225480,0,0,0,0,0,0,0,0,0,0,0
</chunk>
   <chunk x="32" y="-16" width="16" height="16">
0,0,0,0,0,3221225482,3221225481,3221225481,3221225481,0,0,0,0,0,0,0,
0,0,0,0,0,3221225482,3221225481,3221225481,3221225481,0,0,0,0,0,0,0,
0,0,0,0,0,3221225482,3221225481,3221225481,3221225481,0,0,0,0,0,0,0,
0,0,0,0,0,3221225482,3221225481,3221225481,3221225481,0,0,0,0,0,0,0,
0,0,0,0,0,3221225482,3221225481,3221225481,3221225481,0,0,0,0,0,0,0,
0,0,0,0,0,3221225482,3221225481,3221225481,3221225481,0,0,0,0,0,0,0,
0,0,0,0,0,3221225482,3221225481,3221225481,3221225481,0,0,0,0,0,0,0,
0,0,0,0,0,3221225482,3221225481,3221225481,3221225481,0,0,0,0,0,0,0,
0,0,0,0,0,3221225482,3221225481,3221225481,3221225481,0,0,0,0,0,0,0,
0,0,0,0,0,3221225482,3221225481,3221225481,3221225481,0,0,0,0,0,0,0,
0,0,0,0,0,3221225482,3221225481,3221225481,3221225481,0,0,0,0,0,0,0,
0,0,0,0,0,3221225482,3221225481,3221225481,3221225481,0,0,0,0,0,0,0,
0,0,0,0,0,3221225482,3221225481,3221225481,3221225481,0,0,0,0,0,0,0,
0,0,0,0,0,3221225482,3221225481,3221225481,3221225481,0,0,0,0,0,0,0,
0,0,0,0,0,3221225482,3221225481,3221225481,3221225481,0,0,0,0,0,0,0,
0,0,0,0,0,3221225482,3221225481,3221225481,3221225481,0,0,0,0,0,0,0
</chunk>
   <chunk x="0" y="0" width="16" height="16">
0,3221225481,3221225481,3221225481,3221225480,0,0,0,0,0,0,0,0,0,0,0,
0,3221225481,3221225481,3221225481,3221225480,0,0,0,0,0,0,0,0,0,0,0,
0,3221225481,3221225481,3221225481,3221225480,0,0,0,0,0,0,0,0,0,0,0,
0,3221225481,3221225481,3221225481,3221225480,0,0,0,0,0,0,0,0,0,0,0,
0,3221225481,3221225481,3221225481,3221225480,0,0,0,0,0,0,0,0,0,0,0,
0,3221225481,3221225481,3221225481,3221225480,0,0,0,0,0,0,0,0,0,0,0,
0,3221225481,3221225481,3221225481,3221225480,0,0,0,0,0,0,0,0,0,0,0,
0,3221225481,3221225481,3221225481,3221225480,0,0,0,0,0,0,0,0,0,0,0,
0,3221225481,3221225481,3221225481,3221225480,0,0,0,0,0,0,0,0,0,0,0,
0,3221225481,3221225481,3221225481,3221225480,0,0,0,0,0,0,0,0,0,0,0,
0,3221225481,3221225481,3221225481,3221225480,0,0,0,0,0,0,0,0,0,0,0,
0,3221225481,3221225481,3221225481,3221225480,0,0,0,0,0,0,0,0,0,0,0,
0,3221225481,3221225481,3221225481,3221225480,0,0,0,0,0,0,0,0,0,0,0,
0,3221225481,3221225481,3221225481,3221225480,0,0,0,0,0,0,0,0,0,0,0,
0,3221225481,3221225481,3221225481,3221225480,0,0,0,0,0,0,0,0,0,0,0,
0,3221225481,3221225481,3221225481,3221225480,0,0,0,0,0,0,0,0,0,0,0
</chunk>
   <chunk x="32" y="0" width="16" height="16">
0,0,0,0,0,3221225482,3221225481,3221225481,3221225481,0,0,0,0,0,0,0,
0,0,0,0,0,3221225482,3221225481,3221225481,3221225481,0,0,0,0,0,0,0,
0,0,0,0,0,3221225482,3221225481,3221225481,3221225481,0,0,0,0,0,0,0,
0,0,0,0,0,3221225482,3221225481,3221225481,3221225481,0,0,0,0,0,0,0,
0,0,0,0,0,3221225482,3221225481,3221225481,3221225481,0,0,0,0,0,0,0,
0,0,0,0,0,3221225482,3221225481,3221225481,3221225481,0,0,0,0,0,0,0,
0,0,0,0,0,3221225482,3221225481,3221225481,3221225481,0,0,0,0,0,0,0,
0,0,0,0,0,3221225482,3221225481,3221225481,3221225481,0,0,0,0,0,0,0,
0,0,0,0,0,3221225482,3221225481,3221225481,3221225481,0,0,0,0,0,0,0,
0,0,0,0,0,3221225482,3221225481,3221225481,3221225481,0,0,0,0,0,0,0,
0,0,0,0,0,3221225482,3221225481,3221225481,3221225481,0,0,0,0,0,0,0,
0,0,0,0,0,3221225482,3221225481,3221225481,3221225481,0,0,0,0,0,0,0,
0,0,0,0,0,3221225482,3221225481,3221225481,3221225481,0,0,0,0,0,0,0,
0,0,0,0,0,3221225482,3221225481,3221225481,3221225481,0,0,0,0,0,0,0,
0,0,0,0,0,3221225482,3221225481,3221225481,3221225481,0,0,0,0,0,0,0,
0,0,0,0,0,3221225482,3221225481,3221225481,3221225481,0,0,0,0,0,0,0
</chunk>
   <chunk x="0" y="16" width="16" height="16">
0,3221225481,3221225481,3221225481,3221225480,0,0,0,0,0,0,0,0,0,0,0,
0,3221225481,3221225481,3221225481,3221225480,0,0,0,0,0,0,0,0,0,0,0,
0,3221225481,3221225481,3221225481,3221225480,0,0,0,0,0,0,0,0,0,0,0,
0,3221225481,3221225481,3221225481,3221225480,0,0,0,0,0,0,0,0,0,0,0,
0,3221225481,3221225481,3221225481,3221225480,0,0,0,0,0,0,0,0,0,0,0,
0,3221225481,3221225481,3221225481,3221225480,0,0,0,0,0,0,0,0,0,0,0,
0,3221225481,3221225481,3221225481,3221225480,0,0,0,0,0,0,0,0,0,0,0,
0,3221225481,3221225481,3221225481,3221225480,0,0,0,0,0,0,0,0,0,0,0,
0,3221225481,3221225481,3221225481,3221225480,0,0,0,0,0,0,0,0,0,0,0,
0,3221225481,3221225481,3221225481,3221225480,0,0,0,0,0,0,0,0,0,0,0,
0,3221225481,3221225481,3221225481,3221225480,0,0,0,0,0,0,0,0,0,0,0,
0,3221225481,3221225481,3221225481,3221225480,0,0,0,0,0,0,0,0,0,0,0,
0,3221225481,3221225481,3221225481,3221225480,0,0,0,0,0,0,0,0,0,0,0,
0,3221225481,3221225481,3221225481,3221225480,0,0,0,0,0,0,0,0,0,0,0,
0,3221225481,3221225481,3221225481,3221225480,0,0,0,0,0,0,0,0,0,0,0,
0,3221225481,3221225481,3221225481,3221225480,0,0,0,0,0,0,0,0,0,0,0
</chunk>
   <chunk x="32" y="16" width="16" height="16">
0,0,0,0,0,3221225482,3221225481,3221225481,3221225481,0,0,0,0,0,0,0,
0,0,0,0,0,3221225482,3221225481,3221225481,3221225481,0,0,0,0,0,0,0,
0,0,0,0,0,3221225482,3221225481,3221225481,3221225481,0,0,0,0,0,0,0,
0,0,0,0,0,3221225482,3221225481,3221225481,3221225481,0,0,0,0,0,0,0,
0,0,0,0,0,3221225482,3221225481,3221225481,3221225481,0,0,0,0,0,0,0,
0,0,0,0,0,3221225482,3221225481,3221225481,3221225481,0,0,0,0,0,0,0,
0,0,0,0,0,3221225482,3221225481,3221225481,3221225481,0,0,0,0,0,0,0,
0,0,0,0,0,3221225482,3221225481,3221225481,3221225481,0,0,0,0,0,0,0,
0,0,0,0,0,3221225482,3221225481,3221225481,3221225481,0,0,0,0,0,0,0,
0,0,0,0,0,3221225482,3221225481,3221225481,3221225481,0,0,0,0,0,0,0,
0,0,0,0,0,3221225482,3221225481,3221225481,3221225481,0,0,0,0,0,0,0,
0,0,0,0,0,3221225482,3221225481,3221225481,3221225481,0,0,0,0,0,0,0,
0,0,0,0,0,3221225482,3221225481,3221225481,3221225481,0,0,0,0,0,0,0,
0,0,0,0,0,3221225482,3221225481,3221225481,3221225481,0,0,0,0,0,0,0,
0,0,0,0,0,3221225482,3221225481,3221225481,3221225481,0,0,0,0,0,0,0,
0,0,0,0,0,3221225482,3221225481,3221225481,3221225481,0,0,0,0,0,0,0
</chunk>
   <chunk x="0" y="32" width="16" height="16">
0,3221225481,3221225481,3221225481,3221225480,0,0,0,0,0,0,0,0,0,0,0,
0,3221225481,3221225481,3221225481,3221225480,0,0,0,0,0,0,0,0,0,0,0,
0,3221225481,3221225481,3221225481,3221225480,0,0,0,0,0,0,0,0,0,0,0,
0,3221225481,3221225481,3221225481,3221225480,0,0,0,0,0,0,0,0,0,0,0,
0,3221225481,3221225481,3221225481,3221225480,0,0,0,0,0,0,0,0,0,0,0,
0,3221225481,3221225481,3221225481,3221225480,0,0,0,0,0,0,0,0,0,0,0,
0,3221225481,3221225481,3221225481,3221225480,0,0,0,0,0,0,0,0,0,0,0,
0,3221225481,3221225481,3221225481,3221225480,0,0,0,0,0,0,0,0,0,0,0,
0,3221225481,3221225481,3221225481,3221225480,0,0,0,0,0,0,0,0,0,0,0,
0,3221225481,3221225481,3221225481,3221225480,0,0,0,0,0,0,0,0,0,0,0,
0,3221225481,3221225481,3221225481,3221225480,0,0,0,0,0,0,0,0,0,0,0,
0,0,0,0,0,0,0,0,0,0,0,0,0,0,0,0,
0,0,0,0,0,0,0,0,0,0,0,0,0,0,0,0,
0,0,0,0,0,0,0,0,0,0,0,0,0,0,0,0,
0,0,0,0,0,0,0,0,0,0,0,0,0,0,0,0,
0,0,0,0,0,0,0,0,0,0,0,0,0,0,0,0
</chunk>
   <chunk x="32" y="32" width="16" height="16">
0,0,0,0,0,3221225482,3221225481,3221225481,3221225481,0,0,0,0,0,0,0,
0,0,0,0,0,3221225482,3221225481,3221225481,3221225481,0,0,0,0,0,0,0,
0,0,0,0,0,3221225482,3221225481,3221225481,3221225481,0,0,0,0,0,0,0,
0,0,0,0,0,3221225482,3221225481,3221225481,3221225481,0,0,0,0,0,0,0,
0,0,0,0,0,3221225482,3221225481,3221225481,3221225481,0,0,0,0,0,0,0,
0,0,0,0,0,3221225482,3221225481,3221225481,3221225481,0,0,0,0,0,0,0,
0,0,0,0,0,3221225482,3221225481,3221225481,3221225481,0,0,0,0,0,0,0,
0,0,0,0,0,3221225482,3221225481,3221225481,3221225481,0,0,0,0,0,0,0,
0,0,0,0,0,3221225482,3221225481,3221225481,3221225481,0,0,0,0,0,0,0,
0,0,0,0,0,3221225482,3221225481,3221225481,3221225481,0,0,0,0,0,0,0,
0,0,0,0,0,3221225482,3221225481,3221225481,3221225481,0,0,0,0,0,0,0,
0,0,0,0,0,0,0,0,0,0,0,0,0,0,0,0,
0,0,0,0,0,0,0,0,0,0,0,0,0,0,0,0,
0,0,0,0,0,0,0,0,0,0,0,0,0,0,0,0,
0,0,0,0,0,0,0,0,0,0,0,0,0,0,0,0,
0,0,0,0,0,0,0,0,0,0,0,0,0,0,0,0
</chunk>
  </data>
 </layer>
</map>
