<?xml version="1.0" encoding="UTF-8"?>
<map version="1.10" tiledversion="1.11.2" orientation="orthogonal" renderorder="right-down" width="120" height="40" tilewidth="16" tileheight="16" infinite="1" nextlayerid="2" nextobjectid="1">
 <editorsettings>
  <export format="csv"/>
 </editorsettings>
 <tileset firstgid="1" source="tileset.tsx"/>
 <layer id="1" name="Tile Layer 1" width="120" height="40">
  <data encoding="csv">
   <chunk x="32" y="32" width="16" height="16">
0,0,0,0,0,0,0,0,0,0,0,0,0,0,0,0,
0,0,0,0,0,0,0,0,0,0,0,0,0,0,0,0,
0,0,0,0,0,0,0,0,0,0,0,0,0,0,0,0,
0,0,0,0,0,0,0,0,0,0,0,0,0,0,0,0,
0,0,0,0,0,0,0,0,0,0,0,0,0,0,0,0,
0,0,0,0,0,0,0,2147483657,2147483657,2147483657,2147483656,0,0,0,0,0,
0,0,0,0,0,0,0,2147483657,2147483657,2147483657,2147483656,0,0,0,0,0,
0,0,0,0,0,0,0,2147483657,2147483657,2147483657,2147483656,0,0,0,0,0,
0,0,0,0,0,0,0,2147483657,2147483657,2147483657,2147483656,0,0,0,0,0,
0,0,0,0,0,0,0,2147483657,2147483657,2147483657,2147483656,0,0,0,0,0,
0,0,0,0,0,0,0,2147483657,2147483657,2147483657,2147483656,0,0,0,0,0,
0,0,0,0,0,0,0,2147483657,2147483657,2147483657,2147483656,0,0,0,0,0,
0,0,0,0,0,0,0,2147483657,2147483657,2147483657,2147483656,0,0,0,0,0,
0,0,0,0,0,0,0,2147483657,2147483657,2147483657,2147483656,0,0,0,0,0,
0,0,0,0,0,0,0,2147483657,2147483657,2147483657,2147483656,0,0,0,0,0,
0,0,0,0,0,0,0,2147483657,2147483657,2147483657,2147483656,0,0,0,0,0
</chunk>
   <chunk x="64" y="32" width="16" height="16">
0,0,0,0,0,0,0,0,0,0,0,0,0,0,0,0,
0,0,0,0,0,0,0,0,0,0,0,0,0,0,0,0,
0,0,0,0,0,0,0,0,0,0,0,0,0,0,0,0,
0,0,0,0,0,0,0,0,0,0,0,0,0,0,0,0,
0,0,0,0,0,0,0,0,0,0,0,0,0,0,0,0,
0,0,0,0,0,0,0,0,0,0,0,2147483658,2147483657,2147483657,2147483657,0,
0,0,0,0,0,0,0,0,0,0,0,2147483658,2147483657,2147483657,2147483657,0,
0,0,0,0,0,0,0,0,0,0,0,2147483658,2147483657,2147483657,2147483657,0,
0,0,0,0,0,0,0,0,0,0,0,2147483658,2147483657,2147483657,2147483657,0,
0,0,0,0,0,0,0,0,0,0,0,2147483658,2147483657,2147483657,2147483657,0,
0,0,0,0,0,0,0,0,0,0,0,2147483658,2147483657,2147483657,2147483657,0,
0,0,0,0,0,0,0,0,0,0,0,2147483658,2147483657,2147483657,2147483657,0,
0,0,0,0,0,0,0,0,0,0,0,2147483658,2147483657,2147483657,2147483657,0,
0,0,0,0,0,0,0,0,0,0,0,2147483658,2147483657,2147483657,2147483657,0,
0,0,0,0,0,0,0,0,0,0,0,2147483658,2147483657,2147483657,2147483657,0,
0,0,0,0,0,0,0,0,0,0,0,2147483658,2147483657,2147483657,2147483657,0
</chunk>
   <chunk x="32" y="48" width="16" height="16">
0,0,0,0,0,0,0,2147483657,2147483657,2147483657,2147483656,0,0,0,0,0,
0,0,0,0,0,0,0,2147483657,2147483657,2147483657,2147483656,0,0,0,0,0,
0,0,0,0,0,0,0,2147483657,2147483657,2147483657,2147483656,0,0,0,0,0,
0,0,0,0,0,0,0,2147483657,2147483657,2147483657,2147483656,0,0,0,0,0,
0,0,0,0,0,0,0,2147483657,2147483657,2147483657,2147483656,0,0,0,0,0,
0,0,0,0,0,0,0,2147483657,2147483657,2147483657,2147483656,0,0,0,0,0,
0,0,0,0,0,0,0,2147483657,2147483657,2147483657,2147483656,0,0,0,0,0,
0,0,0,0,0,0,0,2147483657,2147483657,2147483657,2147483656,0,0,0,0,0,
0,0,0,0,0,0,0,2147483657,2147483657,2147483657,2147483656,0,0,0,0,0,
0,0,0,0,0,0,0,2147483657,2147483657,2147483657,2147483656,0,0,0,0,0,
0,0,0,0,0,0,0,2147483657,2147483657,2147483657,2147483656,0,0,0,0,0,
0,0,0,0,0,0,0,2147483657,2147483657,2147483657,2147483656,0,0,0,0,0,
0,0,0,0,0,0,0,2147483657,2147483657,2147483657,2147483656,0,0,0,0,0,
0,0,0,0,0,0,0,2147483657,2147483657,2147483657,2147483656,0,0,0,0,0,
0,0,0,0,0,0,0,2147483657,2147483657,2147483657,2147483656,0,0,0,0,0,
0,0,0,0,0,0,0,2147483657,2147483657,2147483657,2147483656,0,0,0,0,0
</chunk>
   <chunk x="64" y="48" width="16" height="16">
0,0,0,0,0,0,0,0,0,0,0,2147483658,2147483657,2147483657,2147483657,0,
0,0,0,0,0,0,0,0,0,0,0,2147483658,2147483657,2147483657,2147483657,0,
0,0,0,0,0,0,0,0,0,0,0,2147483658,2147483657,2147483657,2147483657,0,
0,0,0,0,0,0,0,0,0,0,0,2147483658,2147483657,2147483657,2147483657,0,
0,0,0,0,0,0,0,0,0,0,0,2147483658,2147483657,2147483657,2147483657,0,
0,0,0,0,0,0,0,0,0,0,0,2147483658,2147483657,2147483657,2147483657,0,
0,0,0,0,0,0,0,0,0,0,0,2147483658,2147483657,2147483657,2147483657,0,
0,0,0,0,0,0,0,0,0,0,0,2147483658,2147483657,2147483657,2147483657,0,
0,0,0,0,0,0,0,0,0,0,0,2147483658,2147483657,2147483657,2147483657,0,
0,0,0,0,0,0,0,0,0,0,0,2147483658,2147483657,2147483657,2147483657,0,
0,0,0,0,0,0,0,0,0,0,0,2147483658,2147483657,2147483657,2147483657,0,
0,0,0,0,0,0,0,0,0,0,0,2147483658,2147483657,2147483657,2147483657,0,
0,0,0,0,0,0,0,0,0,0,0,2147483658,2147483657,2147483657,2147483657,0,
0,0,0,0,0,0,0,0,0,0,0,2147483658,2147483657,2147483657,2147483657,0,
0,0,0,0,0,0,0,0,0,0,0,2147483658,2147483657,2147483657,2147483657,0,
0,0,0,0,0,0,0,0,0,0,0,2147483658,2147483657,2147483657,2147483657,0
</chunk>
   <chunk x="32" y="64" width="16" height="16">
0,0,0,0,0,0,0,2147483657,2147483657,2147483657,2147483656,0,0,0,0,0,
0,0,0,0,0,0,0,2147483657,2147483657,2147483657,2147483656,0,0,0,0,0,
0,0,0,0,0,0,0,2147483657,2147483657,2147483657,2147483656,0,0,0,0,0,
0,0,0,0,0,0,0,2147483657,2147483657,2147483657,2147483656,0,0,0,0,0,
0,0,0,0,0,0,0,2147483657,2147483657,2147483657,2147483656,0,0,0,0,0,
0,0,0,0,0,0,0,2147483657,2147483657,2147483657,2147483656,0,0,0,0,0,
0,0,0,0,0,0,0,2147483657,2147483657,2147483657,2147483656,0,0,0,0,0,
0,0,0,0,0,0,0,2147483657,2147483657,2147483657,2147483656,0,0,0,0,0,
0,0,0,0,0,0,0,2147483657,2147483657,2147483657,2147483656,0,0,0,0,0,
0,0,0,0,0,0,0,2147483657,2147483657,2147483657,2147483656,0,0,0,0,0,
0,0,0,0,0,0,0,2147483657,2147483657,2147483657,2147483656,0,0,0,0,0,
0,0,0,0,0,0,0,2147483657,2147483657,2147483657,2147483656,0,0,0,0,0,
0,0,0,0,0,0,0,2147483657,2147483657,2147483657,2147483656,0,0,0,0,0,
0,0,0,0,0,0,0,2147483657,2147483657,2147483657,2147483656,0,0,0,0,0,
0,0,0,0,0,0,0,2147483657,2147483657,2147483657,2147483656,0,0,0,0,0,
0,0,0,0,0,0,0,2147483657,2147483657,2147483657,2147483656,0,0,0,0,0
</chunk>
   <chunk x="64" y="64" width="16" height="16">
0,0,0,0,0,0,0,0,0,0,0,2147483658,2147483657,2147483657,2147483657,0,
0,0,0,0,0,0,0,0,0,0,0,2147483658,2147483657,2147483657,2147483657,0,
0,0,0,0,0,0,0,0,0,0,0,2147483658,2147483657,2147483657,2147483657,0,
0,0,0,0,0,0,0,0,0,0,0,2147483658,2147483657,2147483657,2147483657,0,
0,0,0,0,0,0,0,0,0,0,0,2147483658,2147483657,2147483657,2147483657,0,
0,0,0,0,0,0,0,0,0,0,0,2147483658,2147483657,2147483657,2147483657,0,
0,0,0,0,0,0,0,0,0,0,0,2147483658,2147483657,2147483657,2147483657,0,
0,0,0,0,0,0,0,0,0,0,0,2147483658,2147483657,2147483657,2147483657,0,
0,0,0,0,0,0,0,0,0,0,0,2147483658,2147483657,2147483657,2147483657,0,
0,0,0,0,0,0,0,0,0,0,0,2147483658,2147483657,2147483657,2147483657,0,
0,0,0,0,0,0,0,0,0,0,0,2147483658,2147483657,2147483657,2147483657,0,
0,0,0,0,0,0,0,0,0,0,0,2147483658,2147483657,2147483657,2147483657,0,
0,0,0,0,0,0,0,0,0,0,0,2147483658,2147483657,2147483657,2147483657,0,
0,0,0,0,0,0,0,0,0,0,0,2147483658,2147483657,2147483657,2147483657,0,
0,0,0,0,0,0,0,0,0,0,0,2147483658,2147483657,2147483657,2147483657,0,
0,0,0,0,0,0,0,0,0,0,0,2147483658,2147483657,2147483657,2147483657,0
</chunk>
   <chunk x="32" y="80" width="16" height="16">
0,0,0,0,0,0,0,2147483657,2147483657,2147483657,2147483656,0,0,0,0,0,
0,0,0,0,0,0,0,2147483657,2147483657,2147483657,2147483656,0,0,0,0,0,
0,0,0,0,0,0,0,2147483657,2147483657,2147483657,2147483656,0,0,0,0,0,
0,0,0,0,0,0,0,2147483657,2147483657,2147483657,2147483656,0,0,0,0,0,
0,0,0,0,0,0,0,2147483657,2147483657,2147483657,2147483656,0,0,0,0,0,
0,0,0,0,0,0,0,2147483657,2147483657,2147483657,2147483656,0,0,0,0,0,
0,0,0,0,0,0,0,2147483657,2147483657,2147483657,2147483656,0,0,0,0,0,
0,0,0,0,0,0,0,2147483657,2147483657,2147483657,2147483656,0,0,0,0,0,
0,0,0,0,0,0,0,2147483657,2147483657,2147483657,2147483656,0,0,0,0,0,
0,0,0,0,0,0,0,2147483657,2147483657,2147483657,2147483656,0,0,0,0,0,
0,0,0,0,0,0,0,2147483657,2147483657,2147483657,2147483656,0,0,0,0,0,
0,0,0,0,0,0,0,2147483657,2147483657,2147483657,2147483656,0,0,0,0,0,
0,0,0,0,0,0,0,2147483657,2147483657,2147483657,2147483656,0,0,0,0,0,
0,0,0,0,0,0,0,2147483657,2147483657,2147483657,2147483656,0,0,0,0,0,
0,0,0,0,0,0,0,2147483657,2147483657,2147483657,2147483656,0,0,0,0,0,
0,0,0,0,0,0,0,2147483657,2147483657,2147483657,2147483656,0,0,0,0,0
</chunk>
   <chunk x="64" y="80" width="16" height="16">
0,0,0,0,0,0,0,0,0,0,0,2147483658,2147483657,2147483657,2147483657,0,
0,0,0,0,0,0,0,0,0,0,0,2147483658,2147483657,2147483657,2147483657,0,
0,0,0,0,0,0,0,0,0,0,0,2147483658,2147483657,2147483657,2147483657,0,
0,0,0,0,0,0,0,0,0,0,0,2147483658,2147483657,2147483657,2147483657,0,
0,0,0,0,0,0,0,0,0,0,0,2147483658,2147483657,2147483657,2147483657,0,
0,0,0,0,0,0,0,0,0,0,0,2147483658,2147483657,2147483657,2147483657,0,
0,0,0,0,0,0,0,0,0,0,0,2147483658,2147483657,2147483657,2147483657,0,
0,0,0,0,0,0,0,0,0,0,0,2147483658,2147483657,2147483657,2147483657,0,
0,0,0,0,0,0,0,0,0,0,0,2147483658,2147483657,2147483657,2147483657,0,
0,0,0,0,0,0,0,0,0,0,0,2147483658,2147483657,2147483657,2147483657,0,
0,0,0,0,0,0,0,0,0,0,0,2147483658,2147483657,2147483657,2147483657,0,
0,0,0,0,0,0,0,0,0,0,0,2147483658,2147483657,2147483657,2147483657,0,
0,0,0,0,0,0,0,0,0,0,0,2147483658,2147483657,2147483657,2147483657,0,
0,0,0,0,0,0,0,0,0,0,0,2147483658,2147483657,2147483657,2147483657,0,
0,0,0,0,0,0,0,0,0,0,0,2147483658,2147483657,2147483657,2147483657,0,
0,0,0,0,0,0,0,0,0,0,0,2147483658,2147483657,2147483657,2147483657,0
</chunk>
   <chunk x="32" y="96" width="16" height="16">
0,0,0,0,0,0,0,2147483657,2147483657,2147483657,2147483656,0,0,0,0,0,
0,0,0,0,0,0,0,2147483657,2147483657,2147483657,2147483656,0,0,0,0,0,
0,0,0,0,0,0,0,2147483657,2147483657,2147483657,2147483656,0,0,0,0,0,
0,0,0,0,0,0,0,2147483657,2147483657,2147483657,2147483656,0,0,0,0,0,
0,0,0,0,0,0,0,2147483657,2147483657,2147483657,2147483656,0,0,0,0,0,
0,0,0,0,0,0,0,2147483657,2147483657,2147483657,2147483656,0,0,0,0,0,
0,0,0,0,0,0,0,2147483657,2147483657,2147483657,2147483656,0,0,0,0,0,
0,0,0,0,0,0,0,2147483657,2147483657,2147483657,2147483656,0,0,0,0,0,
0,0,0,0,0,0,0,2147483657,2147483657,2147483657,2147483656,0,0,0,0,0,
0,0,0,0,0,0,0,2147483657,2147483657,2147483657,2147483656,0,0,0,0,0,
0,0,0,0,0,0,0,2147483657,2147483657,2147483657,2147483656,0,0,0,0,0,
0,0,0,0,0,0,0,2147483657,2147483657,2147483657,2147483656,0,0,0,0,0,
0,0,0,0,0,0,0,2147483657,2147483657,2147483657,2147483656,0,0,0,0,0,
0,0,0,0,0,0,0,2147483657,2147483657,2147483657,2147483656,0,0,0,0,0,
0,0,0,0,0,0,0,2147483657,2147483657,2147483657,2147483656,0,0,0,0,0,
0,0,0,0,0,0,0,2147483657,2147483657,2147483657,2147483656,0,0,0,0,0
</chunk>
   <chunk x="64" y="96" width="16" height="16">
0,0,0,0,0,0,0,0,0,0,0,2147483658,2147483657,2147483657,2147483657,0,
0,0,0,0,0,0,0,0,0,0,0,2147483658,2147483657,2147483657,2147483657,0,
0,0,0,0,0,0,0,0,0,0,0,2147483658,2147483657,2147483657,2147483657,0,
0,0,0,0,0,0,0,0,0,0,0,2147483658,2147483657,2147483657,2147483657,0,
0,0,0,0,0,0,0,0,0,0,0,2147483658,2147483657,2147483657,2147483657,0,
0,0,0,0,0,0,0,0,0,0,0,2147483658,2147483657,2147483657,2147483657,0,
0,0,0,0,0,0,0,0,0,0,0,2147483658,2147483657,2147483657,2147483657,0,
0,0,0,0,0,0,0,0,0,0,0,2147483658,2147483657,2147483657,2147483657,0,
0,0,0,0,0,0,0,0,0,0,0,2147483658,2147483657,2147483657,2147483657,0,
0,0,0,0,0,0,0,0,0,0,0,2147483658,2147483657,2147483657,2147483657,0,
0,0,0,0,0,0,0,0,0,0,0,2147483658,2147483657,2147483657,2147483657,0,
0,0,0,0,0,0,0,0,0,0,0,2147483658,2147483657,2147483657,2147483657,0,
0,0,0,0,0,0,0,0,0,0,0,2147483658,2147483657,2147483657,2147483657,0,
0,0,0,0,0,0,0,0,0,0,0,2147483658,2147483657,2147483657,2147483657,0,
0,0,0,0,0,0,0,0,0,0,0,2147483658,2147483657,2147483657,2147483657,0,
0,0,0,0,0,0,0,0,0,0,0,2147483658,2147483657,2147483657,2147483657,0
</chunk>
   <chunk x="32" y="112" width="16" height="16">
0,0,0,0,0,0,0,2147483657,2147483657,2147483657,2147483656,0,0,0,0,0,
0,0,0,0,0,0,0,2147483657,2147483657,2147483657,2147483656,0,0,0,0,0,
0,0,0,0,0,0,0,2147483657,2147483657,2147483657,2147483656,0,0,0,0,0,
0,0,0,0,0,0,0,2147483657,2147483657,2147483657,2147483656,0,0,0,0,0,
0,0,0,0,0,0,0,2147483657,2147483657,2147483657,2147483656,0,0,0,0,0,
0,0,0,0,0,0,0,2147483657,2147483657,2147483657,2147483656,0,0,0,0,0,
0,0,0,0,0,0,0,2147483657,2147483657,2147483657,2147483656,0,0,0,0,0,
0,0,0,0,0,0,0,2147483657,2147483657,2147483657,2147483656,0,0,0,0,0,
0,0,0,0,0,0,0,2147483657,2147483657,2147483657,2147483656,0,0,0,0,0,
0,0,0,0,0,0,0,2147483657,2147483657,2147483657,2147483656,0,0,0,0,0,
0,0,0,0,0,0,0,2147483657,2147483657,2147483657,2147483656,0,0,0,0,0,
0,0,0,0,0,0,0,2147483657,2147483657,2147483657,2147483656,0,0,0,0,0,
0,0,0,0,0,0,0,2147483657,2147483657,2147483657,2147483656,0,0,0,0,0,
0,0,0,0,0,0,0,2147483657,2147483657,2147483657,2147483656,0,0,0,0,0,
0,0,0,0,0,0,0,2147483657,2147483657,2147483657,2147483656,0,0,0,0,0,
0,0,0,0,0,0,0,2147483657,2147483657,2147483657,2147483656,0,0,0,0,0
</chunk>
   <chunk x="64" y="112" width="16" height="16">
0,0,0,0,0,0,0,0,0,0,0,2147483658,2147483657,2147483657,2147483657,0,
0,0,0,0,0,0,0,0,0,0,0,2147483658,2147483657,2147483657,2147483657,0,
0,0,0,0,0,0,0,0,0,0,0,2147483658,2147483657,2147483657,2147483657,0,
0,0,0,0,0,0,0,0,0,0,0,2147483658,2147483657,2147483657,2147483657,0,
0,0,0,0,0,0,0,0,0,0,0,2147483658,2147483657,2147483657,2147483657,0,
0,0,0,0,0,0,0,0,0,0,0,2147483658,2147483657,2147483657,2147483657,0,
0,0,0,0,0,0,0,0,0,0,0,2147483658,2147483657,2147483657,2147483657,0,
0,0,0,0,0,0,0,0,0,0,0,2147483658,2147483657,2147483657,2147483657,0,
0,0,0,0,0,0,0,0,0,0,0,2147483658,2147483657,2147483657,2147483657,0,
0,0,0,0,0,0,0,0,0,0,0,2147483658,2147483657,2147483657,2147483657,0,
0,0,0,0,0,0,0,0,0,0,0,2147483658,2147483657,2147483657,2147483657,0,
0,0,0,0,0,0,0,0,0,0,0,2147483658,2147483657,2147483657,2147483657,0,
0,0,0,0,0,0,0,0,0,0,0,2147483658,2147483657,2147483657,2147483657,0,
0,0,0,0,0,0,0,0,0,0,0,2147483658,2147483657,2147483657,2147483657,0,
0,0,0,0,0,0,0,0,0,0,0,2147483658,2147483657,2147483657,2147483657,0,
0,0,0,0,0,0,0,0,0,0,0,2147483658,2147483657,2147483657,2147483657,0
</chunk>
   <chunk x="32" y="128" width="16" height="16">
0,0,0,0,0,0,0,2147483657,2147483657,2147483657,2147483656,0,0,0,0,0,
0,0,0,0,0,0,0,2147483657,2147483657,2147483657,2147483656,0,0,0,0,0,
0,0,0,0,0,0,0,2147483657,2147483657,2147483657,2147483656,0,0,0,0,0,
0,0,0,0,0,0,0,2147483657,2147483657,2147483657,2147483656,0,0,0,0,0,
0,0,0,0,0,0,0,2147483657,2147483657,2147483657,2147483656,0,0,0,0,0,
0,0,0,0,0,0,0,2147483657,2147483657,2147483657,2147483656,0,0,0,0,0,
0,0,0,0,0,0,0,2147483657,2147483657,2147483657,2147483656,0,0,0,0,0,
0,0,0,0,0,0,0,2147483657,2147483657,2147483657,2147483656,0,0,0,0,0,
0,0,0,0,0,0,0,2147483657,2147483657,2147483657,2147483656,0,0,0,0,0,
0,0,0,0,0,0,0,2147483657,2147483657,2147483657,2147483656,0,0,0,0,0,
0,0,0,0,0,0,0,2147483657,2147483657,2147483657,2147483656,0,0,0,0,0,
0,0,0,0,0,0,0,2147483657,2147483657,2147483657,2147483656,0,0,0,0,0,
0,0,0,0,0,0,0,2147483657,2147483657,2147483657,2147483656,0,0,0,0,0,
0,0,0,0,0,0,0,2147483657,2147483657,2147483657,2147483656,0,0,0,0,0,
0,0,0,0,0,0,0,2147483657,2147483657,2147483657,2147483656,0,0,0,0,0,
0,0,0,0,0,0,0,2147483657,2147483657,2147483657,2147483656,0,0,0,0,0
</chunk>
   <chunk x="64" y="128" width="16" height="16">
0,0,0,0,0,0,0,0,0,0,0,2147483658,2147483657,2147483657,2147483657,0,
0,0,0,0,0,0,0,0,0,0,0,2147483658,2147483657,2147483657,2147483657,0,
0,0,0,0,0,0,0,0,0,0,0,2147483658,2147483657,2147483657,2147483657,0,
0,0,0,0,0,0,0,0,0,0,0,2147483658,2147483657,2147483657,2147483657,0,
0,0,0,0,0,0,0,0,0,0,0,2147483658,2147483657,2147483657,2147483657,0,
0,0,0,0,0,0,0,0,0,0,0,2147483658,2147483657,2147483657,2147483657,0,
0,0,0,0,0,0,0,0,0,0,0,2147483658,2147483657,2147483657,2147483657,0,
0,0,0,0,0,0,0,0,0,0,0,2147483658,2147483657,2147483657,2147483657,0,
0,0,0,0,0,0,0,0,0,0,0,2147483658,2147483657,2147483657,2147483657,0,
0,0,0,0,0,0,0,0,0,0,0,2147483658,2147483657,2147483657,2147483657,0,
0,0,0,0,0,0,0,0,0,0,0,2147483658,2147483657,2147483657,2147483657,0,
0,0,0,0,0,0,0,0,0,0,0,2147483658,2147483657,2147483657,2147483657,0,
0,0,0,0,0,0,0,0,0,0,0,2147483658,2147483657,2147483657,2147483657,0,
0,0,0,0,0,0,0,0,0,0,0,2147483658,2147483657,2147483657,2147483657,0,
0,0,0,0,0,0,0,0,0,0,0,2147483658,2147483657,2147483657,2147483657,0,
0,0,0,0,0,0,0,0,0,0,0,2147483658,2147483657,2147483657,2147483657,0
</chunk>
   <chunk x="32" y="144" width="16" height="16">
0,0,0,0,0,0,0,2147483657,2147483657,2147483657,2147483656,0,0,0,0,0,
0,0,0,0,0,0,0,2147483657,2147483657,2147483657,2147483656,0,0,0,0,0,
0,0,0,0,0,0,0,2147483657,2147483657,2147483657,2147483656,0,0,0,0,0,
0,0,0,0,0,0,0,2147483657,2147483657,2147483657,2147483656,0,0,0,0,0,
0,0,0,0,0,0,0,2147483657,2147483657,2147483657,2147483656,0,0,0,0,0,
0,0,0,0,0,0,0,2147483657,2147483657,2147483657,2147483656,0,0,0,0,0,
0,0,0,0,0,0,0,2147483657,2147483657,2147483657,2147483656,0,0,0,0,0,
0,0,0,0,0,0,0,2147483657,2147483657,2147483657,2147483656,0,0,0,0,0,
0,0,0,0,0,0,0,2147483657,2147483657,2147483657,2147483656,0,0,0,0,0,
0,0,0,0,0,0,0,2147483657,2147483657,2147483657,2147483656,0,0,0,0,0,
0,0,0,0,0,0,0,2147483657,2147483657,2147483657,2147483656,0,0,0,0,0,
0,0,0,0,0,0,0,2147483657,2147483657,2147483657,2147483656,0,0,0,0,0,
0,0,0,0,0,0,0,2147483657,2147483657,2147483657,2147483656,0,0,0,0,0,
0,0,0,0,0,0,0,2147483657,2147483657,2147483657,2147483656,0,0,0,0,0,
0,0,0,0,0,0,0,2147483657,2147483657,2147483657,2147483656,0,0,0,0,0,
0,0,0,0,0,0,0,2147483657,2147483657,2147483657,2147483656,0,0,0,0,0
</chunk>
   <chunk x="64" y="144" width="16" height="16">
0,0,0,0,0,0,0,0,0,0,0,2147483658,2147483657,2147483657,2147483657,0,
0,0,0,0,0,0,0,0,0,0,0,2147483658,2147483657,2147483657,2147483657,0,
0,0,0,0,0,0,0,0,0,0,0,2147483658,2147483657,2147483657,2147483657,0,
0,0,0,0,0,0,0,0,0,0,0,2147483658,2147483657,2147483657,2147483657,0,
0,0,0,0,0,0,0,0,0,0,0,2147483658,2147483657,2147483657,2147483657,0,
0,0,0,0,0,0,0,0,0,0,0,2147483658,2147483657,2147483657,2147483657,0,
0,0,0,0,0,0,0,0,0,0,0,2147483658,2147483657,2147483657,2147483657,0,
0,0,0,0,0,0,0,0,0,0,0,2147483658,2147483657,2147483657,2147483657,0,
0,0,0,0,0,0,0,0,0,0,0,2147483658,2147483657,2147483657,2147483657,0,
0,0,0,0,0,0,0,0,0,0,0,2147483658,2147483657,2147483657,2147483657,2147483657,
0,0,0,0,0,0,0,0,0,0,0,2147483658,2147483657,2147483657,2147483657,2147483657,
0,0,0,0,0,0,0,0,0,0,0,2147483658,2147483657,2147483657,2147483657,2147483657,
0,0,0,0,0,0,0,0,0,0,0,2147483663,2147483662,2147483662,2147483662,2147483662,
0,0,0,0,0,0,0,0,0,0,0,0,0,0,0,0,
0,0,0,0,0,0,0,0,0,0,0,0,0,0,0,0,
0,0,0,0,0,0,0,0,0,0,0,0,0,0,0,0
</chunk>
   <chunk x="80" y="144" width="16" height="16">
0,0,0,0,0,0,0,0,0,0,0,0,0,0,0,0,
0,0,0,0,0,0,0,0,0,0,0,0,0,0,0,0,
0,0,0,0,0,0,0,0,0,0,0,0,0,0,0,0,
0,0,0,0,0,0,0,0,0,0,0,0,0,0,0,0,
0,0,0,0,0,0,0,0,0,0,0,0,0,0,0,0,
0,0,0,0,0,0,0,0,0,0,0,0,0,0,0,0,
0,0,0,0,0,0,0,0,0,0,0,0,0,0,0,0,
0,0,0,0,0,0,0,0,0,0,0,0,0,0,0,0,
0,0,0,0,0,0,0,0,0,0,0,0,0,0,0,0,
2147483657,2147483657,2147483657,2147483657,2147483657,2147483657,2147483657,2147483657,2147483657,2147483657,2147483657,2147483657,2147483657,2147483657,2147483657,2147483657,
2147483657,2147483657,2147483657,2147483657,2147483657,2147483657,2147483657,2147483657,2147483657,2147483657,2147483657,2147483657,2147483657,2147483657,2147483657,2147483657,
2147483657,2147483657,2147483657,2147483657,2147483657,2147483657,2147483657,2147483657,2147483657,2147483657,2147483657,2147483657,2147483657,2147483657,2147483657,2147483657,
2147483662,2147483662,2147483662,2147483662,2147483662,2147483662,2147483662,2147483662,2147483662,2147483662,2147483662,2147483662,2147483662,2147483662,2147483662,2147483662,
0,0,0,0,0,0,0,0,0,0,0,0,0,0,0,0,
0,0,0,0,0,0,0,0,0,0,0,0,0,0,0,0,
0,0,0,0,0,0,0,0,0,0,0,0,0,0,0,0
</chunk>
   <chunk x="96" y="144" width="16" height="16">
0,0,0,0,0,0,0,0,0,0,0,0,0,0,0,0,
0,0,0,0,0,0,0,0,0,0,0,0,0,0,0,0,
0,0,0,0,0,0,0,0,0,0,0,0,0,0,0,0,
0,0,0,0,0,0,0,0,0,0,0,0,0,0,0,0,
0,0,0,0,0,0,0,0,0,0,0,0,0,0,0,0,
0,0,0,0,0,0,0,0,0,0,0,0,0,0,0,0,
0,0,0,0,0,0,0,0,0,0,0,0,0,0,0,0,
0,0,0,0,0,0,0,0,0,0,0,0,0,0,0,0,
0,0,0,0,0,0,0,0,0,0,0,0,0,0,0,0,
2147483657,2147483657,2147483657,2147483657,2147483657,2147483657,2147483657,2147483657,2147483657,2147483657,2147483657,2147483657,2147483657,2147483657,2147483657,2147483657,
2147483657,2147483657,2147483657,2147483657,2147483657,2147483657,2147483657,2147483657,2147483657,2147483657,2147483657,2147483657,2147483657,2147483657,2147483657,2147483657,
2147483657,2147483657,2147483657,2147483657,2147483657,2147483657,2147483657,2147483657,2147483657,2147483657,2147483657,2147483657,2147483657,2147483657,2147483657,2147483657,
2147483662,2147483662,2147483662,2147483662,2147483662,2147483662,2147483662,2147483662,2147483662,2147483662,2147483662,2147483662,2147483662,2147483662,2147483662,2147483662,
0,0,0,0,0,0,0,0,0,0,0,0,0,0,0,0,
0,0,0,0,0,0,0,0,0,0,0,0,0,0,0,0,
0,0,0,0,0,0,0,0,0,0,0,0,0,0,0,0
</chunk>
   <chunk x="112" y="144" width="16" height="16">
0,0,0,0,0,0,0,0,0,0,0,0,0,0,0,0,
0,0,0,0,0,0,0,0,0,0,0,0,0,0,0,0,
0,0,0,0,0,0,0,0,0,0,0,0,0,0,0,0,
0,0,0,0,0,0,0,0,0,0,0,0,0,0,0,0,
0,0,0,0,0,0,0,0,0,0,0,0,0,0,0,0,
0,0,0,0,0,0,0,0,0,0,0,0,0,0,0,0,
0,0,0,0,0,0,0,0,0,0,0,0,0,0,0,0,
0,0,0,0,0,0,0,0,0,0,0,0,0,0,0,0,
0,0,0,0,0,0,0,0,0,0,0,0,0,0,0,0,
2147483657,2147483657,2147483657,2147483657,2147483657,2147483657,2147483657,2147483657,2147483657,2147483657,2147483657,2147483657,2147483657,2147483657,2147483657,2147483657,
2147483657,2147483657,2147483657,2147483657,2147483657,2147483657,2147483657,2147483657,2147483657,2147483657,2147483657,2147483657,2147483657,2147483657,2147483657,2147483657,
2147483657,2147483657,2147483657,2147483657,2147483657,2147483657,2147483657,2147483657,2147483657,2147483657,2147483657,2147483657,2147483657,2147483657,2147483657,2147483657,
2147483662,2147483662,2147483662,2147483662,2147483662,2147483662,2147483662,2147483662,2147483662,2147483662,2147483662,2147483662,2147483662,2147483662,2147483662,2147483662,
0,0,0,0,0,0,0,0,0,0,0,0,0,0,0,0,
0,0,0,0,0,0,0,0,0,0,0,0,0,0,0,0,
0,0,0,0,0,0,0,0,0,0,0,0,0,0,0,0
</chunk>
   <chunk x="128" y="144" width="16" height="16">
0,0,0,0,0,0,0,0,0,0,0,0,0,0,0,0,
0,0,0,0,0,0,0,0,0,0,0,0,0,0,0,0,
0,0,0,0,0,0,0,0,0,0,0,0,0,0,0,0,
0,0,0,0,0,0,0,0,0,0,0,0,0,0,0,0,
0,0,0,0,0,0,0,0,0,0,0,0,0,0,0,0,
0,0,0,0,0,0,0,0,0,0,0,0,0,0,0,0,
0,0,0,0,0,0,0,0,0,0,0,0,0,0,0,0,
0,0,0,0,0,0,0,0,0,0,0,0,0,0,0,0,
0,0,0,0,0,0,0,0,0,0,0,0,0,0,0,0,
2147483657,2147483657,2147483657,2147483657,2147483657,2147483657,2147483657,2147483657,2147483657,2147483657,2147483657,2147483657,2147483657,2147483657,2147483657,2147483657,
2147483657,2147483657,2147483657,2147483657,2147483657,2147483657,2147483657,2147483657,2147483657,2147483657,2147483657,2147483657,2147483657,2147483657,2147483657,2147483657,
2147483657,2147483657,2147483657,2147483657,2147483657,2147483657,2147483657,2147483657,2147483657,2147483657,2147483657,2147483657,2147483657,2147483657,2147483657,2147483657,
2147483662,2147483662,2147483662,2147483662,2147483662,2147483662,2147483662,2147483662,2147483662,2147483662,2147483662,2147483662,2147483662,2147483662,2147483662,2147483662,
0,0,0,0,0,0,0,0,0,0,0,0,0,0,0,0,
0,0,0,0,0,0,0,0,0,0,0,0,0,0,0,0,
0,0,0,0,0,0,0,0,0,0,0,0,0,0,0,0
</chunk>
   <chunk x="144" y="144" width="16" height="16">
0,0,0,0,0,0,0,0,0,0,0,0,0,0,0,0,
0,0,0,0,0,0,0,0,0,0,0,0,0,0,0,0,
0,0,0,0,0,0,0,0,0,0,0,0,0,0,0,0,
0,0,0,0,0,0,0,0,0,0,0,0,0,0,0,0,
0,0,0,0,0,0,0,0,0,0,0,0,0,0,0,0,
0,0,0,0,0,0,0,0,0,0,0,0,0,0,0,0,
0,0,0,0,0,0,0,0,0,0,0,0,0,0,0,0,
0,0,0,0,0,0,0,0,0,0,0,0,0,0,0,0,
0,0,0,0,0,0,0,0,0,0,0,0,0,0,0,0,
2147483657,2147483657,2147483657,2147483657,2147483657,2147483657,2147483657,2147483657,2147483657,2147483657,2147483657,2147483657,2147483657,2147483657,2147483657,2147483657,
2147483657,2147483657,2147483657,2147483657,2147483657,2147483657,2147483657,2147483657,2147483657,2147483657,2147483657,2147483657,2147483657,2147483657,2147483657,2147483657,
2147483657,2147483657,2147483657,2147483657,2147483657,2147483657,2147483657,2147483657,2147483657,2147483657,2147483657,2147483657,2147483657,2147483657,2147483657,2147483657,
2147483662,2147483662,2147483662,2147483662,2147483662,2147483662,2147483662,2147483662,2147483662,2147483662,2147483662,2147483662,2147483662,2147483662,2147483662,2147483662,
0,0,0,0,0,0,0,0,0,0,0,0,0,0,0,0,
0,0,0,0,0,0,0,0,0,0,0,0,0,0,0,0,
0,0,0,0,0,0,0,0,0,0,0,0,0,0,0,0
</chunk>
   <chunk x="160" y="144" width="16" height="16">
0,0,0,0,0,0,0,0,0,0,0,0,0,0,0,0,
0,0,0,0,0,0,0,0,0,0,0,0,0,0,0,0,
0,0,0,0,0,0,0,0,0,0,0,0,0,0,0,0,
0,0,0,0,0,0,0,0,0,0,0,0,0,0,0,0,
0,0,0,0,0,0,0,0,0,0,0,0,0,0,0,0,
0,0,0,0,0,0,0,0,0,0,0,0,0,0,0,0,
0,0,0,0,0,0,0,0,0,0,0,0,0,0,0,0,
0,0,0,0,0,0,0,0,0,0,0,0,0,0,0,0,
0,0,0,0,0,0,0,0,0,0,0,0,0,0,0,0,
2147483657,2147483657,2147483657,2147483657,2147483657,2147483657,2147483657,2147483657,2147483657,2147483657,2147483657,2147483657,2147483657,2147483657,2147483657,2147483657,
2147483657,2147483657,2147483657,2147483657,2147483657,2147483657,2147483657,2147483657,2147483657,2147483657,2147483657,2147483657,2147483657,2147483657,2147483657,2147483657,
2147483657,2147483657,2147483657,2147483657,2147483657,2147483657,2147483657,2147483657,2147483657,2147483657,2147483657,2147483657,2147483657,2147483657,2147483657,2147483657,
2147483662,2147483662,2147483662,2147483662,2147483662,2147483662,2147483662,2147483662,2147483662,2147483662,2147483662,2147483662,2147483662,2147483662,2147483662,2147483662,
0,0,0,0,0,0,0,0,0,0,0,0,0,0,0,0,
0,0,0,0,0,0,0,0,0,0,0,0,0,0,0,0,
0,0,0,0,0,0,0,0,0,0,0,0,0,0,0,0
</chunk>
   <chunk x="176" y="144" width="16" height="16">
0,0,0,0,0,0,0,0,0,0,0,0,0,0,0,0,
0,0,0,0,0,0,0,0,0,0,0,0,0,0,0,0,
0,0,0,0,0,0,0,0,0,0,0,0,0,0,0,0,
0,0,0,0,0,0,0,0,0,0,0,0,0,0,0,0,
0,0,0,0,0,0,0,0,0,0,0,0,0,0,0,0,
0,0,0,0,0,0,0,0,0,0,0,0,0,0,0,0,
0,0,0,0,0,0,0,0,0,0,0,0,0,0,0,0,
0,0,0,0,0,0,0,0,0,0,0,0,0,0,0,0,
0,0,0,0,0,0,0,0,0,0,0,0,0,0,0,0,
2147483657,2147483657,2147483657,2147483657,2147483657,2147483657,2147483657,2147483657,2147483657,2147483657,2147483657,2147483657,2147483657,2147483657,2147483657,2147483657,
2147483657,2147483657,2147483657,2147483657,2147483657,2147483657,2147483657,2147483657,2147483657,2147483657,2147483657,2147483657,2147483657,2147483657,2147483657,2147483657,
2147483657,2147483657,2147483657,2147483657,2147483657,2147483657,2147483657,2147483657,2147483657,2147483657,2147483657,2147483657,2147483657,2147483657,2147483657,2147483657,
2147483662,2147483662,2147483662,2147483662,2147483662,2147483662,2147483662,2147483662,2147483662,2147483662,2147483662,2147483662,2147483662,2147483662,2147483662,2147483662,
0,0,0,0,0,0,0,0,0,0,0,0,0,0,0,0,
0,0,0,0,0,0,0,0,0,0,0,0,0,0,0,0,
0,0,0,0,0,0,0,0,0,0,0,0,0,0,0,0
</chunk>
   <chunk x="192" y="144" width="16" height="16">
0,0,0,0,0,0,0,0,0,0,0,0,0,0,0,0,
0,0,0,0,0,0,0,0,0,0,0,0,0,0,0,0,
0,0,0,0,0,0,0,0,0,0,0,0,0,0,0,0,
0,0,0,0,0,0,0,0,0,0,0,0,0,0,0,0,
0,0,0,0,0,0,0,0,0,0,0,0,0,0,0,0,
0,0,0,0,0,0,0,0,0,0,0,0,0,0,0,0,
0,0,0,0,0,0,0,0,0,0,0,0,0,0,0,0,
0,0,0,0,0,0,0,0,0,0,0,0,0,0,0,0,
0,0,0,0,0,0,0,0,0,0,0,0,0,0,0,0,
2147483657,2147483657,2147483657,2147483657,2147483657,2147483657,2147483657,0,0,0,0,0,0,0,0,0,
2147483657,2147483657,2147483657,2147483657,2147483657,2147483657,2147483657,0,0,0,0,0,0,0,0,0,
2147483657,2147483657,2147483657,2147483657,2147483657,2147483657,2147483657,0,0,0,0,0,0,0,0,0,
2147483662,2147483662,2147483662,2147483649,2147483657,2147483657,2147483657,0,0,0,0,0,0,0,0,0,
0,0,0,2147483658,2147483657,2147483657,2147483657,0,0,0,0,0,0,0,0,0,
0,0,0,2147483658,2147483657,2147483657,2147483657,0,0,0,0,0,0,0,0,0,
0,0,0,2147483658,2147483657,2147483657,2147483657,0,0,0,0,0,0,0,0,0
</chunk>
   <chunk x="32" y="160" width="16" height="16">
0,0,0,0,0,0,0,2147483657,2147483657,2147483657,2147483656,0,0,0,0,0,
0,0,0,0,0,0,0,2147483657,2147483657,2147483657,2147483656,0,0,0,0,0,
0,0,0,0,0,0,0,2147483657,2147483657,2147483657,2147483656,0,0,0,0,0,
0,0,0,0,0,0,0,2147483657,2147483657,2147483657,2147483656,0,0,0,0,0,
0,0,0,0,0,0,0,2147483657,2147483657,2147483657,2147483656,0,0,0,0,0,
0,0,0,0,0,0,0,2147483657,2147483657,2147483657,2147483656,0,0,0,0,0,
0,0,0,0,0,0,0,2147483657,2147483657,2147483657,2147483656,0,0,0,0,0,
0,0,0,0,0,0,0,2147483657,2147483657,2147483657,2147483656,0,0,0,0,0,
0,0,0,0,0,0,0,2147483657,2147483657,2147483657,2147483656,0,0,0,0,0,
0,0,0,0,0,0,0,2147483657,2147483657,2147483657,2147483656,0,0,0,0,0,
0,0,0,0,0,0,0,2147483657,2147483657,2147483657,2147483656,0,0,0,0,0,
0,0,0,0,0,0,0,2147483657,2147483657,2147483657,2147483656,0,0,0,0,0,
0,0,0,0,0,0,0,2147483657,2147483657,2147483657,2147483656,0,0,0,0,0,
0,0,0,0,0,0,0,2147483657,2147483657,2147483657,2147483656,0,0,0,0,0,
0,0,0,0,0,0,0,2147483657,2147483657,2147483657,2147483656,0,0,0,0,0,
0,0,0,0,0,0,0,2147483657,2147483657,2147483657,2147483656,0,0,0,0,0
</chunk>
   <chunk x="192" y="160" width="16" height="16">
0,0,0,2147483658,2147483657,2147483657,2147483657,0,0,0,0,0,0,0,0,0,
0,0,0,2147483658,2147483657,2147483657,2147483657,0,0,0,0,0,0,0,0,0,
0,0,0,2147483658,2147483657,2147483657,2147483657,0,0,0,0,0,0,0,0,0,
0,0,0,2147483658,2147483657,2147483657,2147483657,0,0,0,0,0,0,0,0,0,
0,0,0,2147483658,2147483657,2147483657,2147483657,0,0,0,0,0,0,0,0,0,
0,0,0,2147483658,2147483657,2147483657,2147483657,0,0,0,0,0,0,0,0,0,
0,0,0,2147483658,2147483657,2147483657,2147483657,0,0,0,0,0,0,0,0,0,
0,0,0,2147483658,2147483657,2147483657,2147483657,0,0,0,0,0,0,0,0,0,
0,0,0,2147483658,2147483657,2147483657,2147483657,0,0,0,0,0,0,0,0,0,
0,0,0,2147483658,2147483657,2147483657,2147483657,0,0,0,0,0,0,0,0,0,
0,0,0,2147483658,2147483657,2147483657,2147483657,0,0,0,0,0,0,0,0,0,
0,0,0,2147483658,2147483657,2147483657,2147483657,0,0,0,0,0,0,0,0,0,
0,0,0,2147483658,2147483657,2147483657,2147483657,0,0,0,0,0,0,0,0,0,
0,0,0,2147483658,2147483657,2147483657,2147483657,0,0,0,0,0,0,0,0,0,
0,0,0,2147483658,2147483657,2147483657,2147483657,0,0,0,0,0,0,0,0,0,
0,0,0,2147483658,2147483657,2147483657,2147483657,0,0,0,0,0,0,0,0,0
</chunk>
   <chunk x="32" y="176" width="16" height="16">
0,0,0,0,0,0,0,2147483657,2147483657,2147483657,2147483656,0,0,0,0,0,
0,0,0,0,0,0,0,2147483657,2147483657,2147483657,2147483656,0,0,0,0,0,
0,0,0,0,0,0,0,2147483657,2147483657,2147483657,2147483656,0,0,0,0,0,
0,0,0,0,0,0,0,2147483657,2147483657,2147483657,2147483656,0,0,0,0,0,
0,0,0,0,0,0,0,2147483657,2147483657,2147483657,2147483656,0,0,0,0,0,
0,0,0,0,0,0,0,2147483657,2147483657,2147483657,2147483656,0,0,0,0,0,
0,0,0,0,0,0,0,2147483657,2147483657,2147483657,2147483656,0,0,0,0,0,
0,0,0,0,0,0,0,2147483657,2147483657,2147483657,2147483656,0,0,0,0,0,
0,0,0,0,0,0,0,2147483657,2147483657,2147483657,2147483656,0,0,0,0,0,
0,0,0,0,0,0,0,2147483657,2147483657,2147483657,2147483656,0,0,0,0,0,
0,0,0,0,0,0,0,2147483657,2147483657,2147483657,2147483656,0,0,0,0,0,
0,0,0,0,0,0,0,2147483657,2147483657,2147483657,2147483656,0,0,0,0,0,
0,0,0,0,0,0,0,2147483657,2147483657,2147483657,2147483656,0,0,0,0,0,
0,0,0,0,0,0,0,2147483657,2147483657,2147483657,2147483655,2147483652,2147483652,2147483652,2147483652,2147483652,
0,0,0,0,0,0,0,2147483657,2147483657,2147483657,2147483657,2147483657,2147483657,2147483657,2147483657,2147483657,
0,0,0,0,0,0,0,2147483657,2147483657,2147483657,2147483657,2147483657,2147483657,2147483657,2147483657,2147483657
</chunk>
   <chunk x="48" y="176" width="16" height="16">
0,0,0,0,0,0,0,0,0,0,0,0,0,0,0,0,
0,0,0,0,0,0,0,0,0,0,0,0,0,0,0,0,
0,0,0,0,0,0,0,0,0,0,0,0,0,0,0,0,
0,0,0,0,0,0,0,0,0,0,0,0,0,0,0,0,
0,0,0,0,0,0,0,0,0,0,0,0,0,0,0,0,
0,0,0,0,0,0,0,0,0,0,0,0,0,0,0,0,
0,0,0,0,0,0,0,0,0,0,0,0,0,0,0,0,
0,0,0,0,0,0,0,0,0,0,0,0,0,0,0,0,
0,0,0,0,0,0,0,0,0,0,0,0,0,0,0,0,
0,0,0,0,0,0,0,0,0,0,0,0,0,0,0,0,
0,0,0,0,0,0,0,0,0,0,0,0,0,0,0,0,
0,0,0,0,0,0,0,0,0,0,0,0,0,0,0,0,
0,0,0,0,0,0,0,0,0,0,0,0,0,0,0,0,
2147483652,2147483652,2147483652,2147483652,2147483652,2147483652,2147483652,2147483652,2147483652,2147483652,2147483652,2147483652,2147483652,2147483652,2147483652,2147483652,
2147483657,2147483657,2147483657,2147483657,2147483657,2147483657,2147483657,2147483657,2147483657,2147483657,2147483657,2147483657,2147483657,2147483657,2147483657,2147483657,
2147483657,2147483657,2147483657,2147483657,2147483657,2147483657,2147483657,2147483657,2147483657,2147483657,2147483657,2147483657,2147483657,2147483657,2147483657,2147483657
</chunk>
   <chunk x="64" y="176" width="16" height="16">
0,0,0,0,0,0,0,0,0,0,0,0,0,0,0,0,
0,0,0,0,0,0,0,0,0,0,0,0,0,0,0,0,
0,0,0,0,0,0,0,0,0,0,0,0,0,0,0,0,
0,0,0,0,0,0,0,0,0,0,0,0,0,0,0,0,
0,0,0,0,0,0,0,0,0,0,0,0,0,0,0,0,
0,0,0,0,0,0,0,0,0,0,0,0,0,0,0,0,
0,0,0,0,0,0,0,0,0,0,0,0,0,0,0,0,
0,0,0,0,0,0,0,0,0,0,0,0,0,0,0,0,
0,0,0,0,0,0,0,0,0,0,0,0,0,0,0,0,
0,0,0,0,0,0,0,0,0,0,0,0,0,0,0,0,
0,0,0,0,0,0,0,0,0,0,0,0,0,0,0,0,
0,0,0,0,0,0,0,0,0,0,0,0,0,0,0,0,
0,0,0,0,0,0,0,0,0,0,0,0,0,0,0,0,
2147483652,2147483652,2147483652,2147483652,2147483652,2147483652,2147483652,2147483652,2147483652,2147483652,2147483652,2147483652,2147483652,2147483652,2147483652,2147483652,
2147483657,2147483657,2147483657,2147483657,2147483657,2147483657,2147483657,2147483657,2147483657,2147483657,2147483657,2147483657,2147483657,2147483657,2147483657,2147483657,
2147483657,2147483657,2147483657,2147483657,2147483657,2147483657,2147483657,2147483657,2147483657,2147483657,2147483657,2147483657,2147483657,2147483657,2147483657,2147483657
</chunk>
   <chunk x="80" y="176" width="16" height="16">
0,0,0,0,0,0,0,0,0,0,0,0,0,0,0,0,
0,0,0,0,0,0,0,0,0,0,0,0,0,0,0,0,
0,0,0,0,0,0,0,0,0,0,0,0,0,0,0,0,
0,0,0,0,0,0,0,0,0,0,0,0,0,0,0,0,
0,0,0,0,0,0,0,0,0,0,0,0,0,0,0,0,
0,0,0,0,0,0,0,0,0,0,0,0,0,0,0,0,
0,0,0,0,0,0,0,0,0,0,0,0,0,0,0,0,
0,0,0,0,0,0,0,0,0,0,0,0,0,0,0,0,
0,0,0,0,0,0,0,0,0,0,0,0,0,0,0,0,
0,0,0,0,0,0,0,0,0,0,0,0,0,0,0,0,
0,0,0,0,0,0,0,0,0,0,0,0,0,0,0,0,
0,0,0,0,0,0,0,0,0,0,0,0,0,0,0,0,
0,0,0,0,0,0,0,0,0,0,0,0,0,0,0,0,
2147483652,2147483652,2147483652,2147483652,2147483652,2147483652,2147483652,2147483652,2147483652,2147483652,2147483652,2147483652,2147483652,2147483652,2147483652,2147483652,
2147483657,2147483657,2147483657,2147483657,2147483657,2147483657,2147483657,2147483657,2147483657,2147483657,2147483657,2147483657,2147483657,2147483657,2147483657,2147483657,
2147483657,2147483657,2147483657,2147483657,2147483657,2147483657,2147483657,2147483657,2147483657,2147483657,2147483657,2147483657,2147483657,2147483657,2147483657,2147483657
</chunk>
   <chunk x="96" y="176" width="16" height="16">
0,0,0,0,0,0,0,0,0,0,0,0,0,0,0,0,
0,0,0,0,0,0,0,0,0,0,0,0,0,0,0,0,
0,0,0,0,0,0,0,0,0,0,0,0,0,0,0,0,
0,0,0,0,0,0,0,0,0,0,0,0,0,0,0,0,
0,0,0,0,0,0,0,0,0,0,0,0,0,0,0,0,
0,0,0,0,0,0,0,0,0,0,0,0,0,0,0,0,
0,0,0,0,0,0,0,0,0,0,0,0,0,0,0,0,
0,0,0,0,0,0,0,0,0,0,0,0,0,0,0,0,
0,0,0,0,0,0,0,0,0,0,0,0,0,0,0,0,
0,0,0,0,0,0,0,0,0,0,0,0,0,0,0,0,
0,0,0,0,0,0,0,0,0,0,0,0,0,0,0,0,
0,0,0,0,0,0,0,0,0,0,0,0,0,0,0,0,
0,0,0,0,0,0,0,0,0,0,0,0,0,0,0,0,
2147483652,2147483652,2147483652,2147483652,2147483652,2147483652,2147483652,2147483652,2147483652,2147483652,2147483652,2147483652,2147483652,2147483652,2147483652,2147483652,
2147483657,2147483657,2147483657,2147483657,2147483657,2147483657,2147483657,2147483657,2147483657,2147483657,2147483657,2147483657,2147483657,2147483657,2147483657,2147483657,
2147483657,2147483657,2147483657,2147483657,2147483657,2147483657,2147483657,2147483657,2147483657,2147483657,2147483657,2147483657,2147483657,2147483657,2147483657,2147483657
</chunk>
   <chunk x="112" y="176" width="16" height="16">
0,0,0,0,0,0,0,0,0,0,0,0,0,0,0,0,
0,0,0,0,0,0,0,0,0,0,0,0,0,0,0,0,
0,0,0,0,0,0,0,0,0,0,0,0,0,0,0,0,
0,0,0,0,0,0,0,0,0,0,0,0,0,0,0,0,
0,0,0,0,0,0,0,0,0,0,0,0,0,0,0,0,
0,0,0,0,0,0,0,0,0,0,0,0,0,0,0,0,
0,0,0,0,0,0,0,0,0,0,0,0,0,0,0,0,
0,0,0,0,0,0,0,0,0,0,0,0,0,0,0,0,
0,0,0,0,0,0,0,0,0,0,0,0,0,0,0,0,
0,0,0,0,0,0,0,0,0,0,0,0,0,0,0,0,
0,0,0,0,0,0,0,0,0,0,0,0,0,0,0,0,
0,0,0,0,0,0,0,0,0,0,0,0,0,0,0,0,
0,0,0,0,0,0,0,0,0,0,0,0,0,0,0,0,
2147483652,2147483652,2147483652,2147483652,2147483652,2147483652,2147483652,2147483652,2147483652,2147483652,2147483652,2147483652,2147483652,2147483652,2147483652,2147483652,
2147483657,2147483657,2147483657,2147483657,2147483657,2147483657,2147483657,2147483657,2147483657,2147483657,2147483657,2147483657,2147483657,2147483657,2147483657,2147483657,
2147483657,2147483657,2147483657,2147483657,2147483657,2147483657,2147483657,2147483657,2147483657,2147483657,2147483657,2147483657,2147483657,2147483657,2147483657,2147483657
</chunk>
   <chunk x="128" y="176" width="16" height="16">
0,0,0,0,0,0,0,0,0,0,0,0,0,0,0,0,
0,0,0,0,0,0,0,0,0,0,0,0,0,0,0,0,
0,0,0,0,0,0,0,0,0,0,0,0,0,0,0,0,
0,0,0,0,0,0,0,0,0,0,0,0,0,0,0,0,
0,0,0,0,0,0,0,0,0,0,0,0,0,0,0,0,
0,0,0,0,0,0,0,0,0,0,0,0,0,0,0,0,
0,0,0,0,0,0,0,0,0,0,0,0,0,0,0,0,
0,0,0,0,0,0,0,0,0,0,0,0,0,0,0,0,
0,0,0,0,0,0,0,0,0,0,0,0,0,0,0,0,
0,0,0,0,0,0,0,0,0,0,0,0,0,0,0,0,
0,0,0,0,0,0,0,0,0,0,0,0,0,0,0,0,
0,0,0,0,0,0,0,0,0,0,0,0,0,0,0,0,
0,0,0,0,0,0,0,0,0,0,0,0,0,0,0,0,
2147483652,2147483652,2147483652,2147483652,2147483652,2147483652,2147483652,2147483652,2147483652,2147483652,2147483652,2147483652,2147483652,2147483652,2147483652,2147483652,
2147483657,2147483657,2147483657,2147483657,2147483657,2147483657,2147483657,2147483657,2147483657,2147483657,2147483657,2147483657,2147483657,2147483657,2147483657,2147483657,
2147483657,2147483657,2147483657,2147483657,2147483657,2147483657,2147483657,2147483657,2147483657,2147483657,2147483657,2147483657,2147483657,2147483657,2147483657,2147483657
</chunk>
   <chunk x="144" y="176" width="16" height="16">
0,0,0,0,0,0,0,0,0,0,0,0,0,0,0,0,
0,0,0,0,0,0,0,0,0,0,0,0,0,0,0,0,
0,0,0,0,0,0,0,0,0,0,0,0,0,0,0,0,
0,0,0,0,0,0,0,0,0,0,0,0,0,0,0,0,
0,0,0,0,0,0,0,0,0,0,0,0,0,0,0,0,
0,0,0,0,0,0,0,0,0,0,0,0,0,0,0,0,
0,0,0,0,0,0,0,0,0,0,0,0,0,0,0,0,
0,0,0,0,0,0,0,0,0,0,0,0,0,0,0,0,
0,0,0,0,0,0,0,0,0,0,0,0,0,0,0,0,
0,0,0,0,0,0,0,0,0,0,0,0,0,0,0,0,
0,0,0,0,0,0,0,0,0,0,0,0,0,0,0,0,
0,0,0,0,0,0,0,0,0,0,0,0,0,0,0,0,
0,0,0,0,0,0,0,0,0,0,0,0,0,0,0,0,
2147483652,2147483652,2147483652,2147483652,4,4,4,4,4,4,4,4,4,4,4,4,
2147483657,2147483657,2147483657,2147483657,2147483657,9,9,9,9,9,9,9,9,9,9,9,
2147483657,2147483657,2147483657,2147483657,2147483657,9,9,9,9,9,9,9,9,9,9,9
</chunk>
   <chunk x="160" y="176" width="16" height="16">
0,0,0,0,0,0,0,0,0,0,0,0,0,0,0,0,
0,0,0,0,0,0,0,0,0,0,0,0,0,0,0,0,
0,0,0,0,0,0,0,0,0,0,0,0,0,0,0,0,
0,0,0,0,0,0,0,0,0,0,0,0,0,0,0,0,
0,0,0,0,0,0,0,0,0,0,0,0,0,0,0,0,
0,0,0,0,0,0,0,0,0,0,0,0,0,0,0,0,
0,0,0,0,0,0,0,0,0,0,0,0,0,0,0,0,
0,0,0,0,0,0,0,0,0,0,0,0,0,0,0,0,
0,0,0,0,0,0,0,0,0,0,0,0,0,0,0,0,
0,0,0,0,0,0,0,0,0,0,0,0,0,0,0,0,
0,0,0,0,0,0,0,0,0,0,0,0,0,0,0,0,
0,0,0,0,0,0,0,0,0,0,0,0,0,0,0,0,
0,0,0,0,0,0,0,0,0,0,0,0,0,0,0,0,
4,4,2147483652,2147483652,2147483652,2147483652,2147483652,2147483652,2147483652,2147483652,2147483652,2147483652,2147483652,2147483652,2147483652,2147483652,
9,2147483657,2147483657,2147483657,2147483657,2147483657,2147483657,2147483657,2147483657,2147483657,2147483657,2147483657,2147483657,2147483657,2147483657,2147483657,
9,2147483657,2147483657,2147483657,2147483657,2147483657,2147483657,2147483657,2147483657,2147483657,2147483657,2147483657,2147483657,2147483657,2147483657,2147483657
</chunk>
   <chunk x="176" y="176" width="16" height="16">
0,0,0,0,0,0,0,0,0,0,0,0,0,0,0,0,
0,0,0,0,0,0,0,0,0,0,0,0,0,0,0,0,
0,0,0,0,0,0,0,0,0,0,0,0,0,0,0,0,
0,0,0,0,0,0,0,0,0,0,0,0,0,0,0,0,
0,0,0,0,0,0,0,0,0,0,0,0,0,0,0,0,
0,0,0,0,0,0,0,0,0,0,0,0,0,0,0,0,
0,0,0,0,0,0,0,0,0,0,0,0,0,0,0,0,
0,0,0,0,0,0,0,0,0,0,0,0,0,0,0,0,
0,0,0,0,0,0,0,0,0,0,0,0,0,0,0,0,
0,0,0,0,0,0,0,0,0,0,0,0,0,0,0,0,
0,0,0,0,0,0,0,0,0,0,0,0,0,0,0,0,
0,0,0,0,0,0,0,0,0,0,0,0,0,0,0,0,
0,0,0,0,0,0,0,0,0,0,0,0,0,0,0,0,
2147483652,2147483652,2147483652,2147483652,2147483652,2147483652,2147483652,2147483652,2147483652,2147483652,2147483652,2147483652,2147483652,2147483652,2147483652,2147483652,
2147483657,2147483657,2147483657,2147483657,2147483657,2147483657,2147483657,2147483657,2147483657,2147483657,2147483657,2147483657,2147483657,2147483657,2147483657,2147483657,
2147483657,2147483657,2147483657,2147483657,2147483657,2147483657,2147483657,2147483657,2147483657,2147483657,2147483657,2147483657,2147483657,2147483657,2147483657,2147483657
</chunk>
   <chunk x="192" y="176" width="16" height="16">
0,0,0,2147483658,2147483657,2147483657,2147483657,0,0,0,0,0,0,0,0,0,
0,0,0,2147483658,2147483657,2147483657,2147483657,0,0,0,0,0,0,0,0,0,
0,0,0,2147483658,2147483657,2147483657,2147483657,0,0,0,0,0,0,0,0,0,
0,0,0,2147483658,2147483657,2147483657,2147483657,0,0,0,0,0,0,0,0,0,
0,0,0,2147483658,2147483657,2147483657,2147483657,0,0,0,0,0,0,0,0,0,
0,0,0,2147483658,2147483657,2147483657,2147483657,0,0,0,0,0,0,0,0,0,
0,0,0,2147483658,2147483657,2147483657,2147483657,0,0,0,0,0,0,0,0,0,
0,0,0,2147483658,2147483657,2147483657,2147483657,0,0,0,0,0,0,0,0,0,
0,0,0,2147483658,2147483657,2147483657,2147483657,0,0,0,0,0,0,0,0,0,
0,0,0,2147483658,2147483657,2147483657,2147483657,0,0,0,0,0,0,0,0,0,
0,0,0,2147483658,2147483657,2147483657,2147483657,0,0,0,0,0,0,0,0,0,
0,0,0,2147483658,2147483657,2147483657,2147483657,0,0,0,0,0,0,0,0,0,
0,0,0,2147483658,2147483657,2147483657,2147483657,0,0,0,0,0,0,0,0,0,
2147483652,2147483652,2147483652,2147483654,2147483657,2147483657,2147483657,0,0,0,0,0,0,0,0,0,
2147483657,2147483657,2147483657,2147483657,2147483657,2147483657,2147483657,0,0,0,0,0,0,0,0,0,
2147483657,2147483657,2147483657,2147483657,2147483657,2147483657,2147483657,0,0,0,0,0,0,0,0,0
</chunk>
   <chunk x="32" y="192" width="16" height="16">
0,0,0,0,0,0,0,2147483657,2147483657,2147483657,2147483657,2147483657,2147483657,2147483657,2147483657,2147483657,
0,0,0,0,0,0,0,0,0,0,0,0,0,0,0,0,
0,0,0,0,0,0,0,0,0,0,0,0,0,0,0,0,
0,0,0,0,0,0,0,0,0,0,0,0,0,0,0,0,
0,0,0,0,0,0,0,0,0,0,0,0,0,0,0,0,
0,0,0,0,0,0,0,0,0,0,0,0,0,0,0,0,
0,0,0,0,0,0,0,0,0,0,0,0,0,0,0,0,
0,0,0,0,0,0,0,0,0,0,0,0,0,0,0,0,
0,0,0,0,0,0,0,0,0,0,0,0,0,0,0,0,
0,0,0,0,0,0,0,0,0,0,0,0,0,0,0,0,
0,0,0,0,0,0,0,0,0,0,0,0,0,0,0,0,
0,0,0,0,0,0,0,0,0,0,0,0,0,0,0,0,
0,0,0,0,0,0,0,0,0,0,0,0,0,0,0,0,
0,0,0,0,0,0,0,0,0,0,0,0,0,0,0,0,
0,0,0,0,0,0,0,0,0,0,0,0,0,0,0,0,
0,0,0,0,0,0,0,0,0,0,0,0,0,0,0,0
</chunk>
   <chunk x="48" y="192" width="16" height="16">
2147483657,2147483657,2147483657,2147483657,2147483657,2147483657,2147483657,2147483657,2147483657,2147483657,2147483657,2147483657,2147483657,2147483657,2147483657,2147483657,
0,0,0,0,0,0,0,0,0,0,0,0,0,0,0,0,
0,0,0,0,0,0,0,0,0,0,0,0,0,0,0,0,
0,0,0,0,0,0,0,0,0,0,0,0,0,0,0,0,
0,0,0,0,0,0,0,0,0,0,0,0,0,0,0,0,
0,0,0,0,0,0,0,0,0,0,0,0,0,0,0,0,
0,0,0,0,0,0,0,0,0,0,0,0,0,0,0,0,
0,0,0,0,0,0,0,0,0,0,0,0,0,0,0,0,
0,0,0,0,0,0,0,0,0,0,0,0,0,0,0,0,
0,0,0,0,0,0,0,0,0,0,0,0,0,0,0,0,
0,0,0,0,0,0,0,0,0,0,0,0,0,0,0,0,
0,0,0,0,0,0,0,0,0,0,0,0,0,0,0,0,
0,0,0,0,0,0,0,0,0,0,0,0,0,0,0,0,
0,0,0,0,0,0,0,0,0,0,0,0,0,0,0,0,
0,0,0,0,0,0,0,0,0,0,0,0,0,0,0,0,
0,0,0,0,0,0,0,0,0,0,0,0,0,0,0,0
</chunk>
   <chunk x="64" y="192" width="16" height="16">
2147483657,2147483657,2147483657,2147483657,2147483657,2147483657,2147483657,2147483657,2147483657,2147483657,2147483657,2147483657,2147483657,2147483657,2147483657,2147483657,
0,0,0,0,0,0,0,0,0,0,0,0,0,0,0,0,
0,0,0,0,0,0,0,0,0,0,0,0,0,0,0,0,
0,0,0,0,0,0,0,0,0,0,0,0,0,0,0,0,
0,0,0,0,0,0,0,0,0,0,0,0,0,0,0,0,
0,0,0,0,0,0,0,0,0,0,0,0,0,0,0,0,
0,0,0,0,0,0,0,0,0,0,0,0,0,0,0,0,
0,0,0,0,0,0,0,0,0,0,0,0,0,0,0,0,
0,0,0,0,0,0,0,0,0,0,0,0,0,0,0,0,
0,0,0,0,0,0,0,0,0,0,0,0,0,0,0,0,
0,0,0,0,0,0,0,0,0,0,0,0,0,0,0,0,
0,0,0,0,0,0,0,0,0,0,0,0,0,0,0,0,
0,0,0,0,0,0,0,0,0,0,0,0,0,0,0,0,
0,0,0,0,0,0,0,0,0,0,0,0,0,0,0,0,
0,0,0,0,0,0,0,0,0,0,0,0,0,0,0,0,
0,0,0,0,0,0,0,0,0,0,0,0,0,0,0,0
</chunk>
   <chunk x="80" y="192" width="16" height="16">
2147483657,2147483657,2147483657,2147483657,2147483657,2147483657,2147483657,2147483657,2147483657,2147483657,2147483657,2147483657,2147483657,2147483657,2147483657,2147483657,
0,0,0,0,0,0,0,0,0,0,0,0,0,0,0,0,
0,0,0,0,0,0,0,0,0,0,0,0,0,0,0,0,
0,0,0,0,0,0,0,0,0,0,0,0,0,0,0,0,
0,0,0,0,0,0,0,0,0,0,0,0,0,0,0,0,
0,0,0,0,0,0,0,0,0,0,0,0,0,0,0,0,
0,0,0,0,0,0,0,0,0,0,0,0,0,0,0,0,
0,0,0,0,0,0,0,0,0,0,0,0,0,0,0,0,
0,0,0,0,0,0,0,0,0,0,0,0,0,0,0,0,
0,0,0,0,0,0,0,0,0,0,0,0,0,0,0,0,
0,0,0,0,0,0,0,0,0,0,0,0,0,0,0,0,
0,0,0,0,0,0,0,0,0,0,0,0,0,0,0,0,
0,0,0,0,0,0,0,0,0,0,0,0,0,0,0,0,
0,0,0,0,0,0,0,0,0,0,0,0,0,0,0,0,
0,0,0,0,0,0,0,0,0,0,0,0,0,0,0,0,
0,0,0,0,0,0,0,0,0,0,0,0,0,0,0,0
</chunk>
   <chunk x="96" y="192" width="16" height="16">
2147483657,2147483657,2147483657,2147483657,2147483657,2147483657,2147483657,2147483657,2147483657,2147483657,2147483657,2147483657,2147483657,2147483657,2147483657,2147483657,
0,0,0,0,0,0,0,0,0,0,0,0,0,0,0,0,
0,0,0,0,0,0,0,0,0,0,0,0,0,0,0,0,
0,0,0,0,0,0,0,0,0,0,0,0,0,0,0,0,
0,0,0,0,0,0,0,0,0,0,0,0,0,0,0,0,
0,0,0,0,0,0,0,0,0,0,0,0,0,0,0,0,
0,0,0,0,0,0,0,0,0,0,0,0,0,0,0,0,
0,0,0,0,0,0,0,0,0,0,0,0,0,0,0,0,
0,0,0,0,0,0,0,0,0,0,0,0,0,0,0,0,
0,0,0,0,0,0,0,0,0,0,0,0,0,0,0,0,
0,0,0,0,0,0,0,0,0,0,0,0,0,0,0,0,
0,0,0,0,0,0,0,0,0,0,0,0,0,0,0,0,
0,0,0,0,0,0,0,0,0,0,0,0,0,0,0,0,
0,0,0,0,0,0,0,0,0,0,0,0,0,0,0,0,
0,0,0,0,0,0,0,0,0,0,0,0,0,0,0,0,
0,0,0,0,0,0,0,0,0,0,0,0,0,0,0,0
</chunk>
   <chunk x="112" y="192" width="16" height="16">
2147483657,2147483657,2147483657,2147483657,2147483657,2147483657,2147483657,2147483657,2147483657,2147483657,2147483657,2147483657,2147483657,2147483657,2147483657,2147483657,
0,0,0,0,0,0,0,0,0,0,0,0,0,0,0,0,
0,0,0,0,0,0,0,0,0,0,0,0,0,0,0,0,
0,0,0,0,0,0,0,0,0,0,0,0,0,0,0,0,
0,0,0,0,0,0,0,0,0,0,0,0,0,0,0,0,
0,0,0,0,0,0,0,0,0,0,0,0,0,0,0,0,
0,0,0,0,0,0,0,0,0,0,0,0,0,0,0,0,
0,0,0,0,0,0,0,0,0,0,0,0,0,0,0,0,
0,0,0,0,0,0,0,0,0,0,0,0,0,0,0,0,
0,0,0,0,0,0,0,0,0,0,0,0,0,0,0,0,
0,0,0,0,0,0,0,0,0,0,0,0,0,0,0,0,
0,0,0,0,0,0,0,0,0,0,0,0,0,0,0,0,
0,0,0,0,0,0,0,0,0,0,0,0,0,0,0,0,
0,0,0,0,0,0,0,0,0,0,0,0,0,0,0,0,
0,0,0,0,0,0,0,0,0,0,0,0,0,0,0,0,
0,0,0,0,0,0,0,0,0,0,0,0,0,0,0,0
</chunk>
   <chunk x="128" y="192" width="16" height="16">
2147483657,2147483657,2147483657,2147483657,2147483657,2147483657,2147483657,2147483657,2147483657,2147483657,2147483657,2147483657,2147483657,2147483657,2147483657,2147483657,
0,0,0,0,0,0,0,0,0,0,0,0,0,0,0,0,
0,0,0,0,0,0,0,0,0,0,0,0,0,0,0,0,
0,0,0,0,0,0,0,0,0,0,0,0,0,0,0,0,
0,0,0,0,0,0,0,0,0,0,0,0,0,0,0,0,
0,0,0,0,0,0,0,0,0,0,0,0,0,0,0,0,
0,0,0,0,0,0,0,0,0,0,0,0,0,0,0,0,
0,0,0,0,0,0,0,0,0,0,0,0,0,0,0,0,
0,0,0,0,0,0,0,0,0,0,0,0,0,0,0,0,
0,0,0,0,0,0,0,0,0,0,0,0,0,0,0,0,
0,0,0,0,0,0,0,0,0,0,0,0,0,0,0,0,
0,0,0,0,0,0,0,0,0,0,0,0,0,0,0,0,
0,0,0,0,0,0,0,0,0,0,0,0,0,0,0,0,
0,0,0,0,0,0,0,0,0,0,0,0,0,0,0,0,
0,0,0,0,0,0,0,0,0,0,0,0,0,0,0,0,
0,0,0,0,0,0,0,0,0,0,0,0,0,0,0,0
</chunk>
   <chunk x="144" y="192" width="16" height="16">
2147483657,2147483657,2147483657,2147483657,2147483657,2147483657,2147483657,2147483657,2147483657,2147483657,9,9,9,9,9,9,
0,0,0,0,0,0,0,0,0,0,0,0,0,0,0,0,
0,0,0,0,0,0,0,0,0,0,0,0,0,0,0,0,
0,0,0,0,0,0,0,0,0,0,0,0,0,0,0,0,
0,0,0,0,0,0,0,0,0,0,0,0,0,0,0,0,
0,0,0,0,0,0,0,0,0,0,0,0,0,0,0,0,
0,0,0,0,0,0,0,0,0,0,0,0,0,0,0,0,
0,0,0,0,0,0,0,0,0,0,0,0,0,0,0,0,
0,0,0,0,0,0,0,0,0,0,0,0,0,0,0,0,
0,0,0,0,0,0,0,0,0,0,0,0,0,0,0,0,
0,0,0,0,0,0,0,0,0,0,0,0,0,0,0,0,
0,0,0,0,0,0,0,0,0,0,0,0,0,0,0,0,
0,0,0,0,0,0,0,0,0,0,0,0,0,0,0,0,
0,0,0,0,0,0,0,0,0,0,0,0,0,0,0,0,
0,0,0,0,0,0,0,0,0,0,0,0,0,0,0,0,
0,0,0,0,0,0,0,0,0,0,0,0,0,0,0,0
</chunk>
   <chunk x="160" y="192" width="16" height="16">
9,9,9,9,9,9,2147483657,2147483657,2147483657,2147483657,2147483657,2147483657,2147483657,2147483657,2147483657,2147483657,
0,0,0,0,0,0,0,0,0,0,0,0,0,0,0,0,
0,0,0,0,0,0,0,0,0,0,0,0,0,0,0,0,
0,0,0,0,0,0,0,0,0,0,0,0,0,0,0,0,
0,0,0,0,0,0,0,0,0,0,0,0,0,0,0,0,
0,0,0,0,0,0,0,0,0,0,0,0,0,0,0,0,
0,0,0,0,0,0,0,0,0,0,0,0,0,0,0,0,
0,0,0,0,0,0,0,0,0,0,0,0,0,0,0,0,
0,0,0,0,0,0,0,0,0,0,0,0,0,0,0,0,
0,0,0,0,0,0,0,0,0,0,0,0,0,0,0,0,
0,0,0,0,0,0,0,0,0,0,0,0,0,0,0,0,
0,0,0,0,0,0,0,0,0,0,0,0,0,0,0,0,
0,0,0,0,0,0,0,0,0,0,0,0,0,0,0,0,
0,0,0,0,0,0,0,0,0,0,0,0,0,0,0,0,
0,0,0,0,0,0,0,0,0,0,0,0,0,0,0,0,
0,0,0,0,0,0,0,0,0,0,0,0,0,0,0,0
</chunk>
   <chunk x="176" y="192" width="16" height="16">
2147483657,2147483657,2147483657,2147483657,2147483657,2147483657,2147483657,2147483657,2147483657,2147483657,2147483657,2147483657,2147483657,2147483657,2147483657,2147483657,
0,0,0,0,0,0,0,0,0,0,0,0,0,0,0,0,
0,0,0,0,0,0,0,0,0,0,0,0,0,0,0,0,
0,0,0,0,0,0,0,0,0,0,0,0,0,0,0,0,
0,0,0,0,0,0,0,0,0,0,0,0,0,0,0,0,
0,0,0,0,0,0,0,0,0,0,0,0,0,0,0,0,
0,0,0,0,0,0,0,0,0,0,0,0,0,0,0,0,
0,0,0,0,0,0,0,0,0,0,0,0,0,0,0,0,
0,0,0,0,0,0,0,0,0,0,0,0,0,0,0,0,
0,0,0,0,0,0,0,0,0,0,0,0,0,0,0,0,
0,0,0,0,0,0,0,0,0,0,0,0,0,0,0,0,
0,0,0,0,0,0,0,0,0,0,0,0,0,0,0,0,
0,0,0,0,0,0,0,0,0,0,0,0,0,0,0,0,
0,0,0,0,0,0,0,0,0,0,0,0,0,0,0,0,
0,0,0,0,0,0,0,0,0,0,0,0,0,0,0,0,
0,0,0,0,0,0,0,0,0,0,0,0,0,0,0,0
</chunk>
   <chunk x="192" y="192" width="16" height="16">
2147483657,2147483657,2147483657,2147483657,2147483657,2147483657,2147483657,0,0,0,0,0,0,0,0,0,
0,0,0,0,0,0,0,0,0,0,0,0,0,0,0,0,
0,0,0,0,0,0,0,0,0,0,0,0,0,0,0,0,
0,0,0,0,0,0,0,0,0,0,0,0,0,0,0,0,
0,0,0,0,0,0,0,0,0,0,0,0,0,0,0,0,
0,0,0,0,0,0,0,0,0,0,0,0,0,0,0,0,
0,0,0,0,0,0,0,0,0,0,0,0,0,0,0,0,
0,0,0,0,0,0,0,0,0,0,0,0,0,0,0,0,
0,0,0,0,0,0,0,0,0,0,0,0,0,0,0,0,
0,0,0,0,0,0,0,0,0,0,0,0,0,0,0,0,
0,0,0,0,0,0,0,0,0,0,0,0,0,0,0,0,
0,0,0,0,0,0,0,0,0,0,0,0,0,0,0,0,
0,0,0,0,0,0,0,0,0,0,0,0,0,0,0,0,
0,0,0,0,0,0,0,0,0,0,0,0,0,0,0,0,
0,0,0,0,0,0,0,0,0,0,0,0,0,0,0,0,
0,0,0,0,0,0,0,0,0,0,0,0,0,0,0,0
</chunk>
  </data>
 </layer>
</map>
